(SERVOPUZZLECUT2)
(CONTOUR)
(T1  D=3.175 CR=0. - ZMIN=-12.5 - FLAT END MILL)
G0 G90 G94 G17
G21
G53 Z0.

(2D CONTOUR1)
M5
M9
T1
S16400 M3
G55
M9
G0 X0.317 Y-2.54
Z15.
Z5.
G1 Z1.5 F1016.
Z-0.183 F40.
G19 G3 Y-2.223 Z-0.5 J0.317 K0.
G1 Y-1.905 F1016.
G17 G3 X0. Y-1.587 I-0.317 J0.
G2 X-1.587 Y0. I0. J1.587 F1000.
G1 Y51.
G2 X0. Y52.588 I1.587 J0.
G1 X6.
G2 X7.588 Y51. I0. J-1.588
G1 Y49.588
X10.413
Y62.412
X7.588
Y59.
G2 X6. Y57.412 I-1.588 J0.
G1 X0.
G2 X-1.587 Y59. I0. J1.588
G1 Y102.
G2 X0. Y103.588 I1.587 J0.
G1 X51.412
Y106.412
X41.
G2 X39.412 Y108. I0. J1.588
G1 Y114.
G2 X41. Y115.588 I1.588 J0.
G1 X61.
G2 X62.588 Y114. I0. J-1.588
G1 Y103.588
X122.
G2 X123.588 Y102. I0. J-1.588
G1 Y60.588
X125.412
Y64.
G2 X127. Y65.588 I1.588 J0.
G1 X133.
G2 X134.587 Y64. I0. J-1.588
G1 Y48.
G2 X133. Y46.412 I-1.587 J0.
G1 X127.
G2 X125.412 Y48. I0. J1.588
G1 Y49.412
X123.588
Y0.
G2 X122. Y-1.587 I-1.588 J0.
G1 X61.
G2 X59.412 Y0. I0. J1.587
G1 Y10.413
X42.588
Y7.588
X53.
G2 X54.588 Y6. I0. J-1.588
G1 Y0.
G2 X53. Y-1.587 I-1.588 J0.
G1 X0.
G3 X-0.317 Y-1.905 I0. J-0.317 F1016.
G1 Y-2.223
G19 G2 Y-2.54 Z-0.183 J0. K0.317
G1 X0.317
Z-0.683 F40.
G3 Y-2.223 Z-1. J0.317 K0.
G1 Y-1.905 F1016.
G17 G3 X0. Y-1.587 I-0.317 J0.
G2 X-1.587 Y0. I0. J1.587 F1000.
G1 Y51.
G2 X0. Y52.588 I1.587 J0.
G1 X6.
G2 X7.588 Y51. I0. J-1.588
G1 Y49.588
X10.413
Y62.412
X7.588
Y59.
G2 X6. Y57.412 I-1.588 J0.
G1 X0.
G2 X-1.587 Y59. I0. J1.588
G1 Y102.
G2 X0. Y103.588 I1.587 J0.
G1 X51.412
Y106.412
X41.
G2 X39.412 Y108. I0. J1.588
G1 Y114.
G2 X41. Y115.588 I1.588 J0.
G1 X61.
G2 X62.588 Y114. I0. J-1.588
G1 Y103.588
X122.
G2 X123.588 Y102. I0. J-1.588
G1 Y60.588
X125.412
Y64.
G2 X127. Y65.588 I1.588 J0.
G1 X133.
G2 X134.587 Y64. I0. J-1.588
G1 Y48.
G2 X133. Y46.412 I-1.587 J0.
G1 X127.
G2 X125.412 Y48. I0. J1.588
G1 Y49.412
X123.588
Y0.
G2 X122. Y-1.587 I-1.588 J0.
G1 X61.
G2 X59.412 Y0. I0. J1.587
G1 Y10.413
X42.588
Y7.588
X53.
G2 X54.588 Y6. I0. J-1.588
G1 Y0.
G2 X53. Y-1.587 I-1.588 J0.
G1 X0.
G3 X-0.317 Y-1.905 I0. J-0.317 F1016.
G1 Y-2.223
G19 G2 Y-2.54 Z-0.683 J0. K0.317
G1 X0.317
Z-1.183 F40.
G3 Y-2.223 Z-1.5 J0.317 K0.
G1 Y-1.905 F1016.
G17 G3 X0. Y-1.587 I-0.317 J0.
G2 X-1.587 Y0. I0. J1.587 F1000.
G1 Y51.
G2 X0. Y52.588 I1.587 J0.
G1 X6.
G2 X7.588 Y51. I0. J-1.588
G1 Y49.588
X10.413
Y62.412
X7.588
Y59.
G2 X6. Y57.412 I-1.588 J0.
G1 X0.
G2 X-1.587 Y59. I0. J1.588
G1 Y102.
G2 X0. Y103.588 I1.587 J0.
G1 X51.412
Y106.412
X41.
G2 X39.412 Y108. I0. J1.588
G1 Y114.
G2 X41. Y115.588 I1.588 J0.
G1 X61.
G2 X62.588 Y114. I0. J-1.588
G1 Y103.588
X122.
G2 X123.588 Y102. I0. J-1.588
G1 Y60.588
X125.412
Y64.
G2 X127. Y65.588 I1.588 J0.
G1 X133.
G2 X134.587 Y64. I0. J-1.588
G1 Y48.
G2 X133. Y46.412 I-1.587 J0.
G1 X127.
G2 X125.412 Y48. I0. J1.588
G1 Y49.412
X123.588
Y0.
G2 X122. Y-1.587 I-1.588 J0.
G1 X61.
G2 X59.412 Y0. I0. J1.587
G1 Y10.413
X42.588
Y7.588
X53.
G2 X54.588 Y6. I0. J-1.588
G1 Y0.
G2 X53. Y-1.587 I-1.588 J0.
G1 X0.
G3 X-0.317 Y-1.905 I0. J-0.317 F1016.
G1 Y-2.223
G19 G2 Y-2.54 Z-1.183 J0. K0.317
G1 X0.317
Z-1.683 F40.
G3 Y-2.223 Z-2. J0.317 K0.
G1 Y-1.905 F1016.
G17 G3 X0. Y-1.587 I-0.317 J0.
G2 X-1.587 Y0. I0. J1.587 F1000.
G1 Y51.
G2 X0. Y52.588 I1.587 J0.
G1 X6.
G2 X7.588 Y51. I0. J-1.588
G1 Y49.588
X10.413
Y62.412
X7.588
Y59.
G2 X6. Y57.412 I-1.588 J0.
G1 X0.
G2 X-1.587 Y59. I0. J1.588
G1 Y102.
G2 X0. Y103.588 I1.587 J0.
G1 X51.412
Y106.412
X41.
G2 X39.412 Y108. I0. J1.588
G1 Y114.
G2 X41. Y115.588 I1.588 J0.
G1 X61.
G2 X62.588 Y114. I0. J-1.588
G1 Y103.588
X122.
G2 X123.588 Y102. I0. J-1.588
G1 Y60.588
X125.412
Y64.
G2 X127. Y65.588 I1.588 J0.
G1 X133.
G2 X134.587 Y64. I0. J-1.588
G1 Y48.
G2 X133. Y46.412 I-1.587 J0.
G1 X127.
G2 X125.412 Y48. I0. J1.588
G1 Y49.412
X123.588
Y0.
G2 X122. Y-1.587 I-1.588 J0.
G1 X61.
G2 X59.412 Y0. I0. J1.587
G1 Y10.413
X42.588
Y7.588
X53.
G2 X54.588 Y6. I0. J-1.588
G1 Y0.
G2 X53. Y-1.587 I-1.588 J0.
G1 X0.
G3 X-0.317 Y-1.905 I0. J-0.317 F1016.
G1 Y-2.223
G19 G2 Y-2.54 Z-1.683 J0. K0.317
G1 X0.317
Z-2.183 F40.
G3 Y-2.223 Z-2.5 J0.317 K0.
G1 Y-1.905 F1016.
G17 G3 X0. Y-1.587 I-0.317 J0.
G2 X-1.587 Y0. I0. J1.587 F1000.
G1 Y51.
G2 X0. Y52.588 I1.587 J0.
G1 X6.
G2 X7.588 Y51. I0. J-1.588
G1 Y49.588
X10.413
Y62.412
X7.588
Y59.
G2 X6. Y57.412 I-1.588 J0.
G1 X0.
G2 X-1.587 Y59. I0. J1.588
G1 Y102.
G2 X0. Y103.588 I1.587 J0.
G1 X51.412
Y106.412
X41.
G2 X39.412 Y108. I0. J1.588
G1 Y114.
G2 X41. Y115.588 I1.588 J0.
G1 X61.
G2 X62.588 Y114. I0. J-1.588
G1 Y103.588
X122.
G2 X123.588 Y102. I0. J-1.588
G1 Y60.588
X125.412
Y64.
G2 X127. Y65.588 I1.588 J0.
G1 X133.
G2 X134.587 Y64. I0. J-1.588
G1 Y48.
G2 X133. Y46.412 I-1.587 J0.
G1 X127.
G2 X125.412 Y48. I0. J1.588
G1 Y49.412
X123.588
Y0.
G2 X122. Y-1.587 I-1.588 J0.
G1 X61.
G2 X59.412 Y0. I0. J1.587
G1 Y10.413
X42.588
Y7.588
X53.
G2 X54.588 Y6. I0. J-1.588
G1 Y0.
G2 X53. Y-1.587 I-1.588 J0.
G1 X0.
G3 X-0.317 Y-1.905 I0. J-0.317 F1016.
G1 Y-2.223
G19 G2 Y-2.54 Z-2.183 J0. K0.318
G1 X0.317
Z-2.683 F40.
G3 Y-2.223 Z-3. J0.317 K0.
G1 Y-1.905 F1016.
G17 G3 X0. Y-1.587 I-0.317 J0.
G2 X-1.587 Y0. I0. J1.587 F1000.
G1 Y51.
G2 X0. Y52.588 I1.587 J0.
G1 X6.
G2 X7.588 Y51. I0. J-1.588
G1 Y49.588
X10.413
Y62.412
X7.588
Y59.
G2 X6. Y57.412 I-1.588 J0.
G1 X0.
G2 X-1.587 Y59. I0. J1.588
G1 Y102.
G2 X0. Y103.588 I1.587 J0.
G1 X51.412
Y106.412
X41.
G2 X39.412 Y108. I0. J1.588
G1 Y114.
G2 X41. Y115.588 I1.588 J0.
G1 X61.
G2 X62.588 Y114. I0. J-1.588
G1 Y103.588
X122.
G2 X123.588 Y102. I0. J-1.588
G1 Y60.588
X125.412
Y64.
G2 X127. Y65.588 I1.588 J0.
G1 X133.
G2 X134.587 Y64. I0. J-1.588
G1 Y48.
G2 X133. Y46.412 I-1.587 J0.
G1 X127.
G2 X125.412 Y48. I0. J1.588
G1 Y49.412
X123.588
Y0.
G2 X122. Y-1.587 I-1.588 J0.
G1 X61.
G2 X59.412 Y0. I0. J1.587
G1 Y10.413
X42.588
Y7.588
X53.
G2 X54.588 Y6. I0. J-1.588
G1 Y0.
G2 X53. Y-1.587 I-1.588 J0.
G1 X0.
G3 X-0.317 Y-1.905 I0. J-0.317 F1016.
G1 Y-2.223
G19 G2 Y-2.54 Z-2.683 J0. K0.318
G1 X0.317
Z-3.183 F40.
G3 Y-2.223 Z-3.5 J0.317 K0.
G1 Y-1.905 F1016.
G17 G3 X0. Y-1.587 I-0.317 J0.
G2 X-1.587 Y0. I0. J1.587 F1000.
G1 Y51.
G2 X0. Y52.588 I1.587 J0.
G1 X6.
G2 X7.588 Y51. I0. J-1.588
G1 Y49.588
X10.413
Y62.412
X7.588
Y59.
G2 X6. Y57.412 I-1.588 J0.
G1 X0.
G2 X-1.587 Y59. I0. J1.588
G1 Y102.
G2 X0. Y103.588 I1.587 J0.
G1 X51.412
Y106.412
X41.
G2 X39.412 Y108. I0. J1.588
G1 Y114.
G2 X41. Y115.588 I1.588 J0.
G1 X61.
G2 X62.588 Y114. I0. J-1.588
G1 Y103.588
X122.
G2 X123.588 Y102. I0. J-1.588
G1 Y60.588
X125.412
Y64.
G2 X127. Y65.588 I1.588 J0.
G1 X133.
G2 X134.587 Y64. I0. J-1.588
G1 Y48.
G2 X133. Y46.412 I-1.587 J0.
G1 X127.
G2 X125.412 Y48. I0. J1.588
G1 Y49.412
X123.588
Y0.
G2 X122. Y-1.587 I-1.588 J0.
G1 X61.
G2 X59.412 Y0. I0. J1.587
G1 Y10.413
X42.588
Y7.588
X53.
G2 X54.588 Y6. I0. J-1.588
G1 Y0.
G2 X53. Y-1.587 I-1.588 J0.
G1 X0.
G3 X-0.317 Y-1.905 I0. J-0.317 F1016.
G1 Y-2.223
G19 G2 Y-2.54 Z-3.183 J0. K0.318
G1 X0.317
Z-3.683 F40.
G3 Y-2.223 Z-4. J0.317 K0.
G1 Y-1.905 F1016.
G17 G3 X0. Y-1.587 I-0.317 J0.
G2 X-1.587 Y0. I0. J1.587 F1000.
G1 Y51.
G2 X0. Y52.588 I1.587 J0.
G1 X6.
G2 X7.588 Y51. I0. J-1.588
G1 Y49.588
X10.413
Y62.412
X7.588
Y59.
G2 X6. Y57.412 I-1.588 J0.
G1 X0.
G2 X-1.587 Y59. I0. J1.588
G1 Y102.
G2 X0. Y103.588 I1.587 J0.
G1 X51.412
Y106.412
X41.
G2 X39.412 Y108. I0. J1.588
G1 Y114.
G2 X41. Y115.588 I1.588 J0.
G1 X61.
G2 X62.588 Y114. I0. J-1.588
G1 Y103.588
X122.
G2 X123.588 Y102. I0. J-1.588
G1 Y60.588
X125.412
Y64.
G2 X127. Y65.588 I1.588 J0.
G1 X133.
G2 X134.587 Y64. I0. J-1.588
G1 Y48.
G2 X133. Y46.412 I-1.587 J0.
G1 X127.
G2 X125.412 Y48. I0. J1.588
G1 Y49.412
X123.588
Y0.
G2 X122. Y-1.587 I-1.588 J0.
G1 X61.
G2 X59.412 Y0. I0. J1.587
G1 Y10.413
X42.588
Y7.588
X53.
G2 X54.588 Y6. I0. J-1.588
G1 Y0.
G2 X53. Y-1.587 I-1.588 J0.
G1 X0.
G3 X-0.317 Y-1.905 I0. J-0.317 F1016.
G1 Y-2.223
G19 G2 Y-2.54 Z-3.683 J0. K0.318
G1 X0.317
Z-4.183 F40.
G3 Y-2.223 Z-4.5 J0.317 K0.
G1 Y-1.905 F1016.
G17 G3 X0. Y-1.587 I-0.317 J0.
G2 X-1.587 Y0. I0. J1.587 F1000.
G1 Y51.
G2 X0. Y52.588 I1.587 J0.
G1 X6.
G2 X7.588 Y51. I0. J-1.588
G1 Y49.588
X10.413
Y62.412
X7.588
Y59.
G2 X6. Y57.412 I-1.588 J0.
G1 X0.
G2 X-1.587 Y59. I0. J1.588
G1 Y102.
G2 X0. Y103.588 I1.587 J0.
G1 X51.412
Y106.412
X41.
G2 X39.412 Y108. I0. J1.588
G1 Y114.
G2 X41. Y115.588 I1.588 J0.
G1 X61.
G2 X62.588 Y114. I0. J-1.588
G1 Y103.588
X122.
G2 X123.588 Y102. I0. J-1.588
G1 Y60.588
X125.412
Y64.
G2 X127. Y65.588 I1.588 J0.
G1 X133.
G2 X134.587 Y64. I0. J-1.588
G1 Y48.
G2 X133. Y46.412 I-1.587 J0.
G1 X127.
G2 X125.412 Y48. I0. J1.588
G1 Y49.412
X123.588
Y0.
G2 X122. Y-1.587 I-1.588 J0.
G1 X61.
G2 X59.412 Y0. I0. J1.587
G1 Y10.413
X42.588
Y7.588
X53.
G2 X54.588 Y6. I0. J-1.588
G1 Y0.
G2 X53. Y-1.587 I-1.588 J0.
G1 X0.
G3 X-0.317 Y-1.905 I0. J-0.317 F1016.
G1 Y-2.223
G19 G2 Y-2.54 Z-4.183 J0. K0.318
G1 X0.317
Z-4.683 F40.
G3 Y-2.223 Z-5. J0.317 K0.
G1 Y-1.905 F1016.
G17 G3 X0. Y-1.587 I-0.317 J0.
G2 X-1.587 Y0. I0. J1.587 F1000.
G1 Y51.
G2 X0. Y52.588 I1.587 J0.
G1 X6.
G2 X7.588 Y51. I0. J-1.588
G1 Y49.588
X10.413
Y62.412
X7.588
Y59.
G2 X6. Y57.412 I-1.588 J0.
G1 X0.
G2 X-1.587 Y59. I0. J1.588
G1 Y102.
G2 X0. Y103.588 I1.587 J0.
G1 X51.412
Y106.412
X41.
G2 X39.412 Y108. I0. J1.588
G1 Y114.
G2 X41. Y115.588 I1.588 J0.
G1 X61.
G2 X62.588 Y114. I0. J-1.588
G1 Y103.588
X122.
G2 X123.588 Y102. I0. J-1.588
G1 Y60.588
X125.412
Y64.
G2 X127. Y65.588 I1.588 J0.
G1 X133.
G2 X134.587 Y64. I0. J-1.588
G1 Y48.
G2 X133. Y46.412 I-1.587 J0.
G1 X127.
G2 X125.412 Y48. I0. J1.588
G1 Y49.412
X123.588
Y0.
G2 X122. Y-1.587 I-1.588 J0.
G1 X61.
G2 X59.412 Y0. I0. J1.587
G1 Y10.413
X42.588
Y7.588
X53.
G2 X54.588 Y6. I0. J-1.588
G1 Y0.
G2 X53. Y-1.587 I-1.588 J0.
G1 X0.
G3 X-0.317 Y-1.905 I0. J-0.317 F1016.
G1 Y-2.223
G19 G2 Y-2.54 Z-4.683 J0. K0.318
G1 X0.317
Z-5.183 F40.
G3 Y-2.223 Z-5.5 J0.317 K0.
G1 Y-1.905 F1016.
G17 G3 X0. Y-1.587 I-0.317 J0.
G2 X-1.587 Y0. I0. J1.587 F1000.
G1 Y51.
G2 X0. Y52.588 I1.587 J0.
G1 X6.
G2 X7.588 Y51. I0. J-1.588
G1 Y49.588
X10.413
Y62.412
X7.588
Y59.
G2 X6. Y57.412 I-1.588 J0.
G1 X0.
G2 X-1.587 Y59. I0. J1.588
G1 Y102.
G2 X0. Y103.588 I1.587 J0.
G1 X51.412
Y106.412
X41.
G2 X39.412 Y108. I0. J1.588
G1 Y114.
G2 X41. Y115.588 I1.588 J0.
G1 X61.
G2 X62.588 Y114. I0. J-1.588
G1 Y103.588
X122.
G2 X123.588 Y102. I0. J-1.588
G1 Y60.588
X125.412
Y64.
G2 X127. Y65.588 I1.588 J0.
G1 X133.
G2 X134.587 Y64. I0. J-1.588
G1 Y48.
G2 X133. Y46.412 I-1.587 J0.
G1 X127.
G2 X125.412 Y48. I0. J1.588
G1 Y49.412
X123.588
Y0.
G2 X122. Y-1.587 I-1.588 J0.
G1 X61.
G2 X59.412 Y0. I0. J1.587
G1 Y10.413
X42.588
Y7.588
X53.
G2 X54.588 Y6. I0. J-1.588
G1 Y0.
G2 X53. Y-1.587 I-1.588 J0.
G1 X0.
G3 X-0.317 Y-1.905 I0. J-0.317 F1016.
G1 Y-2.223
G19 G2 Y-2.54 Z-5.183 J0. K0.318
G1 X0.317
Z-5.683 F40.
G3 Y-2.223 Z-6. J0.317 K0.
G1 Y-1.905 F1016.
G17 G3 X0. Y-1.587 I-0.317 J0.
G2 X-1.587 Y0. I0. J1.587 F1000.
G1 Y51.
G2 X0. Y52.588 I1.587 J0.
G1 X6.
G2 X7.588 Y51. I0. J-1.588
G1 Y49.588
X10.413
Y62.412
X7.588
Y59.
G2 X6. Y57.412 I-1.588 J0.
G1 X0.
G2 X-1.587 Y59. I0. J1.588
G1 Y102.
G2 X0. Y103.588 I1.587 J0.
G1 X51.412
Y106.412
X41.
G2 X39.412 Y108. I0. J1.588
G1 Y114.
G2 X41. Y115.588 I1.588 J0.
G1 X61.
G2 X62.588 Y114. I0. J-1.588
G1 Y103.588
X122.
G2 X123.588 Y102. I0. J-1.588
G1 Y60.588
X125.412
Y64.
G2 X127. Y65.588 I1.588 J0.
G1 X133.
G2 X134.587 Y64. I0. J-1.588
G1 Y48.
G2 X133. Y46.412 I-1.587 J0.
G1 X127.
G2 X125.412 Y48. I0. J1.588
G1 Y49.412
X123.588
Y0.
G2 X122. Y-1.587 I-1.588 J0.
G1 X61.
G2 X59.412 Y0. I0. J1.587
G1 Y10.413
X42.588
Y7.588
X53.
G2 X54.588 Y6. I0. J-1.588
G1 Y0.
G2 X53. Y-1.587 I-1.588 J0.
G1 X0.
G3 X-0.317 Y-1.905 I0. J-0.317 F1016.
G1 Y-2.223
G19 G2 Y-2.54 Z-5.683 J0. K0.318
G1 X0.317
Z-6.183 F40.
G3 Y-2.223 Z-6.5 J0.317 K0.
G1 Y-1.905 F1016.
G17 G3 X0. Y-1.587 I-0.317 J0.
G2 X-1.587 Y0. I0. J1.587 F1000.
G1 Y51.
G2 X0. Y52.588 I1.587 J0.
G1 X6.
G2 X7.588 Y51. I0. J-1.588
G1 Y49.588
X10.413
Y62.412
X7.588
Y59.
G2 X6. Y57.412 I-1.588 J0.
G1 X0.
G2 X-1.587 Y59. I0. J1.588
G1 Y102.
G2 X0. Y103.588 I1.587 J0.
G1 X51.412
Y106.412
X41.
G2 X39.412 Y108. I0. J1.588
G1 Y114.
G2 X41. Y115.588 I1.588 J0.
G1 X61.
G2 X62.588 Y114. I0. J-1.588
G1 Y103.588
X122.
G2 X123.588 Y102. I0. J-1.588
G1 Y60.588
X125.412
Y64.
G2 X127. Y65.588 I1.588 J0.
G1 X133.
G2 X134.587 Y64. I0. J-1.588
G1 Y48.
G2 X133. Y46.412 I-1.587 J0.
G1 X127.
G2 X125.412 Y48. I0. J1.588
G1 Y49.412
X123.588
Y0.
G2 X122. Y-1.587 I-1.588 J0.
G1 X61.
G2 X59.412 Y0. I0. J1.587
G1 Y10.413
X42.588
Y7.588
X53.
G2 X54.588 Y6. I0. J-1.588
G1 Y0.
G2 X53. Y-1.587 I-1.588 J0.
G1 X0.
G3 X-0.317 Y-1.905 I0. J-0.317 F1016.
G1 Y-2.223
G19 G2 Y-2.54 Z-6.183 J0. K0.318
G1 X0.317
Z-6.683 F40.
G3 Y-2.223 Z-7. J0.317 K0.
G1 Y-1.905 F1016.
G17 G3 X0. Y-1.587 I-0.317 J0.
G2 X-1.587 Y0. I0. J1.587 F1000.
G1 Y51.
G2 X0. Y52.588 I1.587 J0.
G1 X6.
G2 X7.588 Y51. I0. J-1.588
G1 Y49.588
X10.413
Y62.412
X7.588
Y59.
G2 X6. Y57.412 I-1.588 J0.
G1 X0.
G2 X-1.587 Y59. I0. J1.588
G1 Y102.
G2 X0. Y103.588 I1.587 J0.
G1 X51.412
Y106.412
X41.
G2 X39.412 Y108. I0. J1.588
G1 Y114.
G2 X41. Y115.588 I1.588 J0.
G1 X61.
G2 X62.588 Y114. I0. J-1.588
G1 Y103.588
X122.
G2 X123.588 Y102. I0. J-1.588
G1 Y60.588
X125.412
Y64.
G2 X127. Y65.588 I1.588 J0.
G1 X133.
G2 X134.587 Y64. I0. J-1.588
G1 Y48.
G2 X133. Y46.412 I-1.587 J0.
G1 X127.
G2 X125.412 Y48. I0. J1.588
G1 Y49.412
X123.588
Y0.
G2 X122. Y-1.587 I-1.588 J0.
G1 X61.
G2 X59.412 Y0. I0. J1.587
G1 Y10.413
X42.588
Y7.588
X53.
G2 X54.588 Y6. I0. J-1.588
G1 Y0.
G2 X53. Y-1.587 I-1.588 J0.
G1 X0.
G3 X-0.317 Y-1.905 I0. J-0.317 F1016.
G1 Y-2.223
G19 G2 Y-2.54 Z-6.683 J0. K0.318
G1 X0.317
Z-7.183 F40.
G3 Y-2.223 Z-7.5 J0.317 K0.
G1 Y-1.905 F1016.
G17 G3 X0. Y-1.587 I-0.317 J0.
G2 X-1.587 Y0. I0. J1.587 F1000.
G1 Y51.
G2 X0. Y52.588 I1.587 J0.
G1 X6.
G2 X7.588 Y51. I0. J-1.588
G1 Y49.588
X10.413
Y62.412
X7.588
Y59.
G2 X6. Y57.412 I-1.588 J0.
G1 X0.
G2 X-1.587 Y59. I0. J1.588
G1 Y102.
G2 X0. Y103.588 I1.587 J0.
G1 X51.412
Y106.412
X41.
G2 X39.412 Y108. I0. J1.588
G1 Y114.
G2 X41. Y115.588 I1.588 J0.
G1 X61.
G2 X62.588 Y114. I0. J-1.588
G1 Y103.588
X122.
G2 X123.588 Y102. I0. J-1.588
G1 Y60.588
X125.412
Y64.
G2 X127. Y65.588 I1.588 J0.
G1 X133.
G2 X134.587 Y64. I0. J-1.588
G1 Y48.
G2 X133. Y46.412 I-1.587 J0.
G1 X127.
G2 X125.412 Y48. I0. J1.588
G1 Y49.412
X123.588
Y0.
G2 X122. Y-1.587 I-1.588 J0.
G1 X61.
G2 X59.412 Y0. I0. J1.587
G1 Y10.413
X42.588
Y7.588
X53.
G2 X54.588 Y6. I0. J-1.588
G1 Y0.
G2 X53. Y-1.587 I-1.588 J0.
G1 X0.
G3 X-0.317 Y-1.905 I0. J-0.317 F1016.
G1 Y-2.223
G19 G2 Y-2.54 Z-7.183 J0. K0.318
G1 X0.317
Z-7.683 F40.
G3 Y-2.223 Z-8. J0.317 K0.
G1 Y-1.905 F1016.
G17 G3 X0. Y-1.587 I-0.317 J0.
G2 X-1.587 Y0. I0. J1.587 F1000.
G1 Y51.
G2 X0. Y52.588 I1.587 J0.
G1 X6.
G2 X7.588 Y51. I0. J-1.588
G1 Y49.588
X10.413
Y62.412
X7.588
Y59.
G2 X6. Y57.412 I-1.588 J0.
G1 X0.
G2 X-1.587 Y59. I0. J1.588
G1 Y102.
G2 X0. Y103.588 I1.587 J0.
G1 X51.412
Y106.412
X41.
G2 X39.412 Y108. I0. J1.588
G1 Y114.
G2 X41. Y115.588 I1.588 J0.
G1 X61.
G2 X62.588 Y114. I0. J-1.588
G1 Y103.588
X122.
G2 X123.588 Y102. I0. J-1.588
G1 Y60.588
X125.412
Y64.
G2 X127. Y65.588 I1.588 J0.
G1 X133.
G2 X134.587 Y64. I0. J-1.588
G1 Y48.
G2 X133. Y46.412 I-1.587 J0.
G1 X127.
G2 X125.412 Y48. I0. J1.588
G1 Y49.412
X123.588
Y0.
G2 X122. Y-1.587 I-1.588 J0.
G1 X61.
G2 X59.412 Y0. I0. J1.587
G1 Y10.413
X42.588
Y7.588
X53.
G2 X54.588 Y6. I0. J-1.588
G1 Y0.
G2 X53. Y-1.587 I-1.588 J0.
G1 X0.
G3 X-0.317 Y-1.905 I0. J-0.317 F1016.
G1 Y-2.223
G19 G2 Y-2.54 Z-7.683 J0. K0.318
G1 X0.317
Z-8.183 F40.
G3 Y-2.223 Z-8.5 J0.317 K0.
G1 Y-1.905 F1016.
G17 G3 X0. Y-1.587 I-0.317 J0.
G2 X-1.587 Y0. I0. J1.587 F1000.
G1 Y51.
G2 X0. Y52.588 I1.587 J0.
G1 X6.
G2 X7.588 Y51. I0. J-1.588
G1 Y49.588
X10.413
Y62.412
X7.588
Y59.
G2 X6. Y57.412 I-1.588 J0.
G1 X0.
G2 X-1.587 Y59. I0. J1.588
G1 Y102.
G2 X0. Y103.588 I1.587 J0.
G1 X51.412
Y106.412
X41.
G2 X39.412 Y108. I0. J1.588
G1 Y114.
G2 X41. Y115.588 I1.588 J0.
G1 X61.
G2 X62.588 Y114. I0. J-1.588
G1 Y103.588
X122.
G2 X123.588 Y102. I0. J-1.588
G1 Y60.588
X125.412
Y64.
G2 X127. Y65.588 I1.588 J0.
G1 X133.
G2 X134.587 Y64. I0. J-1.588
G1 Y48.
G2 X133. Y46.412 I-1.587 J0.
G1 X127.
G2 X125.412 Y48. I0. J1.588
G1 Y49.412
X123.588
Y0.
G2 X122. Y-1.587 I-1.588 J0.
G1 X61.
G2 X59.412 Y0. I0. J1.587
G1 Y10.413
X42.588
Y7.588
X53.
G2 X54.588 Y6. I0. J-1.588
G1 Y0.
G2 X53. Y-1.587 I-1.588 J0.
G1 X0.
G3 X-0.317 Y-1.905 I0. J-0.317 F1016.
G1 Y-2.223
G19 G2 Y-2.54 Z-8.183 J0. K0.318
G1 X0.317
Z-8.683 F40.
G3 Y-2.223 Z-9. J0.317 K0.
G1 Y-1.905 F1016.
G17 G3 X0. Y-1.587 I-0.317 J0.
G2 X-1.587 Y0. I0. J1.587 F1000.
G1 Y51.
G2 X0. Y52.588 I1.587 J0.
G1 X6.
G2 X7.588 Y51. I0. J-1.588
G1 Y49.588
X10.413
Y62.412
X7.588
Y59.
G2 X6. Y57.412 I-1.588 J0.
G1 X0.
G2 X-1.587 Y59. I0. J1.588
G1 Y102.
G2 X0. Y103.588 I1.587 J0.
G1 X51.412
Y106.412
X41.
G2 X39.412 Y108. I0. J1.588
G1 Y114.
G2 X41. Y115.588 I1.588 J0.
G1 X61.
G2 X62.588 Y114. I0. J-1.588
G1 Y103.588
X122.
G2 X123.588 Y102. I0. J-1.588
G1 Y60.588
X125.412
Y64.
G2 X127. Y65.588 I1.588 J0.
G1 X133.
G2 X134.587 Y64. I0. J-1.588
G1 Y48.
G2 X133. Y46.412 I-1.587 J0.
G1 X127.
G2 X125.412 Y48. I0. J1.588
G1 Y49.412
X123.588
Y0.
G2 X122. Y-1.587 I-1.588 J0.
G1 X61.
G2 X59.412 Y0. I0. J1.587
G1 Y10.413
X42.588
Y7.588
X53.
G2 X54.588 Y6. I0. J-1.588
G1 Y0.
G2 X53. Y-1.587 I-1.588 J0.
G1 X0.
G3 X-0.317 Y-1.905 I0. J-0.317 F1016.
G1 Y-2.223
G19 G2 Y-2.54 Z-8.683 J0. K0.318
G1 X0.317
Z-9.183 F40.
G3 Y-2.223 Z-9.5 J0.317 K0.
G1 Y-1.905 F1016.
G17 G3 X0. Y-1.587 I-0.317 J0.
G2 X-1.587 Y0. I0. J1.587 F1000.
G1 Y51.
G2 X0. Y52.588 I1.587 J0.
G1 X6.
G2 X7.588 Y51. I0. J-1.588
G1 Y49.588
X10.413
Y62.412
X7.588
Y59.
G2 X6. Y57.412 I-1.588 J0.
G1 X0.
G2 X-1.587 Y59. I0. J1.588
G1 Y102.
G2 X0. Y103.588 I1.587 J0.
G1 X51.412
Y106.412
X41.
G2 X39.412 Y108. I0. J1.588
G1 Y114.
G2 X41. Y115.588 I1.588 J0.
G1 X61.
G2 X62.588 Y114. I0. J-1.588
G1 Y103.588
X122.
G2 X123.588 Y102. I0. J-1.588
G1 Y60.588
X125.412
Y64.
G2 X127. Y65.588 I1.588 J0.
G1 X133.
G2 X134.587 Y64. I0. J-1.588
G1 Y48.
G2 X133. Y46.412 I-1.587 J0.
G1 X127.
G2 X125.412 Y48. I0. J1.588
G1 Y49.412
X123.588
Y0.
G2 X122. Y-1.587 I-1.588 J0.
G1 X61.
G2 X59.412 Y0. I0. J1.587
G1 Y10.413
X42.588
Y7.588
X53.
G2 X54.588 Y6. I0. J-1.588
G1 Y0.
G2 X53. Y-1.587 I-1.588 J0.
G1 X0.
G3 X-0.317 Y-1.905 I0. J-0.317 F1016.
G1 Y-2.223
G19 G2 Y-2.54 Z-9.183 J0. K0.318
G1 X0.317
Z-9.683 F40.
G3 Y-2.223 Z-10. J0.317 K0.
G1 Y-1.905 F1016.
G17 G3 X0. Y-1.587 I-0.317 J0.
G2 X-1.587 Y0. I0. J1.587 F1000.
G1 Y51.
G2 X0. Y52.588 I1.587 J0.
G1 X6.
G2 X7.588 Y51. I0. J-1.588
G1 Y49.588
X10.413
Y62.412
X7.588
Y59.
G2 X6. Y57.412 I-1.588 J0.
G1 X0.
G2 X-1.587 Y59. I0. J1.588
G1 Y102.
G2 X0. Y103.588 I1.587 J0.
G1 X51.412
Y106.412
X41.
G2 X39.412 Y108. I0. J1.588
G1 Y114.
G2 X41. Y115.588 I1.588 J0.
G1 X61.
G2 X62.588 Y114. I0. J-1.588
G1 Y103.588
X122.
G2 X123.588 Y102. I0. J-1.588
G1 Y60.588
X125.412
Y64.
G2 X127. Y65.588 I1.588 J0.
G1 X133.
G2 X134.587 Y64. I0. J-1.588
G1 Y48.
G2 X133. Y46.412 I-1.587 J0.
G1 X127.
G2 X125.412 Y48. I0. J1.588
G1 Y49.412
X123.588
Y0.
G2 X122. Y-1.587 I-1.588 J0.
G1 X61.
G2 X59.412 Y0. I0. J1.587
G1 Y10.413
X42.588
Y7.588
X53.
G2 X54.588 Y6. I0. J-1.588
G1 Y0.
G2 X53. Y-1.587 I-1.588 J0.
G1 X0.
G3 X-0.317 Y-1.905 I0. J-0.317 F1016.
G1 Y-2.223
G19 G2 Y-2.54 Z-9.683 J0. K0.318
G1 X0.317
Z-10.183 F40.
G3 Y-2.223 Z-10.5 J0.317 K0.
G1 Y-1.905 F1016.
G17 G3 X0. Y-1.587 I-0.317 J0.
G2 X-1.587 Y0. I0. J1.587 F1000.
G1 Y51.
G2 X0. Y52.588 I1.587 J0.
G1 X6.
G2 X7.588 Y51. I0. J-1.588
G1 Y49.588
X10.413
Y62.412
X7.588
Y59.
G2 X6. Y57.412 I-1.588 J0.
G1 X0.
G2 X-1.587 Y59. I0. J1.588
G1 Y102.
G2 X0. Y103.588 I1.587 J0.
G1 X51.412
Y106.412
X41.
G2 X39.412 Y108. I0. J1.588
G1 Y114.
G2 X41. Y115.588 I1.588 J0.
G1 X61.
G2 X62.588 Y114. I0. J-1.588
G1 Y103.588
X122.
G2 X123.588 Y102. I0. J-1.588
G1 Y60.588
X125.412
Y64.
G2 X127. Y65.588 I1.588 J0.
G1 X133.
G2 X134.587 Y64. I0. J-1.588
G1 Y48.
G2 X133. Y46.412 I-1.587 J0.
G1 X127.
G2 X125.412 Y48. I0. J1.588
G1 Y49.412
X123.588
Y0.
G2 X122. Y-1.587 I-1.588 J0.
G1 X61.
G2 X59.412 Y0. I0. J1.587
G1 Y10.413
X42.588
Y7.588
X53.
G2 X54.588 Y6. I0. J-1.588
G1 Y0.
G2 X53. Y-1.587 I-1.588 J0.
G1 X0.
G3 X-0.317 Y-1.905 I0. J-0.317 F1016.
G1 Y-2.223
G19 G2 Y-2.54 Z-10.183 J0. K0.318
G1 X0.317
Z-10.683 F40.
G3 Y-2.223 Z-11. J0.317 K0.
G1 Y-1.905 F1016.
G17 G3 X0. Y-1.587 I-0.317 J0.
G2 X-1.587 Y0. I0. J1.587 F1000.
G1 Y51.
G2 X0. Y52.588 I1.587 J0.
G1 X6.
G2 X7.588 Y51. I0. J-1.588
G1 Y49.588
X10.413
Y62.412
X7.588
Y59.
G2 X6. Y57.412 I-1.588 J0.
G1 X0.
G2 X-1.587 Y59. I0. J1.588
G1 Y102.
G2 X0. Y103.588 I1.587 J0.
G1 X51.412
Y106.412
X41.
G2 X39.412 Y108. I0. J1.588
G1 Y114.
G2 X41. Y115.588 I1.588 J0.
G1 X61.
G2 X62.588 Y114. I0. J-1.588
G1 Y103.588
X122.
G2 X123.588 Y102. I0. J-1.588
G1 Y60.588
X125.412
Y64.
G2 X127. Y65.588 I1.588 J0.
G1 X133.
G2 X134.587 Y64. I0. J-1.588
G1 Y48.
G2 X133. Y46.412 I-1.587 J0.
G1 X127.
G2 X125.412 Y48. I0. J1.588
G1 Y49.412
X123.588
Y0.
G2 X122. Y-1.587 I-1.588 J0.
G1 X61.
G2 X59.412 Y0. I0. J1.587
G1 Y10.413
X42.588
Y7.588
X53.
G2 X54.588 Y6. I0. J-1.588
G1 Y0.
G2 X53. Y-1.587 I-1.588 J0.
G1 X0.
G3 X-0.317 Y-1.905 I0. J-0.317 F1016.
G1 Y-2.223
G19 G2 Y-2.54 Z-10.683 J0. K0.318
G1 X0.317
Z-11.183 F40.
G3 Y-2.223 Z-11.5 J0.317 K0.
G1 Y-1.905 F1016.
G17 G3 X0. Y-1.587 I-0.317 J0.
G2 X-1.587 Y0. I0. J1.587 F1000.
G1 Y51.
G2 X0. Y52.588 I1.587 J0.
G1 X6.
G2 X7.588 Y51. I0. J-1.588
G1 Y49.588
X10.413
Y62.412
X7.588
Y59.
G2 X6. Y57.412 I-1.588 J0.
G1 X0.
G2 X-1.587 Y59. I0. J1.588
G1 Y102.
G2 X0. Y103.588 I1.587 J0.
G1 X51.412
Y106.412
X41.
G2 X39.412 Y108. I0. J1.588
G1 Y114.
G2 X41. Y115.588 I1.588 J0.
G1 X61.
G2 X62.588 Y114. I0. J-1.588
G1 Y103.588
X122.
G2 X123.588 Y102. I0. J-1.588
G1 Y60.588
X125.412
Y64.
G2 X127. Y65.588 I1.588 J0.
G1 X133.
G2 X134.587 Y64. I0. J-1.588
G1 Y48.
G2 X133. Y46.412 I-1.587 J0.
G1 X127.
G2 X125.412 Y48. I0. J1.588
G1 Y49.412
X123.588
Y0.
G2 X122. Y-1.587 I-1.588 J0.
G1 X61.
G2 X59.412 Y0. I0. J1.587
G1 Y10.413
X42.588
Y7.588
X53.
G2 X54.588 Y6. I0. J-1.588
G1 Y0.
G2 X53. Y-1.587 I-1.588 J0.
G1 X0.
G3 X-0.317 Y-1.905 I0. J-0.317 F1016.
G1 Y-2.223
G19 G2 Y-2.54 Z-11.183 J0. K0.318
G1 X0.317
Z-11.683 F40.
G3 Y-2.223 Z-12. J0.317 K0.
G1 Y-1.905 F1016.
G17 G3 X0. Y-1.587 I-0.317 J0.
G2 X-1.587 Y0. I0. J1.587 F1000.
G1 Y51.
G2 X0. Y52.588 I1.587 J0.
G1 X6.
G2 X7.588 Y51. I0. J-1.588
G1 Y49.588
X10.413
Y62.412
X7.588
Y59.
G2 X6. Y57.412 I-1.588 J0.
G1 X0.
G2 X-1.587 Y59. I0. J1.588
G1 Y102.
G2 X0. Y103.588 I1.587 J0.
G1 X51.412
Y106.412
X41.
G2 X39.412 Y108. I0. J1.588
G1 Y114.
G2 X41. Y115.588 I1.588 J0.
G1 X61.
G2 X62.588 Y114. I0. J-1.588
G1 Y103.588
X122.
G2 X123.588 Y102. I0. J-1.588
G1 Y60.588
X125.412
Y64.
G2 X127. Y65.588 I1.588 J0.
G1 X133.
G2 X134.587 Y64. I0. J-1.588
G1 Y48.
G2 X133. Y46.412 I-1.587 J0.
G1 X127.
G2 X125.412 Y48. I0. J1.588
G1 Y49.412
X123.588
Y0.
G2 X122. Y-1.587 I-1.588 J0.
G1 X61.
G2 X59.412 Y0. I0. J1.587
G1 Y10.413
X42.588
Y7.588
X53.
G2 X54.588 Y6. I0. J-1.588
G1 Y0.
G2 X53. Y-1.587 I-1.588 J0.
G1 X0.
G3 X-0.317 Y-1.905 I0. J-0.317 F1016.
G1 Y-2.223
G19 G2 Y-2.54 Z-11.683 J0. K0.318
G1 X0.317
Z-12.183 F40.
G3 Y-2.223 Z-12.5 J0.317 K0.
G1 Y-1.905 F1016.
G17 G3 X0. Y-1.587 I-0.317 J0.
G2 X-1.587 Y0. I0. J1.587 F1000.
G1 Y51.
G2 X0. Y52.588 I1.587 J0.
G1 X6.
G2 X7.588 Y51. I0. J-1.588
G1 Y49.588
X10.413
Y62.412
X7.588
Y59.
G2 X6. Y57.412 I-1.588 J0.
G1 X0.
G2 X-1.587 Y59. I0. J1.588
G1 Y102.
G2 X0. Y103.588 I1.587 J0.
G1 X51.412
Y106.412
X41.
G2 X39.412 Y108. I0. J1.588
G1 Y114.
G2 X41. Y115.588 I1.588 J0.
G1 X61.
G2 X62.588 Y114. I0. J-1.588
G1 Y103.588
X122.
G2 X123.588 Y102. I0. J-1.588
G1 Y60.588
X125.412
Y64.
G2 X127. Y65.588 I1.588 J0.
G1 X133.
G2 X134.587 Y64. I0. J-1.588
G1 Y48.
G2 X133. Y46.412 I-1.587 J0.
G1 X127.
G2 X125.412 Y48. I0. J1.588
G1 Y49.412
X123.588
Y0.
G2 X122. Y-1.587 I-1.588 J0.
G1 X61.
G2 X59.412 Y0. I0. J1.587
G1 Y10.413
X42.588
Y7.588
X53.
G2 X54.588 Y6. I0. J-1.588
G1 Y0.
G2 X53. Y-1.587 I-1.588 J0.
G1 X0.
G3 X-0.317 Y-1.905 I0. J-0.317 F1016.
G1 Y-2.223
G19 G2 Y-2.54 Z-12.183 J0. K0.318
G0 Z15.
G17

M9
G53 Z0.
M30
