(SERVOPUZZLEHOLES)
(HOLES)
(T1  D=3.175 CR=0. - ZMIN=0. - FLAT END MILL)
G0 G90 G94 G17
G21
G53 Z0.

(DRILL2)
M5
M9
T1
S16500 M3
G55
M9
G0 X91.857 Y11.768
Z24.8
Z14.8
Z13.8
G1 Z0. F51.
G0 Z14.8
X12.607
Z13.8
G1 Z0. F51.
G0 Z14.8
Z24.8

M9
G53 Z0.
M30
