(SERVOPUZZLECLEARING2)
(CLEARING)
(T1  D=3.175 CR=0. - ZMIN=-12. - FLAT END MILL)
G0 G90 G94 G17
G21
G53 Z0.

(2D ADAPTIVE4)
M5
M9
T1
S16400 M3
G55
M9
G0 X-3.158 Y51.005
Z15.
Z5.
Z-1.855
G1 Z-2.172 F1016.
X-3.152 Y51.01 Z-2.243
X-3.133 Y51.023 Z-2.31
X-3.102 Y51.045 Z-2.37
X-3.061 Y51.074 Z-2.421
X-3.012 Y51.109 Z-2.459
X-2.957 Y51.148 Z-2.482
X-2.899 Y51.189 Z-2.49
G3 X-1.591 Y52.346 I-4.686 J6.614
G1 X-1.563 Y52.379
X-1.478 Y52.473
X-1.395 Y52.546
X-1.287 Y52.649
X-1.204 Y52.775
X-1.133 Y52.906
X-1.057 Y53.071
X-0.977 Y53.281
X-0.893 Y53.556
X-0.805 Y53.933
X-0.713 Y54.488
X-0.641 Y55.222
X-0.606 Y55.959
X-0.596 Y56.384
X-0.622 Y56.624
X-0.71 Y56.85
X-0.854 Y57.045
X-1.044 Y57.195
G3 X-1.513 Y56.948 I-0.153 J-0.278
G1 X-1.91 Y52.824
G3 X-1.395 Y52.546 I0.316 J-0.03
G1 X-1.286 Y52.64
X-1.228 Y52.686
X-1.042 Y52.808
X-0.96 Y52.849
X-0.829 Y52.922
X-0.711 Y53.015
X-0.604 Y53.12
X-0.507 Y53.235
X-0.414 Y53.365
X-0.326 Y53.505
X-0.23 Y53.685
X-0.125 Y53.919
X-0.028 Y54.178
X0.076 Y54.525
X0.178 Y54.972
X0.239 Y55.351
X0.266 Y55.645
X0.271 Y55.854
X0.262 Y56.071
X0.252 Y56.17
X0.2 Y56.391
X0.095 Y56.593
X-0.056 Y56.763
X-0.244 Y56.891
X-0.458 Y56.969
G3 X-0.831 Y56.708 I-0.06 J-0.312
G1 X-1.404 Y53.189
G3 X-0.96 Y52.849 I0.313 J-0.051
G1 X-0.892 Y52.882
X-0.725 Y52.956
X-0.557 Y53.008
X-0.465 Y53.029
X-0.321 Y53.07
X-0.184 Y53.132
X-0.056 Y53.211
X0.062 Y53.303
X0.172 Y53.405
X0.273 Y53.515
X0.379 Y53.648
X0.489 Y53.806
X0.598 Y53.986
X0.704 Y54.193
X0.804 Y54.425
X0.89 Y54.664
X0.96 Y54.912
X1.009 Y55.141
X1.04 Y55.355
X1.055 Y55.55
X1.056 Y55.71
X1.047 Y55.885
X1.028 Y56.034
X1. Y56.181
X0.987 Y56.229
X0.897 Y56.449
X0.753 Y56.638
X0.566 Y56.784
X0.348 Y56.877
X0.113 Y56.913
X-0.054 Y56.916
X-0.222 Y56.926
X-0.389 Y56.953
X-0.458 Y56.969
G3 X-0.836 Y56.658 I-0.06 J-0.312
G1 X-0.843 Y53.342
G3 X-0.465 Y53.029 I0.317 J-0.001
G1 X-0.389 Y53.047
X-0.222 Y53.074
X-0.054 Y53.084
X0.038 Y53.086
X0.188 Y53.096
X0.334 Y53.129
X0.474 Y53.183
X0.607 Y53.252
X0.733 Y53.334
X0.851 Y53.427
X0.961 Y53.528
X1.067 Y53.639
X1.177 Y53.771
X1.286 Y53.92
X1.387 Y54.08
X1.482 Y54.256
X1.569 Y54.445
X1.643 Y54.639
X1.705 Y54.84
X1.753 Y55.044
X1.786 Y55.247
X1.803 Y55.42
X1.809 Y55.602
X1.804 Y55.768
X1.789 Y55.917
X1.762 Y56.069
X1.727 Y56.215
X1.708 Y56.273
X1.61 Y56.483
X1.463 Y56.661
X1.276 Y56.798
X1.061 Y56.883
X0.831 Y56.912
X0.113 Y56.913
G3 X-0.193 Y56.603 I0.011 J-0.317
G1 X-0.275 Y53.412
G3 X0.038 Y53.086 I0.317 J-0.008
G1 X0.113 Y53.087
X0.709 Y53.088
X0.858 Y53.095
X1.006 Y53.121
X1.149 Y53.167
X1.285 Y53.229
X1.415 Y53.304
X1.538 Y53.39
X1.654 Y53.486
X1.763 Y53.589
X1.872 Y53.708
X1.979 Y53.842
X2.08 Y53.986
X2.176 Y54.146
X2.265 Y54.316
X2.344 Y54.498
X2.412 Y54.687
X2.467 Y54.88
X2.509 Y55.075
X2.537 Y55.272
X2.552 Y55.452
X2.554 Y55.623
X2.544 Y55.798
X2.526 Y55.947
X2.498 Y56.094
X2.46 Y56.239
X2.444 Y56.287
X2.344 Y56.492
X2.197 Y56.667
X2.011 Y56.801
X1.798 Y56.884
X1.571 Y56.912
X0.831
G3 X0.525 Y56.607 I0.011 J-0.317
G1 X0.402 Y53.417
G3 X0.709 Y53.088 I0.317 J-0.012
G1 X1.455
X1.604 Y53.095
X1.752 Y53.121
X1.895 Y53.167
X2.032 Y53.229
X2.162 Y53.303
X2.285 Y53.388
X2.402 Y53.483
X2.511 Y53.586
X2.619 Y53.703
X2.721 Y53.83
X2.822 Y53.973
X2.918 Y54.131
X3.007 Y54.3
X3.085 Y54.478
X3.153 Y54.664
X3.208 Y54.857
X3.251 Y55.051
X3.28 Y55.247
X3.296 Y55.435
X3.299 Y55.601
X3.29 Y55.781
X3.272 Y55.93
X3.245 Y56.078
X3.207 Y56.225
X3.188 Y56.282
X3.089 Y56.489
X2.942 Y56.665
X2.755 Y56.8
X2.542 Y56.884
X2.314 Y56.912
X1.571
G3 X1.265 Y56.607 I0.011 J-0.317
G1 X1.148 Y53.416
G3 X1.455 Y53.088 I0.317 J-0.012
G1 X2.217
X2.367 Y53.095
X2.515 Y53.123
X2.657 Y53.17
X2.793 Y53.233
X2.923 Y53.309
X3.045 Y53.395
X3.161 Y53.49
X3.269 Y53.594
X3.377 Y53.713
X3.481 Y53.843
X3.579 Y53.985
X3.673 Y54.142
X3.761 Y54.312
X3.838 Y54.491
X3.904 Y54.68
X3.959 Y54.872
X4. Y55.068
X4.028 Y55.264
X4.042 Y55.449
X4.043 Y55.618
X4.033 Y55.797
X4.014 Y55.946
X3.986 Y56.093
X3.947 Y56.238
X3.93 Y56.288
X3.83 Y56.494
X3.683 Y56.668
X3.497 Y56.801
X3.284 Y56.884
X3.058 Y56.912
X2.314
G3 X2.008 Y56.605 I0.011 J-0.317
G1 X1.911 Y53.414
G3 X2.217 Y53.088 I0.317 J-0.01
G1 X2.963
X3.113 Y53.095
X3.261 Y53.123
X3.403 Y53.169
X3.54 Y53.232
X3.669 Y53.307
X3.792 Y53.393
X3.908 Y53.489
X4.016 Y53.593
X4.123 Y53.711
X4.225 Y53.839
X4.324 Y53.981
X4.419 Y54.139
X4.506 Y54.31
X4.583 Y54.489
X4.649 Y54.676
X4.704 Y54.869
X4.745 Y55.064
X4.773 Y55.261
X4.787 Y55.448
X4.788 Y55.615
X4.778 Y55.795
X4.759 Y55.944
X4.731 Y56.091
X4.692 Y56.237
X4.674 Y56.289
X4.574 Y56.494
X4.427 Y56.668
X4.241 Y56.801
X4.029 Y56.884
X3.802 Y56.912
X3.058
G3 X2.752 Y56.605 I0.011 J-0.317
G1 X2.657 Y53.414
G3 X2.963 Y53.088 I0.317 J-0.009
G1 X3.726
X3.876 Y53.095
X4.023 Y53.125
X4.165 Y53.174
X4.3 Y53.238
X4.429 Y53.314
X4.551 Y53.402
X4.666 Y53.498
X4.773 Y53.603
X4.881 Y53.723
X4.983 Y53.854
X5.081 Y53.997
X5.174 Y54.156
X5.26 Y54.327
X5.336 Y54.507
X5.402 Y54.696
X5.454 Y54.89
X5.494 Y55.086
X5.52 Y55.283
X5.533 Y55.466
Y55.636
X5.521 Y55.813
X5.502 Y55.962
X5.472 Y56.109
X5.432 Y56.253
X5.417 Y56.296
X5.316 Y56.499
X5.169 Y56.671
X4.984 Y56.803
X4.772 Y56.885
X4.548 Y56.912
X3.802
G3 X3.496 Y56.603 I0.011 J-0.317
G1 X3.42 Y53.412
G3 X3.726 Y53.088 I0.317 J-0.008
G1 X4.472
X4.622 Y53.095
X4.769 Y53.125
X4.911 Y53.173
X5.047 Y53.237
X5.176 Y53.314
X5.297 Y53.401
X5.412 Y53.498
X5.52 Y53.603
X5.626 Y53.722
X5.728 Y53.851
X5.826 Y53.996
X5.92 Y54.155
X6.006 Y54.327
X6.082 Y54.507
X6.147 Y54.695
X6.2 Y54.889
X6.239 Y55.084
X6.266 Y55.281
X6.278 Y55.467
Y55.634
X6.267 Y55.812
X6.247 Y55.961
X6.217 Y56.108
X6.177 Y56.253
X6.162 Y56.296
X6.061 Y56.499
X5.914 Y56.671
X5.729 Y56.803
X5.518 Y56.885
X5.293 Y56.912
X4.548
G3 X4.241 Y56.603 I0.011 J-0.317
G1 X4.166 Y53.412
G3 X4.472 Y53.088 I0.317 J-0.007
G1 X5.235
X5.385 Y53.095
X5.531 Y53.127
X5.672 Y53.178
X5.807 Y53.244
X5.935 Y53.322
X6.056 Y53.41
X6.17 Y53.508
X6.277 Y53.614
X6.384 Y53.735
X6.486 Y53.867
X6.583 Y54.012
X6.675 Y54.172
X6.76 Y54.345
X6.835 Y54.527
X6.899 Y54.716
X6.951 Y54.911
X6.989 Y55.107
X7.014 Y55.304
X7.024 Y55.486
X7.023 Y55.655
X7.01 Y55.831
X6.989 Y55.979
X6.958 Y56.126
X6.917 Y56.27
X6.903 Y56.308
X6.799 Y56.513
X6.647 Y56.686
X6.457 Y56.815
X6.241 Y56.894
X6.012 Y56.916
X5.981 Y56.915
X5.478 Y56.912
X5.293
G3 X4.986 Y56.601 I0.011 J-0.317
G1 X4.929 Y53.411
G3 X5.235 Y53.088 I0.317 J-0.006
G1 X5.646 Y53.087
X5.947 Y53.085
X6.097 Y53.091
X6.244 Y53.119
X6.387 Y53.165
X6.523 Y53.228
X6.653 Y53.303
X6.776 Y53.389
X6.891 Y53.485
X7. Y53.589
X7.104 Y53.704
X7.206 Y53.833
X7.306 Y53.977
X7.401 Y54.136
X7.488 Y54.305
X7.565 Y54.483
X7.63 Y54.669
X7.685 Y54.863
X7.726 Y55.059
X7.754 Y55.256
X7.769 Y55.449
X7.77 Y55.614
X7.759 Y55.794
X7.741 Y55.946
X7.712 Y56.093
X7.672 Y56.242
X7.624 Y56.383
X7.564 Y56.522
X7.423 Y56.719
X7.237 Y56.873
X7.016 Y56.972
X6.778 Y57.011
X6.537 Y56.986
X6.484 Y56.974
X6.316 Y56.939
X6.149 Y56.92
X6.012 Y56.916
G3 X5.714 Y56.606 I0.02 J-0.317
G1 X5.643 Y53.409
G3 X5.947 Y53.085 I0.317 J-0.007
G1 X5.981
X6.149 Y53.08
X6.316 Y53.061
X6.484 Y53.026
X6.631 Y52.996
X6.781 Y53.003
X6.928 Y53.031
X7.07 Y53.078
X7.207 Y53.139
X7.338 Y53.213
X7.462 Y53.297
X7.579 Y53.391
X7.691 Y53.493
X7.799 Y53.607
X7.907 Y53.737
X8.013 Y53.882
X8.112 Y54.04
X8.202 Y54.208
X8.285 Y54.389
X8.356 Y54.577
X8.416 Y54.774
X8.463 Y54.974
X8.496 Y55.175
X8.516 Y55.376
X8.522 Y55.576
X8.515 Y55.771
X8.499 Y55.928
X8.471 Y56.094
X8.434 Y56.248
X8.389 Y56.391
X8.334 Y56.53
X8.269 Y56.666
X8.194 Y56.796
X8.108 Y56.921
X7.927 Y57.091
X7.707 Y57.206
X7.464 Y57.258
X7.216 Y57.244
X6.981 Y57.163
X6.819 Y57.082
X6.62 Y57.009
X6.594 Y57.
X6.537 Y56.986
G3 X6.304 Y56.684 I0.084 J-0.306
G1 X6.261 Y53.333
G3 X6.484 Y53.026 I0.317 J-0.004
G1 X6.652 Y52.98
X6.819 Y52.92
X6.87 Y52.894
X7.007 Y52.834
X7.155 Y52.806
X7.305 Y52.803
X7.453 Y52.821
X7.599 Y52.856
X7.741 Y52.906
X7.877 Y52.969
X8.007 Y53.043
X8.132 Y53.127
X8.253 Y53.221
X8.37 Y53.326
X8.489 Y53.447
X8.607 Y53.584
X8.72 Y53.735
X8.826 Y53.897
X8.925 Y54.073
X9.015 Y54.263
X9.095 Y54.465
X9.163 Y54.676
X9.216 Y54.888
X9.255 Y55.104
X9.28 Y55.321
X9.29 Y55.534
X9.285 Y55.743
X9.268 Y55.948
X9.237 Y56.147
X9.194 Y56.338
X9.148 Y56.494
X9.093 Y56.645
X9.025 Y56.798
X8.955 Y56.93
X8.876 Y57.058
X8.787 Y57.179
X8.69 Y57.293
X8.584 Y57.399
X8.554 Y57.425
X8.329 Y57.566
X8.073 Y57.636
X7.808 Y57.631
X7.556 Y57.551
X7.336 Y57.402
G3 X7.244 Y57.218 I0.222 J-0.227
G1 X6.706 Y53.216
G3 X6.87 Y52.894 I0.315 J-0.042
G1 X7.043 Y52.808
X7.154 Y52.733
X7.258 Y52.659
X7.385 Y52.578
X7.527 Y52.531
X7.675 Y52.508
X7.825 Y52.506
X7.974 Y52.522
X8.121 Y52.553
X8.265 Y52.597
X8.404 Y52.653
X8.538 Y52.719
X8.669 Y52.796
X8.803 Y52.886
X8.933 Y52.988
X9.066 Y53.107
X9.2 Y53.243
X9.33 Y53.394
X9.452 Y53.557
X9.569 Y53.737
X9.679 Y53.933
X9.778 Y54.142
X9.866 Y54.363
X9.893 Y54.463
X9.908 Y54.558
X9.913 Y54.653
Y55.994
X9.901 Y56.219
X9.881 Y56.39
X9.85 Y56.558
X9.807 Y56.727
X9.753 Y56.892
X9.688 Y57.054
X9.623 Y57.19
X9.549 Y57.321
X9.46 Y57.457
X9.369 Y57.576
X9.27 Y57.689
X9.162 Y57.793
X9.046 Y57.889
X8.924 Y57.975
X8.858 Y58.013
X8.65 Y58.101
X8.427 Y58.134
X8.202 Y58.11
X7.991 Y58.032
X7.805 Y57.903
X7.657 Y57.732
X7.608 Y57.671
X7.49 Y57.546
X7.447 Y57.503
X7.336 Y57.402
G3 X7.401 Y56.9 I0.222 J-0.227
G1 X9.437 Y55.73
G3 X9.913 Y55.994 I0.158 J0.275
G1 Y57.26
X9.905 Y57.41
X9.88 Y57.558
X9.837 Y57.701
X9.78 Y57.84
X9.709 Y57.972
X9.624 Y58.096
X9.529 Y58.212
X9.423 Y58.318
X9.307 Y58.413
X9.182 Y58.496
X9.137 Y58.52
X8.905 Y58.604
X8.659 Y58.624
X8.416 Y58.577
X8.195 Y58.468
X8.01 Y58.304
X7.876 Y58.096
G3 X8.028 Y57.686 I0.292 J-0.125
G1 X9.455 Y56.986
G3 X9.913 Y57.26 I0.14 J0.285
G1 Y58.057
X9.905 Y58.207
X9.869 Y58.352
X9.811 Y58.491
X9.734 Y58.619
X9.642 Y58.738
X9.535 Y58.843
X9.416 Y58.934
X9.288 Y59.012
X9.265 Y59.022
X9.012 Y59.093
X8.748 Y59.09
X8.497 Y59.013
X8.277 Y58.867
X8.108 Y58.665
X8.003 Y58.424
G3 X8.243 Y58.041 I0.309 J-0.073
G1 X9.527 Y57.758
G3 X9.913 Y58.057 I0.068 J0.31
G1 Y58.643
X9.905 Y58.793
X9.868 Y58.938
X9.805 Y59.074
X9.72 Y59.197
X9.617 Y59.307
X9.499 Y59.399
X9.371 Y59.477
X9.344 Y59.488
X9.102 Y59.554
X8.851 Y59.553
X8.609 Y59.483
X8.396 Y59.351
X8.226 Y59.166
X8.112 Y58.942
X8.063 Y58.696
G3 X8.372 Y58.371 I0.317 J-0.008
G1 X9.586 Y58.337
G3 X9.913 Y58.643 I0.009 J0.317
G1 Y59.18
X9.905 Y59.33
X9.863 Y59.474
X9.79 Y59.605
X9.696 Y59.722
X9.584 Y59.822
X9.46 Y59.905
X9.324 Y59.97
X9.18 Y60.017
X8.917 Y60.03
X8.661 Y59.968
X8.432 Y59.835
X8.251 Y59.644
X8.132 Y59.408
X8.084 Y59.149
G3 X8.413 Y58.831 I0.317 J-0.001
G1 X9.607 Y58.874
G3 X9.913 Y59.18 I-0.011 J0.317
G1 Y59.649
X9.905 Y59.799
X9.863 Y59.943
X9.793 Y60.075
X9.7 Y60.193
X9.588 Y60.293
X9.463 Y60.376
X9.327 Y60.44
X9.185 Y60.486
X9.171 Y60.489
X8.942 Y60.501
X8.717 Y60.456
X8.51 Y60.357
X8.334 Y60.21
X8.2 Y60.024
X8.116 Y59.81
X8.087 Y59.582
G3 X8.423 Y59.277 I0.317 J0.011
G1 X9.613 Y59.343
G3 X9.913 Y59.649 I-0.018 J0.317
G1 Y60.152
X9.905 Y60.302
X9.856 Y60.444
X9.78 Y60.573
X9.682 Y60.687
X9.568 Y60.784
X9.44 Y60.862
X9.303 Y60.923
X9.159 Y60.964
X9.151 Y60.965
X8.887 Y60.968
X8.633 Y60.897
X8.41 Y60.755
X8.236 Y60.557
X8.125 Y60.317
X8.087 Y60.056
G3 X8.43 Y59.75 I0.317 J0.011
G1 X9.621 Y59.847
G3 X9.913 Y60.152 I-0.026 J0.316
G1 Y60.614
X9.905 Y60.763
X9.858 Y60.906
X9.784 Y61.036
X9.688 Y61.152
X9.574 Y61.249
X9.448 Y61.33
X9.311 Y61.39
X9.167 Y61.434
X9.157 Y61.435
X8.892 Y61.44
X8.637 Y61.369
X8.412 Y61.228
X8.237 Y61.03
X8.126 Y60.789
X8.087 Y60.527
G3 X8.428 Y60.221 I0.317 J0.011
G1 X9.618 Y60.308
G3 X9.913 Y60.614 I-0.023 J0.317
G1 Y61.075
X9.905 Y61.225
X9.861 Y61.368
X9.788 Y61.499
X9.694 Y61.616
X9.58 Y61.714
X9.455 Y61.796
X9.318 Y61.858
X9.276 Y61.871
X9.186 Y61.894
X9.095 Y61.908
X9.002 Y61.912
G3 X8.804 Y61.356 I0.011 J-0.317
G1 X9.386 Y60.847
G3 X9.913 Y61.075 I0.209 J0.239
G1 Y61.527
X9.912 Y61.573
X9.911 Y61.611
X9.904 Y61.653
X9.891 Y61.695
X9.869 Y61.74
X9.854 Y61.763
X9.837 Y61.785
X9.795 Y61.831
X9.752 Y61.863
X9.711 Y61.885
X9.669 Y61.9
X9.627 Y61.909
X9.585 Y61.912
X8.906
X8.757 Y61.905
X8.543 Y61.841
X8.356 Y61.72
X8.211 Y61.551
X8.119 Y61.348
X8.087 Y61.128
G3 X8.621 Y60.906 I0.317 J0.011
G1 X9.112 Y61.363
G3 X8.906 Y61.912 I-0.216 J0.232
G1 X8.412
X8.37 Y61.908
X8.328 Y61.898
X8.289 Y61.884
X8.251 Y61.863
X8.228 Y61.847
X8.206 Y61.828
X8.16 Y61.782
X8.13 Y61.738
X8.109 Y61.695
X8.096 Y61.653
X8.089 Y61.611
X8.087 Y61.527
Y59.348
X8.085 Y59.18
X8.072 Y58.844
X8.063 Y58.696
G3 X8.065 Y58.654 I0.317 J-0.008
G2 X8.066 Y58.601 I-0.316 J-0.034
G1 X8.064 Y58.571
X7.726 Y53.054
G2 X7.315 Y52.77 I-0.317 J0.019
G3 X7.258 Y52.659 I-0.019 J-0.061
G1 X7.322 Y52.614
X7.565 Y52.378
X7.673 Y52.274
X7.806 Y52.205
X7.949 Y52.159
X8.096 Y52.133
X8.246 Y52.125
X8.396 Y52.132
X8.544 Y52.153
X8.691 Y52.187
X8.834 Y52.232
X8.974 Y52.288
X9.115 Y52.355
X9.261 Y52.436
X9.413 Y52.535
X9.563 Y52.647
X9.591 Y52.671
X9.726 Y52.815
X9.828 Y52.985
X9.891 Y53.173
X9.913 Y53.37
G3 X9.469 Y53.65 I-0.317 J-0.011
G1 X7.68 Y52.876
G3 X7.565 Y52.378 I0.126 J-0.291
G1 X7.599 Y52.342
X7.657 Y52.261
X7.745 Y52.137
X7.769 Y52.097
X7.853 Y51.972
X7.965 Y51.873
X8.094 Y51.796
X8.233 Y51.739
X8.378 Y51.701
X8.526 Y51.678
X8.676 Y51.67
X8.826 Y51.675
X8.975 Y51.692
X9.122 Y51.72
X9.267 Y51.759
X9.298 Y51.77
X9.501 Y51.871
X9.672 Y52.018
X9.803 Y52.203
X9.885 Y52.414
X9.913 Y52.638
G3 X9.52 Y52.936 I-0.317 J-0.011
G1 X7.972 Y52.559
G3 X7.769 Y52.097 I0.075 J-0.308
G1 X7.825 Y52.004
X7.843 Y51.97
X7.924 Y51.802
X7.943 Y51.751
X8.002 Y51.613
X8.095 Y51.496
X8.208 Y51.397
X8.335 Y51.317
X8.471 Y51.254
X8.613 Y51.206
X8.76 Y51.173
X8.909 Y51.157
X9.059 Y51.154
X9.077 Y51.156
X9.298 Y51.205
X9.501 Y51.306
X9.672 Y51.453
X9.803 Y51.637
X9.885 Y51.848
X9.913 Y52.073
G3 X9.546 Y52.375 I-0.317 J-0.011
G1 X8.196 Y52.164
G3 X7.943 Y51.751 I0.049 J-0.314
G1 X7.993 Y51.616
X8.03 Y51.467
X8.045 Y51.38
X8.078 Y51.234
X8.15 Y51.102
X8.245 Y50.986
X8.357 Y50.887
X8.482 Y50.803
X8.617 Y50.739
X8.759 Y50.69
X8.906 Y50.661
X8.913 Y50.66
X9.166 Y50.674
X9.406 Y50.755
X9.614 Y50.899
X9.776 Y51.095
X9.878 Y51.327
X9.913 Y51.578
G3 X9.559 Y51.882 I-0.317 J-0.011
G1 X8.323 Y51.739
G3 X8.045 Y51.38 I0.036 J-0.315
G1 X8.059 Y51.299
X8.078 Y50.997
X8.095 Y50.848
X8.145 Y50.707
X8.223 Y50.579
X8.321 Y50.466
X8.438 Y50.371
X8.566 Y50.293
X8.704 Y50.235
X8.848 Y50.194
X8.853 Y50.193
X9.116 Y50.191
X9.37 Y50.264
X9.592 Y50.405
X9.765 Y50.604
X9.875 Y50.843
X9.913 Y51.104
G3 X9.572 Y51.409 I-0.317 J-0.011
G1 X8.372 Y51.323
G3 X8.078 Y50.997 I0.023 J-0.317
G1 X8.087 Y50.796
Y50.536
Y50.494
Y50.46
X8.097 Y50.342
G3 X8.516 Y50.406 I0.206 J0.05
G1 X8.512 Y50.468
G3 X8.087 Y50.46 I-0.212 J-0.014
G1 X8.09 Y50.377
X8.099 Y50.335
X8.114 Y50.293
X8.133 Y50.255
X8.16 Y50.217
X8.188 Y50.187
X8.216 Y50.163
X8.244 Y50.142
X8.272 Y50.125
X8.3 Y50.112
X8.328 Y50.102
X8.37 Y50.092
X8.412 Y50.088
X9.468
X9.501
X9.646 Y50.095
G3 X9.58 Y50.72 I-0.077 J0.308
G1 X9.524 Y50.722
G3 X9.195 Y50.416 I-0.012 J-0.317
X9.501 Y50.088 I0.317 J-0.011
G1 X9.585
X9.627 Y50.091
X9.669 Y50.1
X9.7 Y50.11
X9.732 Y50.125
X9.758 Y50.141
X9.784 Y50.16
X9.837 Y50.213
X9.866 Y50.253
X9.886 Y50.293
X9.901 Y50.335
X9.91 Y50.377
X9.913 Y50.46
Y54.653
X9.904 Y54.69 Z-2.484
X9.896 Y54.724 Z-2.466
X9.89 Y54.751 Z-2.438
X9.885 Y54.768 Z-2.404
X9.884 Y54.774 Z-2.365
G0 Z5.
X-3.158 Y51.005
Z-4.845
G1 Z-5.162 F1016.
X-3.152 Y51.01 Z-5.233
X-3.133 Y51.023 Z-5.3
X-3.102 Y51.045 Z-5.36
X-3.061 Y51.074 Z-5.411
X-3.012 Y51.109 Z-5.449
X-2.957 Y51.148 Z-5.472
X-2.899 Y51.189 Z-5.48
G3 X-1.591 Y52.346 I-4.686 J6.614
G1 X-1.563 Y52.379
X-1.478 Y52.473
X-1.395 Y52.546
X-1.287 Y52.649
X-1.204 Y52.775
X-1.133 Y52.906
X-1.057 Y53.071
X-0.977 Y53.281
X-0.893 Y53.556
X-0.805 Y53.933
X-0.713 Y54.488
X-0.641 Y55.222
X-0.606 Y55.959
X-0.596 Y56.384
X-0.622 Y56.624
X-0.71 Y56.85
X-0.854 Y57.045
X-1.044 Y57.195
G3 X-1.513 Y56.948 I-0.153 J-0.278
G1 X-1.91 Y52.824
G3 X-1.395 Y52.546 I0.316 J-0.03
G1 X-1.286 Y52.64
X-1.228 Y52.686
X-1.042 Y52.808
X-0.96 Y52.849
X-0.829 Y52.922
X-0.711 Y53.015
X-0.604 Y53.12
X-0.507 Y53.235
X-0.414 Y53.365
X-0.326 Y53.505
X-0.23 Y53.685
X-0.125 Y53.919
X-0.028 Y54.178
X0.076 Y54.525
X0.178 Y54.972
X0.239 Y55.351
X0.266 Y55.645
X0.271 Y55.854
X0.262 Y56.071
X0.252 Y56.17
X0.2 Y56.391
X0.095 Y56.593
X-0.056 Y56.763
X-0.244 Y56.891
X-0.458 Y56.969
G3 X-0.831 Y56.708 I-0.06 J-0.312
G1 X-1.404 Y53.189
G3 X-0.96 Y52.849 I0.313 J-0.051
G1 X-0.892 Y52.882
X-0.725 Y52.956
X-0.557 Y53.008
X-0.465 Y53.029
X-0.321 Y53.07
X-0.184 Y53.132
X-0.056 Y53.211
X0.062 Y53.303
X0.172 Y53.405
X0.273 Y53.515
X0.379 Y53.648
X0.489 Y53.806
X0.598 Y53.986
X0.704 Y54.193
X0.804 Y54.425
X0.89 Y54.664
X0.96 Y54.912
X1.009 Y55.141
X1.04 Y55.355
X1.055 Y55.55
X1.056 Y55.71
X1.047 Y55.885
X1.028 Y56.034
X1. Y56.181
X0.987 Y56.229
X0.897 Y56.449
X0.753 Y56.638
X0.566 Y56.784
X0.348 Y56.877
X0.113 Y56.913
X-0.054 Y56.916
X-0.222 Y56.926
X-0.389 Y56.953
X-0.458 Y56.969
G3 X-0.836 Y56.658 I-0.06 J-0.312
G1 X-0.843 Y53.342
G3 X-0.465 Y53.029 I0.317 J-0.001
G1 X-0.389 Y53.047
X-0.222 Y53.074
X-0.054 Y53.084
X0.038 Y53.086
X0.188 Y53.096
X0.334 Y53.129
X0.474 Y53.183
X0.607 Y53.252
X0.733 Y53.334
X0.851 Y53.427
X0.961 Y53.528
X1.067 Y53.639
X1.177 Y53.771
X1.286 Y53.92
X1.387 Y54.08
X1.482 Y54.256
X1.569 Y54.445
X1.643 Y54.639
X1.705 Y54.84
X1.753 Y55.044
X1.786 Y55.247
X1.803 Y55.42
X1.809 Y55.602
X1.804 Y55.768
X1.789 Y55.917
X1.762 Y56.069
X1.727 Y56.215
X1.708 Y56.273
X1.61 Y56.483
X1.463 Y56.661
X1.276 Y56.798
X1.061 Y56.883
X0.831 Y56.912
X0.113 Y56.913
G3 X-0.193 Y56.603 I0.011 J-0.317
G1 X-0.275 Y53.412
G3 X0.038 Y53.086 I0.317 J-0.008
G1 X0.113 Y53.087
X0.709 Y53.088
X0.858 Y53.095
X1.006 Y53.121
X1.149 Y53.167
X1.285 Y53.229
X1.415 Y53.304
X1.538 Y53.39
X1.654 Y53.486
X1.763 Y53.589
X1.872 Y53.708
X1.979 Y53.842
X2.08 Y53.986
X2.176 Y54.146
X2.265 Y54.316
X2.344 Y54.498
X2.412 Y54.687
X2.467 Y54.88
X2.509 Y55.075
X2.537 Y55.272
X2.552 Y55.452
X2.554 Y55.623
X2.544 Y55.798
X2.526 Y55.947
X2.498 Y56.094
X2.46 Y56.239
X2.444 Y56.287
X2.344 Y56.492
X2.197 Y56.667
X2.011 Y56.801
X1.798 Y56.884
X1.571 Y56.912
X0.831
G3 X0.525 Y56.607 I0.011 J-0.317
G1 X0.402 Y53.417
G3 X0.709 Y53.088 I0.317 J-0.012
G1 X1.455
X1.604 Y53.095
X1.752 Y53.121
X1.895 Y53.167
X2.032 Y53.229
X2.162 Y53.303
X2.285 Y53.388
X2.402 Y53.483
X2.511 Y53.586
X2.619 Y53.703
X2.721 Y53.83
X2.822 Y53.973
X2.918 Y54.131
X3.007 Y54.3
X3.085 Y54.478
X3.153 Y54.664
X3.208 Y54.857
X3.251 Y55.051
X3.28 Y55.247
X3.296 Y55.435
X3.299 Y55.601
X3.29 Y55.781
X3.272 Y55.93
X3.245 Y56.078
X3.207 Y56.225
X3.188 Y56.282
X3.089 Y56.489
X2.942 Y56.665
X2.755 Y56.8
X2.542 Y56.884
X2.314 Y56.912
X1.571
G3 X1.265 Y56.607 I0.011 J-0.317
G1 X1.148 Y53.416
G3 X1.455 Y53.088 I0.317 J-0.012
G1 X2.217
X2.367 Y53.095
X2.515 Y53.123
X2.657 Y53.17
X2.793 Y53.233
X2.923 Y53.309
X3.045 Y53.395
X3.161 Y53.49
X3.269 Y53.594
X3.377 Y53.713
X3.481 Y53.843
X3.579 Y53.985
X3.673 Y54.142
X3.761 Y54.312
X3.838 Y54.491
X3.904 Y54.68
X3.959 Y54.872
X4. Y55.068
X4.028 Y55.264
X4.042 Y55.449
X4.043 Y55.618
X4.033 Y55.797
X4.014 Y55.946
X3.986 Y56.093
X3.947 Y56.238
X3.93 Y56.288
X3.83 Y56.494
X3.683 Y56.668
X3.497 Y56.801
X3.284 Y56.884
X3.058 Y56.912
X2.314
G3 X2.008 Y56.605 I0.011 J-0.317
G1 X1.911 Y53.414
G3 X2.217 Y53.088 I0.317 J-0.01
G1 X2.963
X3.113 Y53.095
X3.261 Y53.123
X3.403 Y53.169
X3.54 Y53.232
X3.669 Y53.307
X3.792 Y53.393
X3.908 Y53.489
X4.016 Y53.593
X4.123 Y53.711
X4.225 Y53.839
X4.324 Y53.981
X4.419 Y54.139
X4.506 Y54.31
X4.583 Y54.489
X4.649 Y54.676
X4.704 Y54.869
X4.745 Y55.064
X4.773 Y55.261
X4.787 Y55.448
X4.788 Y55.615
X4.778 Y55.795
X4.759 Y55.944
X4.731 Y56.091
X4.692 Y56.237
X4.674 Y56.289
X4.574 Y56.494
X4.427 Y56.668
X4.241 Y56.801
X4.029 Y56.884
X3.802 Y56.912
X3.058
G3 X2.752 Y56.605 I0.011 J-0.317
G1 X2.657 Y53.414
G3 X2.963 Y53.088 I0.317 J-0.009
G1 X3.726
X3.876 Y53.095
X4.023 Y53.125
X4.165 Y53.174
X4.3 Y53.238
X4.429 Y53.314
X4.551 Y53.402
X4.666 Y53.498
X4.773 Y53.603
X4.881 Y53.723
X4.983 Y53.854
X5.081 Y53.997
X5.174 Y54.156
X5.26 Y54.327
X5.336 Y54.507
X5.402 Y54.696
X5.454 Y54.89
X5.494 Y55.086
X5.52 Y55.283
X5.533 Y55.466
Y55.636
X5.521 Y55.813
X5.502 Y55.962
X5.472 Y56.109
X5.432 Y56.253
X5.417 Y56.296
X5.316 Y56.499
X5.169 Y56.671
X4.984 Y56.803
X4.772 Y56.885
X4.548 Y56.912
X3.802
G3 X3.496 Y56.603 I0.011 J-0.317
G1 X3.42 Y53.412
G3 X3.726 Y53.088 I0.317 J-0.008
G1 X4.472
X4.622 Y53.095
X4.769 Y53.125
X4.911 Y53.173
X5.047 Y53.237
X5.176 Y53.314
X5.297 Y53.401
X5.412 Y53.498
X5.52 Y53.603
X5.626 Y53.722
X5.728 Y53.851
X5.826 Y53.996
X5.92 Y54.155
X6.006 Y54.327
X6.082 Y54.507
X6.147 Y54.695
X6.2 Y54.889
X6.239 Y55.084
X6.266 Y55.281
X6.278 Y55.467
Y55.634
X6.267 Y55.812
X6.247 Y55.961
X6.217 Y56.108
X6.177 Y56.253
X6.162 Y56.296
X6.061 Y56.499
X5.914 Y56.671
X5.729 Y56.803
X5.518 Y56.885
X5.293 Y56.912
X4.548
G3 X4.241 Y56.603 I0.011 J-0.317
G1 X4.166 Y53.412
G3 X4.472 Y53.088 I0.317 J-0.007
G1 X5.235
X5.385 Y53.095
X5.531 Y53.127
X5.672 Y53.178
X5.807 Y53.244
X5.935 Y53.322
X6.056 Y53.41
X6.17 Y53.508
X6.277 Y53.614
X6.384 Y53.735
X6.486 Y53.867
X6.583 Y54.012
X6.675 Y54.172
X6.76 Y54.345
X6.835 Y54.527
X6.899 Y54.716
X6.951 Y54.911
X6.989 Y55.107
X7.014 Y55.304
X7.024 Y55.486
X7.023 Y55.655
X7.01 Y55.831
X6.989 Y55.979
X6.958 Y56.126
X6.917 Y56.27
X6.903 Y56.308
X6.799 Y56.513
X6.647 Y56.686
X6.457 Y56.815
X6.241 Y56.894
X6.012 Y56.916
X5.981 Y56.915
X5.478 Y56.912
X5.293
G3 X4.986 Y56.601 I0.011 J-0.317
G1 X4.929 Y53.411
G3 X5.235 Y53.088 I0.317 J-0.006
G1 X5.646 Y53.087
X5.947 Y53.085
X6.097 Y53.091
X6.244 Y53.119
X6.387 Y53.165
X6.523 Y53.228
X6.653 Y53.303
X6.776 Y53.389
X6.891 Y53.485
X7. Y53.589
X7.104 Y53.704
X7.206 Y53.833
X7.306 Y53.977
X7.401 Y54.136
X7.488 Y54.305
X7.565 Y54.483
X7.63 Y54.669
X7.685 Y54.863
X7.726 Y55.059
X7.754 Y55.256
X7.769 Y55.449
X7.77 Y55.614
X7.759 Y55.794
X7.741 Y55.946
X7.712 Y56.093
X7.672 Y56.242
X7.624 Y56.383
X7.564 Y56.522
X7.423 Y56.719
X7.237 Y56.873
X7.016 Y56.972
X6.778 Y57.011
X6.537 Y56.986
X6.484 Y56.974
X6.316 Y56.939
X6.149 Y56.92
X6.012 Y56.916
G3 X5.714 Y56.606 I0.02 J-0.317
G1 X5.643 Y53.409
G3 X5.947 Y53.085 I0.317 J-0.007
G1 X5.981
X6.149 Y53.08
X6.316 Y53.061
X6.484 Y53.026
X6.631 Y52.996
X6.781 Y53.003
X6.928 Y53.031
X7.07 Y53.078
X7.207 Y53.139
X7.338 Y53.213
X7.462 Y53.297
X7.579 Y53.391
X7.691 Y53.493
X7.799 Y53.607
X7.907 Y53.737
X8.013 Y53.882
X8.112 Y54.04
X8.202 Y54.208
X8.285 Y54.389
X8.356 Y54.577
X8.416 Y54.774
X8.463 Y54.974
X8.496 Y55.175
X8.516 Y55.376
X8.522 Y55.576
X8.515 Y55.771
X8.499 Y55.928
X8.471 Y56.094
X8.434 Y56.248
X8.389 Y56.391
X8.334 Y56.53
X8.269 Y56.666
X8.194 Y56.796
X8.108 Y56.921
X7.927 Y57.091
X7.707 Y57.206
X7.464 Y57.258
X7.216 Y57.244
X6.981 Y57.163
X6.819 Y57.082
X6.62 Y57.009
X6.594 Y57.
X6.537 Y56.986
G3 X6.304 Y56.684 I0.084 J-0.306
G1 X6.261 Y53.333
G3 X6.484 Y53.026 I0.317 J-0.004
G1 X6.652 Y52.98
X6.819 Y52.92
X6.87 Y52.894
X7.007 Y52.834
X7.155 Y52.806
X7.305 Y52.803
X7.453 Y52.821
X7.599 Y52.856
X7.741 Y52.906
X7.877 Y52.969
X8.007 Y53.043
X8.132 Y53.127
X8.253 Y53.221
X8.37 Y53.326
X8.489 Y53.447
X8.607 Y53.584
X8.72 Y53.735
X8.826 Y53.897
X8.925 Y54.073
X9.015 Y54.263
X9.095 Y54.465
X9.163 Y54.676
X9.216 Y54.888
X9.255 Y55.104
X9.28 Y55.321
X9.29 Y55.534
X9.285 Y55.743
X9.268 Y55.948
X9.237 Y56.147
X9.194 Y56.338
X9.148 Y56.494
X9.093 Y56.645
X9.025 Y56.798
X8.955 Y56.93
X8.876 Y57.058
X8.787 Y57.179
X8.69 Y57.293
X8.584 Y57.399
X8.554 Y57.425
X8.329 Y57.566
X8.073 Y57.636
X7.808 Y57.631
X7.556 Y57.551
X7.336 Y57.402
G3 X7.244 Y57.218 I0.222 J-0.227
G1 X6.706 Y53.216
G3 X6.87 Y52.894 I0.315 J-0.042
G1 X7.043 Y52.808
X7.154 Y52.733
X7.258 Y52.659
X7.385 Y52.578
X7.527 Y52.531
X7.675 Y52.508
X7.825 Y52.506
X7.974 Y52.522
X8.121 Y52.553
X8.265 Y52.597
X8.404 Y52.653
X8.538 Y52.719
X8.669 Y52.796
X8.803 Y52.886
X8.933 Y52.988
X9.066 Y53.107
X9.2 Y53.243
X9.33 Y53.394
X9.452 Y53.557
X9.569 Y53.737
X9.679 Y53.933
X9.778 Y54.142
X9.866 Y54.363
X9.893 Y54.463
X9.908 Y54.558
X9.913 Y54.653
Y55.994
X9.901 Y56.219
X9.881 Y56.39
X9.85 Y56.558
X9.807 Y56.727
X9.753 Y56.892
X9.688 Y57.054
X9.623 Y57.19
X9.549 Y57.321
X9.46 Y57.457
X9.369 Y57.576
X9.27 Y57.689
X9.162 Y57.793
X9.046 Y57.889
X8.924 Y57.975
X8.858 Y58.013
X8.65 Y58.101
X8.427 Y58.134
X8.202 Y58.11
X7.991 Y58.032
X7.805 Y57.903
X7.657 Y57.732
X7.608 Y57.671
X7.49 Y57.546
X7.447 Y57.503
X7.336 Y57.402
G3 X7.401 Y56.9 I0.222 J-0.227
G1 X9.437 Y55.73
G3 X9.913 Y55.994 I0.158 J0.275
G1 Y57.26
X9.905 Y57.41
X9.88 Y57.558
X9.837 Y57.701
X9.78 Y57.84
X9.709 Y57.972
X9.624 Y58.096
X9.529 Y58.212
X9.423 Y58.318
X9.307 Y58.413
X9.182 Y58.496
X9.137 Y58.52
X8.905 Y58.604
X8.659 Y58.624
X8.416 Y58.577
X8.195 Y58.468
X8.01 Y58.304
X7.876 Y58.096
G3 X8.028 Y57.686 I0.292 J-0.125
G1 X9.455 Y56.986
G3 X9.913 Y57.26 I0.14 J0.285
G1 Y58.057
X9.905 Y58.207
X9.869 Y58.352
X9.811 Y58.491
X9.734 Y58.619
X9.642 Y58.738
X9.535 Y58.843
X9.416 Y58.934
X9.288 Y59.012
X9.265 Y59.022
X9.012 Y59.093
X8.748 Y59.09
X8.497 Y59.013
X8.277 Y58.867
X8.108 Y58.665
X8.003 Y58.424
G3 X8.243 Y58.041 I0.309 J-0.073
G1 X9.527 Y57.758
G3 X9.913 Y58.057 I0.068 J0.31
G1 Y58.643
X9.905 Y58.793
X9.868 Y58.938
X9.805 Y59.074
X9.72 Y59.197
X9.617 Y59.307
X9.499 Y59.399
X9.371 Y59.477
X9.344 Y59.488
X9.102 Y59.554
X8.851 Y59.553
X8.609 Y59.483
X8.396 Y59.351
X8.226 Y59.166
X8.112 Y58.942
X8.063 Y58.696
G3 X8.372 Y58.371 I0.317 J-0.008
G1 X9.586 Y58.337
G3 X9.913 Y58.643 I0.009 J0.317
G1 Y59.18
X9.905 Y59.33
X9.863 Y59.474
X9.79 Y59.605
X9.696 Y59.722
X9.584 Y59.822
X9.46 Y59.905
X9.324 Y59.97
X9.18 Y60.017
X8.917 Y60.03
X8.661 Y59.968
X8.432 Y59.835
X8.251 Y59.644
X8.132 Y59.408
X8.084 Y59.149
G3 X8.413 Y58.831 I0.317 J-0.001
G1 X9.607 Y58.874
G3 X9.913 Y59.18 I-0.011 J0.317
G1 Y59.649
X9.905 Y59.799
X9.863 Y59.943
X9.793 Y60.075
X9.7 Y60.193
X9.588 Y60.293
X9.463 Y60.376
X9.327 Y60.44
X9.185 Y60.486
X9.171 Y60.489
X8.942 Y60.501
X8.717 Y60.456
X8.51 Y60.357
X8.334 Y60.21
X8.2 Y60.024
X8.116 Y59.81
X8.087 Y59.582
G3 X8.423 Y59.277 I0.317 J0.011
G1 X9.613 Y59.343
G3 X9.913 Y59.649 I-0.018 J0.317
G1 Y60.152
X9.905 Y60.302
X9.856 Y60.444
X9.78 Y60.573
X9.682 Y60.687
X9.568 Y60.784
X9.44 Y60.862
X9.303 Y60.923
X9.159 Y60.964
X9.151 Y60.965
X8.887 Y60.968
X8.633 Y60.897
X8.41 Y60.755
X8.236 Y60.557
X8.125 Y60.317
X8.087 Y60.056
G3 X8.43 Y59.75 I0.317 J0.011
G1 X9.621 Y59.847
G3 X9.913 Y60.152 I-0.026 J0.316
G1 Y60.614
X9.905 Y60.763
X9.858 Y60.906
X9.784 Y61.036
X9.688 Y61.152
X9.574 Y61.249
X9.448 Y61.33
X9.311 Y61.39
X9.167 Y61.434
X9.157 Y61.435
X8.892 Y61.44
X8.637 Y61.369
X8.412 Y61.228
X8.237 Y61.03
X8.126 Y60.789
X8.087 Y60.527
G3 X8.428 Y60.221 I0.317 J0.011
G1 X9.618 Y60.308
G3 X9.913 Y60.614 I-0.023 J0.317
G1 Y61.075
X9.905 Y61.225
X9.861 Y61.368
X9.788 Y61.499
X9.694 Y61.616
X9.58 Y61.714
X9.455 Y61.796
X9.318 Y61.858
X9.276 Y61.871
X9.186 Y61.894
X9.095 Y61.908
X9.002 Y61.912
G3 X8.804 Y61.356 I0.011 J-0.317
G1 X9.386 Y60.847
G3 X9.913 Y61.075 I0.209 J0.239
G1 Y61.527
X9.912 Y61.573
X9.911 Y61.611
X9.904 Y61.653
X9.891 Y61.695
X9.869 Y61.74
X9.854 Y61.763
X9.837 Y61.785
X9.795 Y61.831
X9.752 Y61.863
X9.711 Y61.885
X9.669 Y61.9
X9.627 Y61.909
X9.585 Y61.912
X8.906
X8.757 Y61.905
X8.543 Y61.841
X8.356 Y61.72
X8.211 Y61.551
X8.119 Y61.348
X8.087 Y61.128
G3 X8.621 Y60.906 I0.317 J0.011
G1 X9.112 Y61.363
G3 X8.906 Y61.912 I-0.216 J0.232
G1 X8.412
X8.37 Y61.908
X8.328 Y61.898
X8.289 Y61.884
X8.251 Y61.863
X8.228 Y61.847
X8.206 Y61.828
X8.16 Y61.782
X8.13 Y61.738
X8.109 Y61.695
X8.096 Y61.653
X8.089 Y61.611
X8.087 Y61.527
Y59.348
X8.085 Y59.18
X8.072 Y58.844
X8.063 Y58.696
G3 X8.065 Y58.654 I0.317 J-0.008
G2 X8.066 Y58.601 I-0.316 J-0.034
G1 X8.064 Y58.571
X7.726 Y53.054
G2 X7.315 Y52.77 I-0.317 J0.019
G3 X7.258 Y52.659 I-0.019 J-0.061
G1 X7.322 Y52.614
X7.565 Y52.378
X7.673 Y52.274
X7.806 Y52.205
X7.949 Y52.159
X8.096 Y52.133
X8.246 Y52.125
X8.396 Y52.132
X8.544 Y52.153
X8.691 Y52.187
X8.834 Y52.232
X8.974 Y52.288
X9.115 Y52.355
X9.261 Y52.436
X9.413 Y52.535
X9.563 Y52.647
X9.591 Y52.671
X9.726 Y52.815
X9.828 Y52.985
X9.891 Y53.173
X9.913 Y53.37
G3 X9.469 Y53.65 I-0.317 J-0.011
G1 X7.68 Y52.876
G3 X7.565 Y52.378 I0.126 J-0.291
G1 X7.599 Y52.342
X7.657 Y52.261
X7.745 Y52.137
X7.769 Y52.097
X7.853 Y51.972
X7.965 Y51.873
X8.094 Y51.796
X8.233 Y51.739
X8.378 Y51.701
X8.526 Y51.678
X8.676 Y51.67
X8.826 Y51.675
X8.975 Y51.692
X9.122 Y51.72
X9.267 Y51.759
X9.298 Y51.77
X9.501 Y51.871
X9.672 Y52.018
X9.803 Y52.203
X9.885 Y52.414
X9.913 Y52.638
G3 X9.52 Y52.936 I-0.317 J-0.011
G1 X7.972 Y52.559
G3 X7.769 Y52.097 I0.075 J-0.308
G1 X7.825 Y52.004
X7.843 Y51.97
X7.924 Y51.802
X7.943 Y51.751
X8.002 Y51.613
X8.095 Y51.496
X8.208 Y51.397
X8.335 Y51.317
X8.471 Y51.254
X8.613 Y51.206
X8.76 Y51.173
X8.909 Y51.157
X9.059 Y51.154
X9.077 Y51.156
X9.298 Y51.205
X9.501 Y51.306
X9.672 Y51.453
X9.803 Y51.637
X9.885 Y51.848
X9.913 Y52.073
G3 X9.546 Y52.375 I-0.317 J-0.011
G1 X8.196 Y52.164
G3 X7.943 Y51.751 I0.049 J-0.314
G1 X7.993 Y51.616
X8.03 Y51.467
X8.045 Y51.38
X8.078 Y51.234
X8.15 Y51.102
X8.245 Y50.986
X8.357 Y50.887
X8.482 Y50.803
X8.617 Y50.739
X8.759 Y50.69
X8.906 Y50.661
X8.913 Y50.66
X9.166 Y50.674
X9.406 Y50.755
X9.614 Y50.899
X9.776 Y51.095
X9.878 Y51.327
X9.913 Y51.578
G3 X9.559 Y51.882 I-0.317 J-0.011
G1 X8.323 Y51.739
G3 X8.045 Y51.38 I0.036 J-0.315
G1 X8.059 Y51.299
X8.078 Y50.997
X8.095 Y50.848
X8.145 Y50.707
X8.223 Y50.579
X8.321 Y50.466
X8.438 Y50.371
X8.566 Y50.293
X8.704 Y50.235
X8.848 Y50.194
X8.853 Y50.193
X9.116 Y50.191
X9.37 Y50.264
X9.592 Y50.405
X9.765 Y50.604
X9.875 Y50.843
X9.913 Y51.104
G3 X9.572 Y51.409 I-0.317 J-0.011
G1 X8.372 Y51.323
G3 X8.078 Y50.997 I0.023 J-0.317
G1 X8.087 Y50.796
Y50.536
Y50.494
Y50.46
X8.097 Y50.342
G3 X8.516 Y50.406 I0.206 J0.05
G1 X8.512 Y50.468
G3 X8.087 Y50.46 I-0.212 J-0.014
G1 X8.09 Y50.377
X8.099 Y50.335
X8.114 Y50.293
X8.133 Y50.255
X8.16 Y50.217
X8.188 Y50.187
X8.216 Y50.163
X8.244 Y50.142
X8.272 Y50.125
X8.3 Y50.112
X8.328 Y50.102
X8.37 Y50.092
X8.412 Y50.088
X9.468
X9.501
X9.646 Y50.095
G3 X9.58 Y50.72 I-0.077 J0.308
G1 X9.524 Y50.722
G3 X9.195 Y50.416 I-0.012 J-0.317
X9.501 Y50.088 I0.317 J-0.011
G1 X9.585
X9.627 Y50.091
X9.669 Y50.1
X9.7 Y50.11
X9.732 Y50.125
X9.758 Y50.141
X9.784 Y50.16
X9.837 Y50.213
X9.866 Y50.253
X9.886 Y50.293
X9.901 Y50.335
X9.91 Y50.377
X9.913 Y50.46
Y54.653
X9.904 Y54.69 Z-5.474
X9.896 Y54.724 Z-5.456
X9.89 Y54.751 Z-5.428
X9.885 Y54.768 Z-5.394
X9.884 Y54.774 Z-5.355
G0 Z5.
X-3.158 Y51.005
Z-7.835
G1 Z-8.153 F1016.
X-3.152 Y51.01 Z-8.223
X-3.133 Y51.023 Z-8.29
X-3.102 Y51.045 Z-8.35
X-3.061 Y51.074 Z-8.401
X-3.012 Y51.109 Z-8.439
X-2.957 Y51.148 Z-8.462
X-2.899 Y51.189 Z-8.47
G3 X-1.591 Y52.346 I-4.686 J6.614
G1 X-1.563 Y52.379
X-1.478 Y52.473
X-1.395 Y52.546
X-1.287 Y52.649
X-1.204 Y52.775
X-1.133 Y52.906
X-1.057 Y53.071
X-0.977 Y53.281
X-0.893 Y53.556
X-0.805 Y53.933
X-0.713 Y54.488
X-0.641 Y55.222
X-0.606 Y55.959
X-0.596 Y56.384
X-0.622 Y56.624
X-0.71 Y56.85
X-0.854 Y57.045
X-1.044 Y57.195
G3 X-1.513 Y56.948 I-0.153 J-0.278
G1 X-1.91 Y52.824
G3 X-1.395 Y52.546 I0.316 J-0.03
G1 X-1.286 Y52.64
X-1.228 Y52.686
X-1.042 Y52.808
X-0.96 Y52.849
X-0.829 Y52.922
X-0.711 Y53.015
X-0.604 Y53.12
X-0.507 Y53.235
X-0.414 Y53.365
X-0.326 Y53.505
X-0.23 Y53.685
X-0.125 Y53.919
X-0.028 Y54.178
X0.076 Y54.525
X0.178 Y54.972
X0.239 Y55.351
X0.266 Y55.645
X0.271 Y55.854
X0.262 Y56.071
X0.252 Y56.17
X0.2 Y56.391
X0.095 Y56.593
X-0.056 Y56.763
X-0.244 Y56.891
X-0.458 Y56.969
G3 X-0.831 Y56.708 I-0.06 J-0.312
G1 X-1.404 Y53.189
G3 X-0.96 Y52.849 I0.313 J-0.051
G1 X-0.892 Y52.882
X-0.725 Y52.956
X-0.557 Y53.008
X-0.465 Y53.029
X-0.321 Y53.07
X-0.184 Y53.132
X-0.056 Y53.211
X0.062 Y53.303
X0.172 Y53.405
X0.273 Y53.515
X0.379 Y53.648
X0.489 Y53.806
X0.598 Y53.986
X0.704 Y54.193
X0.804 Y54.425
X0.89 Y54.664
X0.96 Y54.912
X1.009 Y55.141
X1.04 Y55.355
X1.055 Y55.55
X1.056 Y55.71
X1.047 Y55.885
X1.028 Y56.034
X1. Y56.181
X0.987 Y56.229
X0.897 Y56.449
X0.753 Y56.638
X0.566 Y56.784
X0.348 Y56.877
X0.113 Y56.913
X-0.054 Y56.916
X-0.222 Y56.926
X-0.389 Y56.953
X-0.458 Y56.969
G3 X-0.836 Y56.658 I-0.06 J-0.312
G1 X-0.843 Y53.342
G3 X-0.465 Y53.029 I0.317 J-0.001
G1 X-0.389 Y53.047
X-0.222 Y53.074
X-0.054 Y53.084
X0.038 Y53.086
X0.188 Y53.096
X0.334 Y53.129
X0.474 Y53.183
X0.607 Y53.252
X0.733 Y53.334
X0.851 Y53.427
X0.961 Y53.528
X1.067 Y53.639
X1.177 Y53.771
X1.286 Y53.92
X1.387 Y54.08
X1.482 Y54.256
X1.569 Y54.445
X1.643 Y54.639
X1.705 Y54.84
X1.753 Y55.044
X1.786 Y55.247
X1.803 Y55.42
X1.809 Y55.602
X1.804 Y55.768
X1.789 Y55.917
X1.762 Y56.069
X1.727 Y56.215
X1.708 Y56.273
X1.61 Y56.483
X1.463 Y56.661
X1.276 Y56.798
X1.061 Y56.883
X0.831 Y56.912
X0.113 Y56.913
G3 X-0.193 Y56.603 I0.011 J-0.317
G1 X-0.275 Y53.412
G3 X0.038 Y53.086 I0.317 J-0.008
G1 X0.113 Y53.087
X0.709 Y53.088
X0.858 Y53.095
X1.006 Y53.121
X1.149 Y53.167
X1.285 Y53.229
X1.415 Y53.304
X1.538 Y53.39
X1.654 Y53.486
X1.763 Y53.589
X1.872 Y53.708
X1.979 Y53.842
X2.08 Y53.986
X2.176 Y54.146
X2.265 Y54.316
X2.344 Y54.498
X2.412 Y54.687
X2.467 Y54.88
X2.509 Y55.075
X2.537 Y55.272
X2.552 Y55.452
X2.554 Y55.623
X2.544 Y55.798
X2.526 Y55.947
X2.498 Y56.094
X2.46 Y56.239
X2.444 Y56.287
X2.344 Y56.492
X2.197 Y56.667
X2.011 Y56.801
X1.798 Y56.884
X1.571 Y56.912
X0.831
G3 X0.525 Y56.607 I0.011 J-0.317
G1 X0.402 Y53.417
G3 X0.709 Y53.088 I0.317 J-0.012
G1 X1.455
X1.604 Y53.095
X1.752 Y53.121
X1.895 Y53.167
X2.032 Y53.229
X2.162 Y53.303
X2.285 Y53.388
X2.402 Y53.483
X2.511 Y53.586
X2.619 Y53.703
X2.721 Y53.83
X2.822 Y53.973
X2.918 Y54.131
X3.007 Y54.3
X3.085 Y54.478
X3.153 Y54.664
X3.208 Y54.857
X3.251 Y55.051
X3.28 Y55.247
X3.296 Y55.435
X3.299 Y55.601
X3.29 Y55.781
X3.272 Y55.93
X3.245 Y56.078
X3.207 Y56.225
X3.188 Y56.282
X3.089 Y56.489
X2.942 Y56.665
X2.755 Y56.8
X2.542 Y56.884
X2.314 Y56.912
X1.571
G3 X1.265 Y56.607 I0.011 J-0.317
G1 X1.148 Y53.416
G3 X1.455 Y53.088 I0.317 J-0.012
G1 X2.217
X2.367 Y53.095
X2.515 Y53.123
X2.657 Y53.17
X2.793 Y53.233
X2.923 Y53.309
X3.045 Y53.395
X3.161 Y53.49
X3.269 Y53.594
X3.377 Y53.713
X3.481 Y53.843
X3.579 Y53.985
X3.673 Y54.142
X3.761 Y54.312
X3.838 Y54.491
X3.904 Y54.68
X3.959 Y54.872
X4. Y55.068
X4.028 Y55.264
X4.042 Y55.449
X4.043 Y55.618
X4.033 Y55.797
X4.014 Y55.946
X3.986 Y56.093
X3.947 Y56.238
X3.93 Y56.288
X3.83 Y56.494
X3.683 Y56.668
X3.497 Y56.801
X3.284 Y56.884
X3.058 Y56.912
X2.314
G3 X2.008 Y56.605 I0.011 J-0.317
G1 X1.911 Y53.414
G3 X2.217 Y53.088 I0.317 J-0.01
G1 X2.963
X3.113 Y53.095
X3.261 Y53.123
X3.403 Y53.169
X3.54 Y53.232
X3.669 Y53.307
X3.792 Y53.393
X3.908 Y53.489
X4.016 Y53.593
X4.123 Y53.711
X4.225 Y53.839
X4.324 Y53.981
X4.419 Y54.139
X4.506 Y54.31
X4.583 Y54.489
X4.649 Y54.676
X4.704 Y54.869
X4.745 Y55.064
X4.773 Y55.261
X4.787 Y55.448
X4.788 Y55.615
X4.778 Y55.795
X4.759 Y55.944
X4.731 Y56.091
X4.692 Y56.237
X4.674 Y56.289
X4.574 Y56.494
X4.427 Y56.668
X4.241 Y56.801
X4.029 Y56.884
X3.802 Y56.912
X3.058
G3 X2.752 Y56.605 I0.011 J-0.317
G1 X2.657 Y53.414
G3 X2.963 Y53.088 I0.317 J-0.009
G1 X3.726
X3.876 Y53.095
X4.023 Y53.125
X4.165 Y53.174
X4.3 Y53.238
X4.429 Y53.314
X4.551 Y53.402
X4.666 Y53.498
X4.773 Y53.603
X4.881 Y53.723
X4.983 Y53.854
X5.081 Y53.997
X5.174 Y54.156
X5.26 Y54.327
X5.336 Y54.507
X5.402 Y54.696
X5.454 Y54.89
X5.494 Y55.086
X5.52 Y55.283
X5.533 Y55.466
Y55.636
X5.521 Y55.813
X5.502 Y55.962
X5.472 Y56.109
X5.432 Y56.253
X5.417 Y56.296
X5.316 Y56.499
X5.169 Y56.671
X4.984 Y56.803
X4.772 Y56.885
X4.548 Y56.912
X3.802
G3 X3.496 Y56.603 I0.011 J-0.317
G1 X3.42 Y53.412
G3 X3.726 Y53.088 I0.317 J-0.008
G1 X4.472
X4.622 Y53.095
X4.769 Y53.125
X4.911 Y53.173
X5.047 Y53.237
X5.176 Y53.314
X5.297 Y53.401
X5.412 Y53.498
X5.52 Y53.603
X5.626 Y53.722
X5.728 Y53.851
X5.826 Y53.996
X5.92 Y54.155
X6.006 Y54.327
X6.082 Y54.507
X6.147 Y54.695
X6.2 Y54.889
X6.239 Y55.084
X6.266 Y55.281
X6.278 Y55.467
Y55.634
X6.267 Y55.812
X6.247 Y55.961
X6.217 Y56.108
X6.177 Y56.253
X6.162 Y56.296
X6.061 Y56.499
X5.914 Y56.671
X5.729 Y56.803
X5.518 Y56.885
X5.293 Y56.912
X4.548
G3 X4.241 Y56.603 I0.011 J-0.317
G1 X4.166 Y53.412
G3 X4.472 Y53.088 I0.317 J-0.007
G1 X5.235
X5.385 Y53.095
X5.531 Y53.127
X5.672 Y53.178
X5.807 Y53.244
X5.935 Y53.322
X6.056 Y53.41
X6.17 Y53.508
X6.277 Y53.614
X6.384 Y53.735
X6.486 Y53.867
X6.583 Y54.012
X6.675 Y54.172
X6.76 Y54.345
X6.835 Y54.527
X6.899 Y54.716
X6.951 Y54.911
X6.989 Y55.107
X7.014 Y55.304
X7.024 Y55.486
X7.023 Y55.655
X7.01 Y55.831
X6.989 Y55.979
X6.958 Y56.126
X6.917 Y56.27
X6.903 Y56.308
X6.799 Y56.513
X6.647 Y56.686
X6.457 Y56.815
X6.241 Y56.894
X6.012 Y56.916
X5.981 Y56.915
X5.478 Y56.912
X5.293
G3 X4.986 Y56.601 I0.011 J-0.317
G1 X4.929 Y53.411
G3 X5.235 Y53.088 I0.317 J-0.006
G1 X5.646 Y53.087
X5.947 Y53.085
X6.097 Y53.091
X6.244 Y53.119
X6.387 Y53.165
X6.523 Y53.228
X6.653 Y53.303
X6.776 Y53.389
X6.891 Y53.485
X7. Y53.589
X7.104 Y53.704
X7.206 Y53.833
X7.306 Y53.977
X7.401 Y54.136
X7.488 Y54.305
X7.565 Y54.483
X7.63 Y54.669
X7.685 Y54.863
X7.726 Y55.059
X7.754 Y55.256
X7.769 Y55.449
X7.77 Y55.614
X7.759 Y55.794
X7.741 Y55.946
X7.712 Y56.093
X7.672 Y56.242
X7.624 Y56.383
X7.564 Y56.522
X7.423 Y56.719
X7.237 Y56.873
X7.016 Y56.972
X6.778 Y57.011
X6.537 Y56.986
X6.484 Y56.974
X6.316 Y56.939
X6.149 Y56.92
X6.012 Y56.916
G3 X5.714 Y56.606 I0.02 J-0.317
G1 X5.643 Y53.409
G3 X5.947 Y53.085 I0.317 J-0.007
G1 X5.981
X6.149 Y53.08
X6.316 Y53.061
X6.484 Y53.026
X6.631 Y52.996
X6.781 Y53.003
X6.928 Y53.031
X7.07 Y53.078
X7.207 Y53.139
X7.338 Y53.213
X7.462 Y53.297
X7.579 Y53.391
X7.691 Y53.493
X7.799 Y53.607
X7.907 Y53.737
X8.013 Y53.882
X8.112 Y54.04
X8.202 Y54.208
X8.285 Y54.389
X8.356 Y54.577
X8.416 Y54.774
X8.463 Y54.974
X8.496 Y55.175
X8.516 Y55.376
X8.522 Y55.576
X8.515 Y55.771
X8.499 Y55.928
X8.471 Y56.094
X8.434 Y56.248
X8.389 Y56.391
X8.334 Y56.53
X8.269 Y56.666
X8.194 Y56.796
X8.108 Y56.921
X7.927 Y57.091
X7.707 Y57.206
X7.464 Y57.258
X7.216 Y57.244
X6.981 Y57.163
X6.819 Y57.082
X6.62 Y57.009
X6.594 Y57.
X6.537 Y56.986
G3 X6.304 Y56.684 I0.084 J-0.306
G1 X6.261 Y53.333
G3 X6.484 Y53.026 I0.317 J-0.004
G1 X6.652 Y52.98
X6.819 Y52.92
X6.87 Y52.894
X7.007 Y52.834
X7.155 Y52.806
X7.305 Y52.803
X7.453 Y52.821
X7.599 Y52.856
X7.741 Y52.906
X7.877 Y52.969
X8.007 Y53.043
X8.132 Y53.127
X8.253 Y53.221
X8.37 Y53.326
X8.489 Y53.447
X8.607 Y53.584
X8.72 Y53.735
X8.826 Y53.897
X8.925 Y54.073
X9.015 Y54.263
X9.095 Y54.465
X9.163 Y54.676
X9.216 Y54.888
X9.255 Y55.104
X9.28 Y55.321
X9.29 Y55.534
X9.285 Y55.743
X9.268 Y55.948
X9.237 Y56.147
X9.194 Y56.338
X9.148 Y56.494
X9.093 Y56.645
X9.025 Y56.798
X8.955 Y56.93
X8.876 Y57.058
X8.787 Y57.179
X8.69 Y57.293
X8.584 Y57.399
X8.554 Y57.425
X8.329 Y57.566
X8.073 Y57.636
X7.808 Y57.631
X7.556 Y57.551
X7.336 Y57.402
G3 X7.244 Y57.218 I0.222 J-0.227
G1 X6.706 Y53.216
G3 X6.87 Y52.894 I0.315 J-0.042
G1 X7.043 Y52.808
X7.154 Y52.733
X7.258 Y52.659
X7.385 Y52.578
X7.527 Y52.531
X7.675 Y52.508
X7.825 Y52.506
X7.974 Y52.522
X8.121 Y52.553
X8.265 Y52.597
X8.404 Y52.653
X8.538 Y52.719
X8.669 Y52.796
X8.803 Y52.886
X8.933 Y52.988
X9.066 Y53.107
X9.2 Y53.243
X9.33 Y53.394
X9.452 Y53.557
X9.569 Y53.737
X9.679 Y53.933
X9.778 Y54.142
X9.866 Y54.363
X9.893 Y54.463
X9.908 Y54.558
X9.913 Y54.653
Y55.994
X9.901 Y56.219
X9.881 Y56.39
X9.85 Y56.558
X9.807 Y56.727
X9.753 Y56.892
X9.688 Y57.054
X9.623 Y57.19
X9.549 Y57.321
X9.46 Y57.457
X9.369 Y57.576
X9.27 Y57.689
X9.162 Y57.793
X9.046 Y57.889
X8.924 Y57.975
X8.858 Y58.013
X8.65 Y58.101
X8.427 Y58.134
X8.202 Y58.11
X7.991 Y58.032
X7.805 Y57.903
X7.657 Y57.732
X7.608 Y57.671
X7.49 Y57.546
X7.447 Y57.503
X7.336 Y57.402
G3 X7.401 Y56.9 I0.222 J-0.227
G1 X9.437 Y55.73
G3 X9.913 Y55.994 I0.158 J0.275
G1 Y57.26
X9.905 Y57.41
X9.88 Y57.558
X9.837 Y57.701
X9.78 Y57.84
X9.709 Y57.972
X9.624 Y58.096
X9.529 Y58.212
X9.423 Y58.318
X9.307 Y58.413
X9.182 Y58.496
X9.137 Y58.52
X8.905 Y58.604
X8.659 Y58.624
X8.416 Y58.577
X8.195 Y58.468
X8.01 Y58.304
X7.876 Y58.096
G3 X8.028 Y57.686 I0.292 J-0.125
G1 X9.455 Y56.986
G3 X9.913 Y57.26 I0.14 J0.285
G1 Y58.057
X9.905 Y58.207
X9.869 Y58.352
X9.811 Y58.491
X9.734 Y58.619
X9.642 Y58.738
X9.535 Y58.843
X9.416 Y58.934
X9.288 Y59.012
X9.265 Y59.022
X9.012 Y59.093
X8.748 Y59.09
X8.497 Y59.013
X8.277 Y58.867
X8.108 Y58.665
X8.003 Y58.424
G3 X8.243 Y58.041 I0.309 J-0.073
G1 X9.527 Y57.758
G3 X9.913 Y58.057 I0.068 J0.31
G1 Y58.643
X9.905 Y58.793
X9.868 Y58.938
X9.805 Y59.074
X9.72 Y59.197
X9.617 Y59.307
X9.499 Y59.399
X9.371 Y59.477
X9.344 Y59.488
X9.102 Y59.554
X8.851 Y59.553
X8.609 Y59.483
X8.396 Y59.351
X8.226 Y59.166
X8.112 Y58.942
X8.063 Y58.696
G3 X8.372 Y58.371 I0.317 J-0.008
G1 X9.586 Y58.337
G3 X9.913 Y58.643 I0.009 J0.317
G1 Y59.18
X9.905 Y59.33
X9.863 Y59.474
X9.79 Y59.605
X9.696 Y59.722
X9.584 Y59.822
X9.46 Y59.905
X9.324 Y59.97
X9.18 Y60.017
X8.917 Y60.03
X8.661 Y59.968
X8.432 Y59.835
X8.251 Y59.644
X8.132 Y59.408
X8.084 Y59.149
G3 X8.413 Y58.831 I0.317 J-0.001
G1 X9.607 Y58.874
G3 X9.913 Y59.18 I-0.011 J0.317
G1 Y59.649
X9.905 Y59.799
X9.863 Y59.943
X9.793 Y60.075
X9.7 Y60.193
X9.588 Y60.293
X9.463 Y60.376
X9.327 Y60.44
X9.185 Y60.486
X9.171 Y60.489
X8.942 Y60.501
X8.717 Y60.456
X8.51 Y60.357
X8.334 Y60.21
X8.2 Y60.024
X8.116 Y59.81
X8.087 Y59.582
G3 X8.423 Y59.277 I0.317 J0.011
G1 X9.613 Y59.343
G3 X9.913 Y59.649 I-0.018 J0.317
G1 Y60.152
X9.905 Y60.302
X9.856 Y60.444
X9.78 Y60.573
X9.682 Y60.687
X9.568 Y60.784
X9.44 Y60.862
X9.303 Y60.923
X9.159 Y60.964
X9.151 Y60.965
X8.887 Y60.968
X8.633 Y60.897
X8.41 Y60.755
X8.236 Y60.557
X8.125 Y60.317
X8.087 Y60.056
G3 X8.43 Y59.75 I0.317 J0.011
G1 X9.621 Y59.847
G3 X9.913 Y60.152 I-0.026 J0.316
G1 Y60.614
X9.905 Y60.763
X9.858 Y60.906
X9.784 Y61.036
X9.688 Y61.152
X9.574 Y61.249
X9.448 Y61.33
X9.311 Y61.39
X9.167 Y61.434
X9.157 Y61.435
X8.892 Y61.44
X8.637 Y61.369
X8.412 Y61.228
X8.237 Y61.03
X8.126 Y60.789
X8.087 Y60.527
G3 X8.428 Y60.221 I0.317 J0.011
G1 X9.618 Y60.308
G3 X9.913 Y60.614 I-0.023 J0.317
G1 Y61.075
X9.905 Y61.225
X9.861 Y61.368
X9.788 Y61.499
X9.694 Y61.616
X9.58 Y61.714
X9.455 Y61.796
X9.318 Y61.858
X9.276 Y61.871
X9.186 Y61.894
X9.095 Y61.908
X9.002 Y61.912
G3 X8.804 Y61.356 I0.011 J-0.317
G1 X9.386 Y60.847
G3 X9.913 Y61.075 I0.209 J0.239
G1 Y61.527
X9.912 Y61.573
X9.911 Y61.611
X9.904 Y61.653
X9.891 Y61.695
X9.869 Y61.74
X9.854 Y61.763
X9.837 Y61.785
X9.795 Y61.831
X9.752 Y61.863
X9.711 Y61.885
X9.669 Y61.9
X9.627 Y61.909
X9.585 Y61.912
X8.906
X8.757 Y61.905
X8.543 Y61.841
X8.356 Y61.72
X8.211 Y61.551
X8.119 Y61.348
X8.087 Y61.128
G3 X8.621 Y60.906 I0.317 J0.011
G1 X9.112 Y61.363
G3 X8.906 Y61.912 I-0.216 J0.232
G1 X8.412
X8.37 Y61.908
X8.328 Y61.898
X8.289 Y61.884
X8.251 Y61.863
X8.228 Y61.847
X8.206 Y61.828
X8.16 Y61.782
X8.13 Y61.738
X8.109 Y61.695
X8.096 Y61.653
X8.089 Y61.611
X8.087 Y61.527
Y59.348
X8.085 Y59.18
X8.072 Y58.844
X8.063 Y58.696
G3 X8.065 Y58.654 I0.317 J-0.008
G2 X8.066 Y58.601 I-0.316 J-0.034
G1 X8.064 Y58.571
X7.726 Y53.054
G2 X7.315 Y52.77 I-0.317 J0.019
G3 X7.258 Y52.659 I-0.019 J-0.061
G1 X7.322 Y52.614
X7.565 Y52.378
X7.673 Y52.274
X7.806 Y52.205
X7.949 Y52.159
X8.096 Y52.133
X8.246 Y52.125
X8.396 Y52.132
X8.544 Y52.153
X8.691 Y52.187
X8.834 Y52.232
X8.974 Y52.288
X9.115 Y52.355
X9.261 Y52.436
X9.413 Y52.535
X9.563 Y52.647
X9.591 Y52.671
X9.726 Y52.815
X9.828 Y52.985
X9.891 Y53.173
X9.913 Y53.37
G3 X9.469 Y53.65 I-0.317 J-0.011
G1 X7.68 Y52.876
G3 X7.565 Y52.378 I0.126 J-0.291
G1 X7.599 Y52.342
X7.657 Y52.261
X7.745 Y52.137
X7.769 Y52.097
X7.853 Y51.972
X7.965 Y51.873
X8.094 Y51.796
X8.233 Y51.739
X8.378 Y51.701
X8.526 Y51.678
X8.676 Y51.67
X8.826 Y51.675
X8.975 Y51.692
X9.122 Y51.72
X9.267 Y51.759
X9.298 Y51.77
X9.501 Y51.871
X9.672 Y52.018
X9.803 Y52.203
X9.885 Y52.414
X9.913 Y52.638
G3 X9.52 Y52.936 I-0.317 J-0.011
G1 X7.972 Y52.559
G3 X7.769 Y52.097 I0.075 J-0.308
G1 X7.825 Y52.004
X7.843 Y51.97
X7.924 Y51.802
X7.943 Y51.751
X8.002 Y51.613
X8.095 Y51.496
X8.208 Y51.397
X8.335 Y51.317
X8.471 Y51.254
X8.613 Y51.206
X8.76 Y51.173
X8.909 Y51.157
X9.059 Y51.154
X9.077 Y51.156
X9.298 Y51.205
X9.501 Y51.306
X9.672 Y51.453
X9.803 Y51.637
X9.885 Y51.848
X9.913 Y52.073
G3 X9.546 Y52.375 I-0.317 J-0.011
G1 X8.196 Y52.164
G3 X7.943 Y51.751 I0.049 J-0.314
G1 X7.993 Y51.616
X8.03 Y51.467
X8.045 Y51.38
X8.078 Y51.234
X8.15 Y51.102
X8.245 Y50.986
X8.357 Y50.887
X8.482 Y50.803
X8.617 Y50.739
X8.759 Y50.69
X8.906 Y50.661
X8.913 Y50.66
X9.166 Y50.674
X9.406 Y50.755
X9.614 Y50.899
X9.776 Y51.095
X9.878 Y51.327
X9.913 Y51.578
G3 X9.559 Y51.882 I-0.317 J-0.011
G1 X8.323 Y51.739
G3 X8.045 Y51.38 I0.036 J-0.315
G1 X8.059 Y51.299
X8.078 Y50.997
X8.095 Y50.848
X8.145 Y50.707
X8.223 Y50.579
X8.321 Y50.466
X8.438 Y50.371
X8.566 Y50.293
X8.704 Y50.235
X8.848 Y50.194
X8.853 Y50.193
X9.116 Y50.191
X9.37 Y50.264
X9.592 Y50.405
X9.765 Y50.604
X9.875 Y50.843
X9.913 Y51.104
G3 X9.572 Y51.409 I-0.317 J-0.011
G1 X8.372 Y51.323
G3 X8.078 Y50.997 I0.023 J-0.317
G1 X8.087 Y50.796
Y50.536
Y50.494
Y50.46
X8.097 Y50.342
G3 X8.516 Y50.406 I0.206 J0.05
G1 X8.512 Y50.468
G3 X8.087 Y50.46 I-0.212 J-0.014
G1 X8.09 Y50.377
X8.099 Y50.335
X8.114 Y50.293
X8.133 Y50.255
X8.16 Y50.217
X8.188 Y50.187
X8.216 Y50.163
X8.244 Y50.142
X8.272 Y50.125
X8.3 Y50.112
X8.328 Y50.102
X8.37 Y50.092
X8.412 Y50.088
X9.468
X9.501
X9.646 Y50.095
G3 X9.58 Y50.72 I-0.077 J0.308
G1 X9.524 Y50.722
G3 X9.195 Y50.416 I-0.012 J-0.317
X9.501 Y50.088 I0.317 J-0.011
G1 X9.585
X9.627 Y50.091
X9.669 Y50.1
X9.7 Y50.11
X9.732 Y50.125
X9.758 Y50.141
X9.784 Y50.16
X9.837 Y50.213
X9.866 Y50.253
X9.886 Y50.293
X9.901 Y50.335
X9.91 Y50.377
X9.913 Y50.46
Y54.653
X9.904 Y54.69 Z-8.464
X9.896 Y54.724 Z-8.446
X9.89 Y54.751 Z-8.418
X9.885 Y54.768 Z-8.384
X9.884 Y54.774 Z-8.345
G0 Z5.
X-3.158 Y51.005
Z-9.6
G1 Z-9.917 F1016.
X-3.152 Y51.01 Z-9.988
X-3.133 Y51.023 Z-10.055
X-3.102 Y51.045 Z-10.115
X-3.061 Y51.074 Z-10.166
X-3.012 Y51.109 Z-10.204
X-2.957 Y51.148 Z-10.227
X-2.899 Y51.189 Z-10.235
G3 X-1.591 Y52.346 I-4.686 J6.614
G1 X-1.563 Y52.379
X-1.478 Y52.473
X-1.395 Y52.546
X-1.287 Y52.649
X-1.204 Y52.775
X-1.133 Y52.906
X-1.057 Y53.071
X-0.977 Y53.281
X-0.893 Y53.556
X-0.805 Y53.933
X-0.713 Y54.488
X-0.641 Y55.222
X-0.606 Y55.959
X-0.596 Y56.384
X-0.622 Y56.624
X-0.71 Y56.85
X-0.854 Y57.045
X-1.044 Y57.195
G3 X-1.513 Y56.948 I-0.153 J-0.278
G1 X-1.91 Y52.824
G3 X-1.395 Y52.546 I0.316 J-0.03
G1 X-1.286 Y52.64
X-1.228 Y52.686
X-1.042 Y52.808
X-0.96 Y52.849
X-0.829 Y52.922
X-0.711 Y53.015
X-0.604 Y53.12
X-0.507 Y53.235
X-0.414 Y53.365
X-0.326 Y53.505
X-0.23 Y53.685
X-0.125 Y53.919
X-0.028 Y54.178
X0.076 Y54.525
X0.178 Y54.972
X0.239 Y55.351
X0.266 Y55.645
X0.271 Y55.854
X0.262 Y56.071
X0.252 Y56.17
X0.2 Y56.391
X0.095 Y56.593
X-0.056 Y56.763
X-0.244 Y56.891
X-0.458 Y56.969
G3 X-0.831 Y56.708 I-0.06 J-0.312
G1 X-1.404 Y53.189
G3 X-0.96 Y52.849 I0.313 J-0.051
G1 X-0.892 Y52.882
X-0.725 Y52.956
X-0.557 Y53.008
X-0.465 Y53.029
X-0.321 Y53.07
X-0.184 Y53.132
X-0.056 Y53.211
X0.062 Y53.303
X0.172 Y53.405
X0.273 Y53.515
X0.379 Y53.648
X0.489 Y53.806
X0.598 Y53.986
X0.704 Y54.193
X0.804 Y54.425
X0.89 Y54.664
X0.96 Y54.912
X1.009 Y55.141
X1.04 Y55.355
X1.055 Y55.55
X1.056 Y55.71
X1.047 Y55.885
X1.028 Y56.034
X1. Y56.181
X0.987 Y56.229
X0.897 Y56.449
X0.753 Y56.638
X0.566 Y56.784
X0.348 Y56.877
X0.113 Y56.913
X-0.054 Y56.916
X-0.222 Y56.926
X-0.389 Y56.953
X-0.458 Y56.969
G3 X-0.836 Y56.658 I-0.06 J-0.312
G1 X-0.843 Y53.342
G3 X-0.465 Y53.029 I0.317 J-0.001
G1 X-0.389 Y53.047
X-0.222 Y53.074
X-0.054 Y53.084
X0.038 Y53.086
X0.188 Y53.096
X0.334 Y53.129
X0.474 Y53.183
X0.607 Y53.252
X0.733 Y53.334
X0.851 Y53.427
X0.961 Y53.528
X1.067 Y53.639
X1.177 Y53.771
X1.286 Y53.92
X1.387 Y54.08
X1.482 Y54.256
X1.569 Y54.445
X1.643 Y54.639
X1.705 Y54.84
X1.753 Y55.044
X1.786 Y55.247
X1.803 Y55.42
X1.809 Y55.602
X1.804 Y55.768
X1.789 Y55.917
X1.762 Y56.069
X1.727 Y56.215
X1.708 Y56.273
X1.61 Y56.483
X1.463 Y56.661
X1.276 Y56.798
X1.061 Y56.883
X0.831 Y56.912
X0.113 Y56.913
G3 X-0.193 Y56.603 I0.011 J-0.317
G1 X-0.275 Y53.412
G3 X0.038 Y53.086 I0.317 J-0.008
G1 X0.113 Y53.087
X0.709 Y53.088
X0.858 Y53.095
X1.006 Y53.121
X1.149 Y53.167
X1.285 Y53.229
X1.415 Y53.304
X1.538 Y53.39
X1.654 Y53.486
X1.763 Y53.589
X1.872 Y53.708
X1.979 Y53.842
X2.08 Y53.986
X2.176 Y54.146
X2.265 Y54.316
X2.344 Y54.498
X2.412 Y54.687
X2.467 Y54.88
X2.509 Y55.075
X2.537 Y55.272
X2.552 Y55.452
X2.554 Y55.623
X2.544 Y55.798
X2.526 Y55.947
X2.498 Y56.094
X2.46 Y56.239
X2.444 Y56.287
X2.344 Y56.492
X2.197 Y56.667
X2.011 Y56.801
X1.798 Y56.884
X1.571 Y56.912
X0.831
G3 X0.525 Y56.607 I0.011 J-0.317
G1 X0.402 Y53.417
G3 X0.709 Y53.088 I0.317 J-0.012
G1 X1.455
X1.604 Y53.095
X1.752 Y53.121
X1.895 Y53.167
X2.032 Y53.229
X2.162 Y53.303
X2.285 Y53.388
X2.402 Y53.483
X2.511 Y53.586
X2.619 Y53.703
X2.721 Y53.83
X2.822 Y53.973
X2.918 Y54.131
X3.007 Y54.3
X3.085 Y54.478
X3.153 Y54.664
X3.208 Y54.857
X3.251 Y55.051
X3.28 Y55.247
X3.296 Y55.435
X3.299 Y55.601
X3.29 Y55.781
X3.272 Y55.93
X3.245 Y56.078
X3.207 Y56.225
X3.188 Y56.282
X3.089 Y56.489
X2.942 Y56.665
X2.755 Y56.8
X2.542 Y56.884
X2.314 Y56.912
X1.571
G3 X1.265 Y56.607 I0.011 J-0.317
G1 X1.148 Y53.416
G3 X1.455 Y53.088 I0.317 J-0.012
G1 X2.217
X2.367 Y53.095
X2.515 Y53.123
X2.657 Y53.17
X2.793 Y53.233
X2.923 Y53.309
X3.045 Y53.395
X3.161 Y53.49
X3.269 Y53.594
X3.377 Y53.713
X3.481 Y53.843
X3.579 Y53.985
X3.673 Y54.142
X3.761 Y54.312
X3.838 Y54.491
X3.904 Y54.68
X3.959 Y54.872
X4. Y55.068
X4.028 Y55.264
X4.042 Y55.449
X4.043 Y55.618
X4.033 Y55.797
X4.014 Y55.946
X3.986 Y56.093
X3.947 Y56.238
X3.93 Y56.288
X3.83 Y56.494
X3.683 Y56.668
X3.497 Y56.801
X3.284 Y56.884
X3.058 Y56.912
X2.314
G3 X2.008 Y56.605 I0.011 J-0.317
G1 X1.911 Y53.414
G3 X2.217 Y53.088 I0.317 J-0.01
G1 X2.963
X3.113 Y53.095
X3.261 Y53.123
X3.403 Y53.169
X3.54 Y53.232
X3.669 Y53.307
X3.792 Y53.393
X3.908 Y53.489
X4.016 Y53.593
X4.123 Y53.711
X4.225 Y53.839
X4.324 Y53.981
X4.419 Y54.139
X4.506 Y54.31
X4.583 Y54.489
X4.649 Y54.676
X4.704 Y54.869
X4.745 Y55.064
X4.773 Y55.261
X4.787 Y55.448
X4.788 Y55.615
X4.778 Y55.795
X4.759 Y55.944
X4.731 Y56.091
X4.692 Y56.237
X4.674 Y56.289
X4.574 Y56.494
X4.427 Y56.668
X4.241 Y56.801
X4.029 Y56.884
X3.802 Y56.912
X3.058
G3 X2.752 Y56.605 I0.011 J-0.317
G1 X2.657 Y53.414
G3 X2.963 Y53.088 I0.317 J-0.009
G1 X3.726
X3.876 Y53.095
X4.023 Y53.125
X4.165 Y53.174
X4.3 Y53.238
X4.429 Y53.314
X4.551 Y53.402
X4.666 Y53.498
X4.773 Y53.603
X4.881 Y53.723
X4.983 Y53.854
X5.081 Y53.997
X5.174 Y54.156
X5.26 Y54.327
X5.336 Y54.507
X5.402 Y54.696
X5.454 Y54.89
X5.494 Y55.086
X5.52 Y55.283
X5.533 Y55.466
Y55.636
X5.521 Y55.813
X5.502 Y55.962
X5.472 Y56.109
X5.432 Y56.253
X5.417 Y56.296
X5.316 Y56.499
X5.169 Y56.671
X4.984 Y56.803
X4.772 Y56.885
X4.548 Y56.912
X3.802
G3 X3.496 Y56.603 I0.011 J-0.317
G1 X3.42 Y53.412
G3 X3.726 Y53.088 I0.317 J-0.008
G1 X4.472
X4.622 Y53.095
X4.769 Y53.125
X4.911 Y53.173
X5.047 Y53.237
X5.176 Y53.314
X5.297 Y53.401
X5.412 Y53.498
X5.52 Y53.603
X5.626 Y53.722
X5.728 Y53.851
X5.826 Y53.996
X5.92 Y54.155
X6.006 Y54.327
X6.082 Y54.507
X6.147 Y54.695
X6.2 Y54.889
X6.239 Y55.084
X6.266 Y55.281
X6.278 Y55.467
Y55.634
X6.267 Y55.812
X6.247 Y55.961
X6.217 Y56.108
X6.177 Y56.253
X6.162 Y56.296
X6.061 Y56.499
X5.914 Y56.671
X5.729 Y56.803
X5.518 Y56.885
X5.293 Y56.912
X4.548
G3 X4.241 Y56.603 I0.011 J-0.317
G1 X4.166 Y53.412
G3 X4.472 Y53.088 I0.317 J-0.007
G1 X5.235
X5.385 Y53.095
X5.531 Y53.127
X5.672 Y53.178
X5.807 Y53.244
X5.935 Y53.322
X6.056 Y53.41
X6.17 Y53.508
X6.277 Y53.614
X6.384 Y53.735
X6.486 Y53.867
X6.583 Y54.012
X6.675 Y54.172
X6.76 Y54.345
X6.835 Y54.527
X6.899 Y54.716
X6.951 Y54.911
X6.989 Y55.107
X7.014 Y55.304
X7.024 Y55.486
X7.023 Y55.655
X7.01 Y55.831
X6.989 Y55.979
X6.958 Y56.126
X6.917 Y56.27
X6.903 Y56.308
X6.799 Y56.513
X6.647 Y56.686
X6.457 Y56.815
X6.241 Y56.894
X6.012 Y56.916
X5.981 Y56.915
X5.478 Y56.912
X5.293
G3 X4.986 Y56.601 I0.011 J-0.317
G1 X4.929 Y53.411
G3 X5.235 Y53.088 I0.317 J-0.006
G1 X5.646 Y53.087
X5.947 Y53.085
X6.097 Y53.091
X6.244 Y53.119
X6.387 Y53.165
X6.523 Y53.228
X6.653 Y53.303
X6.776 Y53.389
X6.891 Y53.485
X7. Y53.589
X7.104 Y53.704
X7.206 Y53.833
X7.306 Y53.977
X7.401 Y54.136
X7.488 Y54.305
X7.565 Y54.483
X7.63 Y54.669
X7.685 Y54.863
X7.726 Y55.059
X7.754 Y55.256
X7.769 Y55.449
X7.77 Y55.614
X7.759 Y55.794
X7.741 Y55.946
X7.712 Y56.093
X7.672 Y56.242
X7.624 Y56.383
X7.564 Y56.522
X7.423 Y56.719
X7.237 Y56.873
X7.016 Y56.972
X6.778 Y57.011
X6.537 Y56.986
X6.484 Y56.974
X6.316 Y56.939
X6.149 Y56.92
X6.012 Y56.916
G3 X5.714 Y56.606 I0.02 J-0.317
G1 X5.643 Y53.409
G3 X5.947 Y53.085 I0.317 J-0.007
G1 X5.981
X6.149 Y53.08
X6.316 Y53.061
X6.484 Y53.026
X6.631 Y52.996
X6.781 Y53.003
X6.928 Y53.031
X7.07 Y53.078
X7.207 Y53.139
X7.338 Y53.213
X7.462 Y53.297
X7.579 Y53.391
X7.691 Y53.493
X7.799 Y53.607
X7.907 Y53.737
X8.013 Y53.882
X8.112 Y54.04
X8.202 Y54.208
X8.285 Y54.389
X8.356 Y54.577
X8.416 Y54.774
X8.463 Y54.974
X8.496 Y55.175
X8.516 Y55.376
X8.522 Y55.576
X8.515 Y55.771
X8.499 Y55.928
X8.471 Y56.094
X8.434 Y56.248
X8.389 Y56.391
X8.334 Y56.53
X8.269 Y56.666
X8.194 Y56.796
X8.108 Y56.921
X7.927 Y57.091
X7.707 Y57.206
X7.464 Y57.258
X7.216 Y57.244
X6.981 Y57.163
X6.819 Y57.082
X6.62 Y57.009
X6.594 Y57.
X6.537 Y56.986
G3 X6.304 Y56.684 I0.084 J-0.306
G1 X6.261 Y53.333
G3 X6.484 Y53.026 I0.317 J-0.004
G1 X6.652 Y52.98
X6.819 Y52.92
X6.87 Y52.894
X7.007 Y52.834
X7.155 Y52.806
X7.305 Y52.803
X7.453 Y52.821
X7.599 Y52.856
X7.741 Y52.906
X7.877 Y52.969
X8.007 Y53.043
X8.132 Y53.127
X8.253 Y53.221
X8.37 Y53.326
X8.489 Y53.447
X8.607 Y53.584
X8.72 Y53.735
X8.826 Y53.897
X8.925 Y54.073
X9.015 Y54.263
X9.095 Y54.465
X9.163 Y54.676
X9.216 Y54.888
X9.255 Y55.104
X9.28 Y55.321
X9.29 Y55.534
X9.285 Y55.743
X9.268 Y55.948
X9.237 Y56.147
X9.194 Y56.338
X9.148 Y56.494
X9.093 Y56.645
X9.025 Y56.798
X8.955 Y56.93
X8.876 Y57.058
X8.787 Y57.179
X8.69 Y57.293
X8.584 Y57.399
X8.554 Y57.425
X8.329 Y57.566
X8.073 Y57.636
X7.808 Y57.631
X7.556 Y57.551
X7.336 Y57.402
G3 X7.244 Y57.218 I0.222 J-0.227
G1 X6.706 Y53.216
G3 X6.87 Y52.894 I0.315 J-0.042
G1 X7.043 Y52.808
X7.154 Y52.733
X7.258 Y52.659
X7.385 Y52.578
X7.527 Y52.531
X7.675 Y52.508
X7.825 Y52.506
X7.974 Y52.522
X8.121 Y52.553
X8.265 Y52.597
X8.404 Y52.653
X8.538 Y52.719
X8.669 Y52.796
X8.803 Y52.886
X8.933 Y52.988
X9.066 Y53.107
X9.2 Y53.243
X9.33 Y53.394
X9.452 Y53.557
X9.569 Y53.737
X9.679 Y53.933
X9.778 Y54.142
X9.866 Y54.363
X9.893 Y54.463
X9.908 Y54.558
X9.913 Y54.653
Y55.994
X9.901 Y56.219
X9.881 Y56.39
X9.85 Y56.558
X9.807 Y56.727
X9.753 Y56.892
X9.688 Y57.054
X9.623 Y57.19
X9.549 Y57.321
X9.46 Y57.457
X9.369 Y57.576
X9.27 Y57.689
X9.162 Y57.793
X9.046 Y57.889
X8.924 Y57.975
X8.858 Y58.013
X8.65 Y58.101
X8.427 Y58.134
X8.202 Y58.11
X7.991 Y58.032
X7.805 Y57.903
X7.657 Y57.732
X7.608 Y57.671
X7.49 Y57.546
X7.447 Y57.503
X7.336 Y57.402
G3 X7.401 Y56.9 I0.222 J-0.227
G1 X9.437 Y55.73
G3 X9.913 Y55.994 I0.158 J0.275
G1 Y57.26
X9.905 Y57.41
X9.88 Y57.558
X9.837 Y57.701
X9.78 Y57.84
X9.709 Y57.972
X9.624 Y58.096
X9.529 Y58.212
X9.423 Y58.318
X9.307 Y58.413
X9.182 Y58.496
X9.137 Y58.52
X8.905 Y58.604
X8.659 Y58.624
X8.416 Y58.577
X8.195 Y58.468
X8.01 Y58.304
X7.876 Y58.096
G3 X8.028 Y57.686 I0.292 J-0.125
G1 X9.455 Y56.986
G3 X9.913 Y57.26 I0.14 J0.285
G1 Y58.057
X9.905 Y58.207
X9.869 Y58.352
X9.811 Y58.491
X9.734 Y58.619
X9.642 Y58.738
X9.535 Y58.843
X9.416 Y58.934
X9.288 Y59.012
X9.265 Y59.022
X9.012 Y59.093
X8.748 Y59.09
X8.497 Y59.013
X8.277 Y58.867
X8.108 Y58.665
X8.003 Y58.424
G3 X8.243 Y58.041 I0.309 J-0.073
G1 X9.527 Y57.758
G3 X9.913 Y58.057 I0.068 J0.31
G1 Y58.643
X9.905 Y58.793
X9.868 Y58.938
X9.805 Y59.074
X9.72 Y59.197
X9.617 Y59.307
X9.499 Y59.399
X9.371 Y59.477
X9.344 Y59.488
X9.102 Y59.554
X8.851 Y59.553
X8.609 Y59.483
X8.396 Y59.351
X8.226 Y59.166
X8.112 Y58.942
X8.063 Y58.696
G3 X8.372 Y58.371 I0.317 J-0.008
G1 X9.586 Y58.337
G3 X9.913 Y58.643 I0.009 J0.317
G1 Y59.18
X9.905 Y59.33
X9.863 Y59.474
X9.79 Y59.605
X9.696 Y59.722
X9.584 Y59.822
X9.46 Y59.905
X9.324 Y59.97
X9.18 Y60.017
X8.917 Y60.03
X8.661 Y59.968
X8.432 Y59.835
X8.251 Y59.644
X8.132 Y59.408
X8.084 Y59.149
G3 X8.413 Y58.831 I0.317 J-0.001
G1 X9.607 Y58.874
G3 X9.913 Y59.18 I-0.011 J0.317
G1 Y59.649
X9.905 Y59.799
X9.863 Y59.943
X9.793 Y60.075
X9.7 Y60.193
X9.588 Y60.293
X9.463 Y60.376
X9.327 Y60.44
X9.185 Y60.486
X9.171 Y60.489
X8.942 Y60.501
X8.717 Y60.456
X8.51 Y60.357
X8.334 Y60.21
X8.2 Y60.024
X8.116 Y59.81
X8.087 Y59.582
G3 X8.423 Y59.277 I0.317 J0.011
G1 X9.613 Y59.343
G3 X9.913 Y59.649 I-0.018 J0.317
G1 Y60.152
X9.905 Y60.302
X9.856 Y60.444
X9.78 Y60.573
X9.682 Y60.687
X9.568 Y60.784
X9.44 Y60.862
X9.303 Y60.923
X9.159 Y60.964
X9.151 Y60.965
X8.887 Y60.968
X8.633 Y60.897
X8.41 Y60.755
X8.236 Y60.557
X8.125 Y60.317
X8.087 Y60.056
G3 X8.43 Y59.75 I0.317 J0.011
G1 X9.621 Y59.847
G3 X9.913 Y60.152 I-0.026 J0.316
G1 Y60.614
X9.905 Y60.763
X9.858 Y60.906
X9.784 Y61.036
X9.688 Y61.152
X9.574 Y61.249
X9.448 Y61.33
X9.311 Y61.39
X9.167 Y61.434
X9.157 Y61.435
X8.892 Y61.44
X8.637 Y61.369
X8.412 Y61.228
X8.237 Y61.03
X8.126 Y60.789
X8.087 Y60.527
G3 X8.428 Y60.221 I0.317 J0.011
G1 X9.618 Y60.308
G3 X9.913 Y60.614 I-0.023 J0.317
G1 Y61.075
X9.905 Y61.225
X9.861 Y61.368
X9.788 Y61.499
X9.694 Y61.616
X9.58 Y61.714
X9.455 Y61.796
X9.318 Y61.858
X9.276 Y61.871
X9.186 Y61.894
X9.095 Y61.908
X9.002 Y61.912
G3 X8.804 Y61.356 I0.011 J-0.317
G1 X9.386 Y60.847
G3 X9.913 Y61.075 I0.209 J0.239
G1 Y61.527
X9.912 Y61.573
X9.911 Y61.611
X9.904 Y61.653
X9.891 Y61.695
X9.869 Y61.74
X9.854 Y61.763
X9.837 Y61.785
X9.795 Y61.831
X9.752 Y61.863
X9.711 Y61.885
X9.669 Y61.9
X9.627 Y61.909
X9.585 Y61.912
X8.906
X8.757 Y61.905
X8.543 Y61.841
X8.356 Y61.72
X8.211 Y61.551
X8.119 Y61.348
X8.087 Y61.128
G3 X8.621 Y60.906 I0.317 J0.011
G1 X9.112 Y61.363
G3 X8.906 Y61.912 I-0.216 J0.232
G1 X8.412
X8.37 Y61.908
X8.328 Y61.898
X8.289 Y61.884
X8.251 Y61.863
X8.228 Y61.847
X8.206 Y61.828
X8.16 Y61.782
X8.13 Y61.738
X8.109 Y61.695
X8.096 Y61.653
X8.089 Y61.611
X8.087 Y61.527
Y59.348
X8.085 Y59.18
X8.072 Y58.844
X8.063 Y58.696
G3 X8.065 Y58.654 I0.317 J-0.008
G2 X8.066 Y58.601 I-0.316 J-0.034
G1 X8.064 Y58.571
X7.726 Y53.054
G2 X7.315 Y52.77 I-0.317 J0.019
G3 X7.258 Y52.659 I-0.019 J-0.061
G1 X7.322 Y52.614
X7.565 Y52.378
X7.673 Y52.274
X7.806 Y52.205
X7.949 Y52.159
X8.096 Y52.133
X8.246 Y52.125
X8.396 Y52.132
X8.544 Y52.153
X8.691 Y52.187
X8.834 Y52.232
X8.974 Y52.288
X9.115 Y52.355
X9.261 Y52.436
X9.413 Y52.535
X9.563 Y52.647
X9.591 Y52.671
X9.726 Y52.815
X9.828 Y52.985
X9.891 Y53.173
X9.913 Y53.37
G3 X9.469 Y53.65 I-0.317 J-0.011
G1 X7.68 Y52.876
G3 X7.565 Y52.378 I0.126 J-0.291
G1 X7.599 Y52.342
X7.657 Y52.261
X7.745 Y52.137
X7.769 Y52.097
X7.853 Y51.972
X7.965 Y51.873
X8.094 Y51.796
X8.233 Y51.739
X8.378 Y51.701
X8.526 Y51.678
X8.676 Y51.67
X8.826 Y51.675
X8.975 Y51.692
X9.122 Y51.72
X9.267 Y51.759
X9.298 Y51.77
X9.501 Y51.871
X9.672 Y52.018
X9.803 Y52.203
X9.885 Y52.414
X9.913 Y52.638
G3 X9.52 Y52.936 I-0.317 J-0.011
G1 X7.972 Y52.559
G3 X7.769 Y52.097 I0.075 J-0.308
G1 X7.825 Y52.004
X7.843 Y51.97
X7.924 Y51.802
X7.943 Y51.751
X8.002 Y51.613
X8.095 Y51.496
X8.208 Y51.397
X8.335 Y51.317
X8.471 Y51.254
X8.613 Y51.206
X8.76 Y51.173
X8.909 Y51.157
X9.059 Y51.154
X9.077 Y51.156
X9.298 Y51.205
X9.501 Y51.306
X9.672 Y51.453
X9.803 Y51.637
X9.885 Y51.848
X9.913 Y52.073
G3 X9.546 Y52.375 I-0.317 J-0.011
G1 X8.196 Y52.164
G3 X7.943 Y51.751 I0.049 J-0.314
G1 X7.993 Y51.616
X8.03 Y51.467
X8.045 Y51.38
X8.078 Y51.234
X8.15 Y51.102
X8.245 Y50.986
X8.357 Y50.887
X8.482 Y50.803
X8.617 Y50.739
X8.759 Y50.69
X8.906 Y50.661
X8.913 Y50.66
X9.166 Y50.674
X9.406 Y50.755
X9.614 Y50.899
X9.776 Y51.095
X9.878 Y51.327
X9.913 Y51.578
G3 X9.559 Y51.882 I-0.317 J-0.011
G1 X8.323 Y51.739
G3 X8.045 Y51.38 I0.036 J-0.315
G1 X8.059 Y51.299
X8.078 Y50.997
X8.095 Y50.848
X8.145 Y50.707
X8.223 Y50.579
X8.321 Y50.466
X8.438 Y50.371
X8.566 Y50.293
X8.704 Y50.235
X8.848 Y50.194
X8.853 Y50.193
X9.116 Y50.191
X9.37 Y50.264
X9.592 Y50.405
X9.765 Y50.604
X9.875 Y50.843
X9.913 Y51.104
G3 X9.572 Y51.409 I-0.317 J-0.011
G1 X8.372 Y51.323
G3 X8.078 Y50.997 I0.023 J-0.317
G1 X8.087 Y50.796
Y50.536
Y50.494
Y50.46
X8.097 Y50.342
G3 X8.516 Y50.406 I0.206 J0.05
G1 X8.512 Y50.468
G3 X8.087 Y50.46 I-0.212 J-0.014
G1 X8.09 Y50.377
X8.099 Y50.335
X8.114 Y50.293
X8.133 Y50.255
X8.16 Y50.217
X8.188 Y50.187
X8.216 Y50.163
X8.244 Y50.142
X8.272 Y50.125
X8.3 Y50.112
X8.328 Y50.102
X8.37 Y50.092
X8.412 Y50.088
X9.468
X9.501
X9.646 Y50.095
G3 X9.58 Y50.72 I-0.077 J0.308
G1 X9.524 Y50.722
G3 X9.195 Y50.416 I-0.012 J-0.317
X9.501 Y50.088 I0.317 J-0.011
G1 X9.585
X9.627 Y50.091
X9.669 Y50.1
X9.7 Y50.11
X9.732 Y50.125
X9.758 Y50.141
X9.784 Y50.16
X9.837 Y50.213
X9.866 Y50.253
X9.886 Y50.293
X9.901 Y50.335
X9.91 Y50.377
X9.913 Y50.46
Y54.653
X9.904 Y54.69 Z-10.229
X9.896 Y54.724 Z-10.211
X9.89 Y54.751 Z-10.183
X9.885 Y54.768 Z-10.149
X9.884 Y54.774 Z-10.11
G0 Z5.
X-3.129 Y101.999
Z-1.855
G1 Z-2.172 F1016.
X-3.123 Y102.004 Z-2.243
X-3.104 Y102.018 Z-2.31
X-3.073 Y102.04 Z-2.37
X-3.033 Y102.07 Z-2.421
X-2.984 Y102.105 Z-2.459
X-2.93 Y102.145 Z-2.482
X-2.873 Y102.186 Z-2.49
G3 X-1.58 Y103.36 I-4.772 J6.552
G1 X-1.563 Y103.381
X-1.501 Y103.447
X-1.395 Y103.545
X-1.286 Y103.647
X-1.203 Y103.772
X-1.132 Y103.904
X-1.057 Y104.069
X-0.977 Y104.28
X-0.892 Y104.556
X-0.804 Y104.933
X-0.712 Y105.491
X-0.64 Y106.225
X-0.606 Y106.962
X-0.589 Y107.7
X-0.58 Y108.438
X-0.576 Y109.175
X-0.574 Y109.913
X-0.572 Y112.127
Y112.68
X-0.535 Y112.861
X-0.391 Y113.2
X-0.16 Y113.488
X0.406 Y113.962
X1.087 Y114.244
X1.808 Y114.401
X2.541 Y114.485
X3.278 Y114.528
X4.015 Y114.55
X4.753 Y114.561
X5.491 Y114.566
X6.229 Y114.569
X7.704 Y114.571
X20.985 Y114.572
X38.399
X38.632 Y114.602
X38.848 Y114.691
X39.035 Y114.833
X39.179 Y115.017
X39.192 Y115.054 Z-2.484
X39.203 Y115.086 Z-2.466
X39.211 Y115.112 Z-2.438
X39.217 Y115.129 Z-2.404
X39.219 Y115.135 Z-2.365
G0 Z5.
X-1.323 Y103.898
Z-1.855
G1 Z-2.172 F1016.
X-1.327 Y103.891 Z-2.243
X-1.339 Y103.871 Z-2.31
X-1.359 Y103.839 Z-2.37
X-1.385 Y103.796 Z-2.421
X-1.417 Y103.745 Z-2.459
X-1.452 Y103.688 Z-2.482
X-1.489 Y103.627 Z-2.49
G3 X-1.395 Y103.545 I0.054 J-0.033
G1 X-1.228 Y103.686
X-1.06 Y103.793
X-0.926 Y103.864
X-0.798 Y103.941
X-0.683 Y104.037
X-0.578 Y104.145
X-0.484 Y104.262
X-0.392 Y104.395
X-0.303 Y104.543
X-0.205 Y104.735
X-0.101 Y104.977
X-0.003 Y105.251
X0.102 Y105.625
X0.204 Y106.107
X0.308 Y106.836
X0.364 Y107.572
X0.394 Y108.309
X0.41 Y109.047
X0.419 Y109.785
X0.423 Y110.523
X0.426 Y111.26
X0.493 Y111.623
X0.642 Y111.961
X0.857 Y112.26
X1.388 Y112.773
X2.045 Y113.108
X2.754 Y113.311
X3.483 Y113.429
X4.218 Y113.494
X4.954 Y113.53
X5.692 Y113.55
X6.43 Y113.56
X7.168 Y113.566
X7.905 Y113.568
X9.381 Y113.571
X16.759 Y113.572
X37.418
X37.754 Y113.584
X38.03 Y113.613
X38.231 Y113.647
X38.263 Y113.655
X38.506 Y113.752
X38.712 Y113.913
X38.864 Y114.125
X38.951 Y114.372
X38.953 Y114.398 Z-2.487
X38.955 Y114.423 Z-2.479
X38.951 Y114.453 Z-2.46
X38.948 Y114.476 Z-2.433
X38.947 Y114.491 Z-2.401
X38.946 Y114.496 Z-2.365
G0 Z5.
X-0.781 Y104.194
Z-1.855
G1 Z-2.172 F1016.
X-0.787 Y104.189 Z-2.243
X-0.803 Y104.172 Z-2.31
X-0.829 Y104.144 Z-2.37
X-0.864 Y104.108 Z-2.421
X-0.905 Y104.064 Z-2.459
X-0.951 Y104.016 Z-2.482
X-1. Y103.964 Z-2.49
G3 X-0.926 Y103.864 I0.046 J-0.044
G1 X-0.892 Y103.882
X-0.742 Y103.95
X-0.557 Y104.008
X-0.465 Y104.029
X-0.321 Y104.07
X-0.184 Y104.131
X-0.056 Y104.21
X0.062 Y104.302
X0.172 Y104.405
X0.275 Y104.517
X0.375 Y104.642
X0.489 Y104.804
X0.597 Y104.984
X0.711 Y105.205
X0.838 Y105.496
X0.948 Y105.803
X1.068 Y106.223
X1.181 Y106.75
X1.287 Y107.48
X1.348 Y108.216
X1.383 Y108.953
X1.403 Y109.69
X1.41 Y110.059
X1.477 Y110.422
X1.61 Y110.766
X1.807 Y111.078
X2.301 Y111.626
X2.936 Y112.001
X3.635 Y112.239
X4.358 Y112.382
X5.092 Y112.465
X5.828 Y112.513
X6.565 Y112.539
X7.303 Y112.554
X8.041 Y112.562
X8.778 Y112.566
X9.516 Y112.569
X10.992 Y112.571
X19.846 Y112.572
X36.078
X36.815 Y112.574
X37.301 Y112.595
X37.615 Y112.63
X37.849 Y112.671
X38.034 Y112.717
X38.23 Y112.78
X38.385 Y112.841
X38.602 Y112.984
X38.77 Y113.181
X38.876 Y113.417
X38.913 Y113.674
Y114.011
X38.924 Y114.179
X38.946 Y114.347
X38.951 Y114.372
X38.953 Y114.398 Z-2.487
X38.955 Y114.423 Z-2.479
X38.951 Y114.453 Z-2.46
X38.948 Y114.476 Z-2.433
X38.947 Y114.491 Z-2.401
X38.946 Y114.496 Z-2.365
G0 Z5.
X-0.238 Y104.31
Z-1.855
G1 Z-2.172 F1016.
X-0.245 Y104.306 Z-2.243
X-0.265 Y104.294 Z-2.31
X-0.298 Y104.274 Z-2.37
X-0.341 Y104.248 Z-2.421
X-0.392 Y104.217 Z-2.459
X-0.449 Y104.182 Z-2.482
X-0.51 Y104.146 Z-2.49
G3 X-0.465 Y104.029 I0.033 J-0.054
G1 X-0.389 Y104.047
X-0.222 Y104.074
X-0.054 Y104.084
X0.038 Y104.086
X0.188 Y104.096
X0.334 Y104.129
X0.474 Y104.183
X0.607 Y104.252
X0.733 Y104.334
X0.851 Y104.426
X0.962 Y104.527
X1.081 Y104.649
X1.199 Y104.789
X1.329 Y104.965
X1.453 Y105.157
X1.591 Y105.408
X1.716 Y105.675
X1.859 Y106.042
X1.982 Y106.435
X2.112 Y106.968
X2.235 Y107.681
X2.313 Y108.415
X2.36 Y109.151
X2.465 Y109.505
X2.629 Y109.835
X3.065 Y110.43
X3.665 Y110.86
X4.346 Y111.144
X5.062 Y111.321
X5.792 Y111.427
X6.527 Y111.49
X7.264 Y111.525
X8.002 Y111.546
X8.739 Y111.557
X9.477 Y111.564
X10.215 Y111.567
X11.691 Y111.57
X15.38 Y111.572
X35.301
X36.039 Y111.573
X36.751 Y111.591
X37.218 Y111.634
X37.574 Y111.69
X37.813 Y111.745
X38.051 Y111.816
X38.221 Y111.88
X38.379 Y111.951
X38.425 Y111.975
X38.626 Y112.121
X38.781 Y112.314
X38.879 Y112.542
X38.912 Y112.788
X38.913 Y113.674
X38.904 Y113.711 Z-2.484
X38.896 Y113.745 Z-2.466
X38.89 Y113.771 Z-2.438
X38.886 Y113.788 Z-2.404
X38.884 Y113.794 Z-2.365
G0 Z5.
X0.317 Y104.315
Z-1.855
G1 Z-2.172 F1016.
X0.31 Y104.312 Z-2.243
X0.288 Y104.304 Z-2.31
X0.252 Y104.292 Z-2.37
X0.205 Y104.275 Z-2.421
X0.148 Y104.255 Z-2.459
X0.085 Y104.233 Z-2.482
X0.018 Y104.209 Z-2.49
G3 X0.038 Y104.086 I0.021 J-0.06
G1 X0.113 Y104.087
X0.709 Y104.088
X0.858 Y104.095
X1.006 Y104.12
X1.149 Y104.165
X1.287 Y104.225
X1.418 Y104.298
X1.543 Y104.381
X1.667 Y104.477
X1.789 Y104.585
X1.926 Y104.723
X2.059 Y104.878
X2.205 Y105.072
X2.342 Y105.281
X2.496 Y105.555
X2.635 Y105.844
X2.794 Y106.242
X2.929 Y106.658
X3.07 Y107.216
X3.203 Y107.942
X3.39 Y108.656
X3.794 Y109.273
X4.367 Y109.738
X5.032 Y110.057
X5.741 Y110.263
X6.468 Y110.389
X7.201 Y110.466
X7.938 Y110.511
X8.675 Y110.537
X9.413 Y110.552
X10.151 Y110.56
X10.888 Y110.565
X11.626 Y110.568
X13.102 Y110.571
X18.267 Y110.572
X35.236
X35.974 Y110.581
X36.653 Y110.614
X37.134 Y110.671
X37.527 Y110.743
X37.803 Y110.813
X38.052 Y110.895
X38.241 Y110.97
X38.398 Y111.046
X38.445 Y111.072
X38.638 Y111.218
X38.787 Y111.41
X38.881 Y111.634
X38.912 Y111.874
Y112.788
X38.904 Y112.825 Z-2.484
X38.896 Y112.859 Z-2.466
X38.89 Y112.886 Z-2.438
X38.885 Y112.903 Z-2.404
X38.884 Y112.909 Z-2.365
G0 Z5.
X0.992 Y104.311
Z-1.855
G1 Z-2.172 F1016.
X0.985 Y104.308 Z-2.243
X0.962 Y104.301 Z-2.31
X0.927 Y104.289 Z-2.37
X0.879 Y104.273 Z-2.421
X0.822 Y104.254 Z-2.459
X0.758 Y104.233 Z-2.482
X0.691 Y104.211 Z-2.49
G3 X0.709 Y104.088 I0.02 J-0.06
G1 X1.505
X1.655 Y104.095
X1.803 Y104.122
X1.946 Y104.167
X2.084 Y104.225
X2.216 Y104.296
X2.343 Y104.376
X2.47 Y104.469
X2.609 Y104.587
X2.745 Y104.717
X2.899 Y104.886
X3.045 Y105.071
X3.206 Y105.303
X3.357 Y105.556
X3.521 Y105.876
X3.678 Y106.241
X3.924 Y106.936
X4.16 Y107.635
X4.581 Y108.242
X5.154 Y108.706
X5.818 Y109.028
X6.525 Y109.239
X7.25 Y109.372
X7.984 Y109.454
X8.72 Y109.502
X9.457 Y109.531
X10.195 Y109.548
X10.933 Y109.558
X11.67 Y109.564
X12.408 Y109.567
X13.884 Y109.57
X17.573 Y109.572
X34.543
X35.28 Y109.577
X36.018 Y109.598
X36.692 Y109.652
X37.177 Y109.724
X37.579 Y109.811
X37.857 Y109.89
X38.108 Y109.981
X38.292 Y110.061
X38.452 Y110.144
X38.469 Y110.154
X38.653 Y110.301
X38.794 Y110.49
X38.882 Y110.708
X38.912 Y110.942
Y111.874
X38.904 Y111.911 Z-2.484
X38.896 Y111.945 Z-2.466
X38.89 Y111.972 Z-2.438
X38.885 Y111.989 Z-2.404
X38.884 Y111.995 Z-2.365
G0 Z5.
X1.789 Y104.311
Z-1.855
G1 Z-2.172 F1016.
X1.781 Y104.308 Z-2.243
X1.759 Y104.301 Z-2.31
X1.723 Y104.289 Z-2.37
X1.676 Y104.273 Z-2.421
X1.618 Y104.254 Z-2.459
X1.555 Y104.233 Z-2.482
X1.488 Y104.211 Z-2.49
G3 X1.505 Y104.088 I0.02 J-0.06
G1 X2.344
X2.493 Y104.095
X2.641 Y104.123
X2.784 Y104.168
X2.922 Y104.226
X3.055 Y104.295
X3.188 Y104.377
X3.318 Y104.471
X3.466 Y104.592
X3.61 Y104.727
X3.772 Y104.9
X3.925 Y105.087
X4.105 Y105.341
X4.317 Y105.685
X4.662 Y106.338
X5.045 Y106.968
X5.573 Y107.483
X6.206 Y107.863
X6.896 Y108.124
X7.614 Y108.295
X8.343 Y108.404
X9.078 Y108.471
X9.815 Y108.512
X10.552 Y108.536
X11.29 Y108.551
X12.028 Y108.56
X12.765 Y108.565
X13.503 Y108.568
X14.979 Y108.57
X19.406 Y108.572
X33.424
X34.162 Y108.573
X34.9 Y108.58
X35.637 Y108.601
X36.373 Y108.651
X36.94 Y108.724
X37.404 Y108.816
X37.761 Y108.912
X38.005 Y108.995
X38.233 Y109.09
X38.395 Y109.171
X38.455 Y109.206
X38.645 Y109.352
X38.79 Y109.542
X38.881 Y109.764
X38.912 Y110.001
Y110.942
X38.904 Y110.979 Z-2.484
X38.896 Y111.013 Z-2.466
X38.89 Y111.04 Z-2.438
X38.885 Y111.057 Z-2.404
X38.884 Y111.063 Z-2.365
G0 Z5.
X2.627 Y104.311
Z-1.855
G1 Z-2.172 F1016.
X2.62 Y104.308 Z-2.243
X2.597 Y104.301 Z-2.31
X2.561 Y104.289 Z-2.37
X2.514 Y104.273 Z-2.421
X2.457 Y104.254 Z-2.459
X2.393 Y104.233 Z-2.482
X2.326 Y104.211 Z-2.49
G3 X2.344 Y104.088 I0.02 J-0.06
G1 X3.182
X3.332 Y104.095
X3.479 Y104.12
X3.623 Y104.162
X3.763 Y104.217
X3.897 Y104.284
X4.028 Y104.36
X4.178 Y104.463
X4.325 Y104.578
X4.498 Y104.732
X4.734 Y104.974
X5.214 Y105.535
X5.698 Y106.092
X6.276 Y106.55
X6.928 Y106.895
X7.625 Y107.137
X8.345 Y107.299
X9.075 Y107.403
X9.81 Y107.469
X10.547 Y107.51
X11.284 Y107.534
X12.022 Y107.549
X12.76 Y107.558
X13.497 Y107.564
X14.235 Y107.567
X15.711 Y107.57
X19.4 Y107.572
X32.681
X33.418
X34.156 Y107.576
X34.894 Y107.588
X35.631 Y107.618
X36.367 Y107.677
X36.975 Y107.766
X37.428 Y107.863
X37.784 Y107.965
X38.042 Y108.057
X38.259 Y108.151
X38.42 Y108.235
X38.467 Y108.263
X38.652 Y108.41
X38.794 Y108.599
X38.882 Y108.817
X38.912 Y109.051
Y110.001
X38.904 Y110.039 Z-2.484
X38.896 Y110.072 Z-2.466
X38.89 Y110.099 Z-2.438
X38.885 Y110.116 Z-2.404
X38.884 Y110.122 Z-2.365
G0 Z5.
X3.465 Y104.311
Z-1.855
G1 Z-2.172 F1016.
X3.458 Y104.308 Z-2.243
X3.436 Y104.301 Z-2.31
X3.4 Y104.289 Z-2.37
X3.352 Y104.273 Z-2.421
X3.295 Y104.254 Z-2.459
X3.231 Y104.233 Z-2.482
X3.164 Y104.211 Z-2.49
G3 X3.182 Y104.088 I0.02 J-0.06
G1 X4.061
X4.211 Y104.095
X4.359 Y104.119
X4.504 Y104.158
X4.645 Y104.21
X4.804 Y104.282
X5. Y104.387
X5.243 Y104.538
X5.842 Y104.968
X6.444 Y105.395
X7.09 Y105.751
X7.777 Y106.021
X8.489 Y106.211
X9.216 Y106.341
X9.949 Y106.426
X10.684 Y106.481
X11.421 Y106.516
X12.159 Y106.538
X12.897 Y106.551
X13.634 Y106.559
X14.372 Y106.564
X15.11 Y106.567
X16.586 Y106.57
X20.275 Y106.572
X32.08
X32.818
X33.555 Y106.575
X34.293 Y106.584
X35.031 Y106.604
X35.767 Y106.645
X36.489 Y106.719
X37.082 Y106.82
X37.523 Y106.925
X37.855 Y107.029
X38.112 Y107.127
X38.311 Y107.22
X38.472 Y107.308
X38.488 Y107.318
X38.667 Y107.466
X38.803 Y107.655
X38.887 Y107.871
X38.915 Y108.101
X38.912 Y108.478
Y109.051
X38.904 Y109.089 Z-2.484
X38.896 Y109.122 Z-2.466
X38.89 Y109.149 Z-2.438
X38.885 Y109.166 Z-2.404
X38.884 Y109.172 Z-2.365
G0 Z5.
X4.345 Y104.311
Z-1.855
G1 Z-2.172 F1016.
X4.338 Y104.308 Z-2.243
X4.315 Y104.301 Z-2.31
X4.279 Y104.289 Z-2.37
X4.232 Y104.273 Z-2.421
X4.175 Y104.254 Z-2.459
X4.111 Y104.233 Z-2.482
X4.044 Y104.211 Z-2.49
G3 X4.061 Y104.088 I0.02 J-0.06
G1 X5.143
X5.293 Y104.095
X5.45 Y104.118
X5.641 Y104.159
X5.979 Y104.256
X6.674 Y104.505
X7.359 Y104.778
X8.06 Y105.008
X8.776 Y105.185
X9.503 Y105.313
X10.235 Y105.403
X10.97 Y105.463
X11.707 Y105.503
X12.445 Y105.528
X13.182 Y105.545
X13.92 Y105.555
X14.658 Y105.561
X15.396 Y105.565
X16.871 Y105.569
X19.822 Y105.571
X31.627 Y105.572
X32.365 Y105.573
X33.103 Y105.576
X33.841 Y105.583
X34.578 Y105.601
X35.316 Y105.634
X36.051 Y105.694
X36.743 Y105.787
X37.266 Y105.894
X37.688 Y106.009
X37.967 Y106.106
X38.213 Y106.21
X38.389 Y106.299
X38.552 Y106.395
X38.622 Y106.443
X38.79 Y106.591
X38.918 Y106.776
X38.997 Y106.986
X39.023 Y107.209
X38.995 Y107.432
X38.962 Y107.564
X38.944 Y107.639
X38.925 Y107.807
X38.916 Y107.975
X38.915 Y108.101
X38.906 Y108.139 Z-2.484
X38.898 Y108.172 Z-2.466
X38.891 Y108.199 Z-2.438
X38.887 Y108.216 Z-2.404
X38.886 Y108.222 Z-2.365
G0 Z5.
X5.426 Y104.311
Z-1.855
G1 Z-2.172 F1016.
X5.419 Y104.308 Z-2.243
X5.397 Y104.301 Z-2.31
X5.361 Y104.289 Z-2.37
X5.313 Y104.273 Z-2.421
X5.256 Y104.254 Z-2.459
X5.192 Y104.233 Z-2.482
X5.125 Y104.211 Z-2.49
G3 X5.143 Y104.088 I0.02 J-0.06
G1 X7.154
X7.891 Y104.124
X8.626 Y104.198
X9.358 Y104.288
X10.091 Y104.367
X10.826 Y104.43
X11.563 Y104.476
X12.3 Y104.509
X13.037 Y104.531
X13.775 Y104.545
X14.513 Y104.555
X15.251 Y104.561
X15.988 Y104.565
X17.464 Y104.569
X20.415 Y104.571
X31.483 Y104.572
X32.22 Y104.574
X32.958 Y104.578
X33.696 Y104.587
X34.433 Y104.607
X35.17 Y104.643
X35.906 Y104.703
X36.637 Y104.798
X37.182 Y104.905
X37.625 Y105.023
X37.976 Y105.142
X38.229 Y105.247
X38.452 Y105.358
X38.613 Y105.451
X38.777 Y105.562
X38.903 Y105.659
X39.017 Y105.76
X39.074 Y105.818
X39.223 Y106.015
X39.313 Y106.245
X39.339 Y106.491
X39.299 Y106.735
X39.196 Y106.959
X39.168 Y106.986 Z-2.484
X39.143 Y107.01 Z-2.466
X39.124 Y107.029 Z-2.438
X39.111 Y107.042 Z-2.404
X39.107 Y107.046 Z-2.365
G0 Z5.
X7.438 Y104.311
Z-1.855
G1 Z-2.172 F1016.
X7.431 Y104.308 Z-2.243
X7.408 Y104.301 Z-2.31
X7.372 Y104.289 Z-2.37
X7.325 Y104.273 Z-2.421
X7.268 Y104.254 Z-2.459
X7.204 Y104.233 Z-2.482
X7.137 Y104.211 Z-2.49
G3 X7.154 Y104.088 I0.02 J-0.06
G1 X36.66
X37.103 Y104.11
X37.396 Y104.144
X37.688 Y104.198
X37.965 Y104.268
X38.23 Y104.355
X38.477 Y104.454
X38.698 Y104.56
X38.874 Y104.66
X39.053 Y104.777
X39.186 Y104.878
X39.303 Y104.98
X39.424 Y105.099
X39.523 Y105.211
X39.604 Y105.317
X39.717 Y105.509
X39.781 Y105.724
X39.791 Y105.947
X39.747 Y106.166
X39.651 Y106.367
X39.51 Y106.54
G3 X39.112 Y106.561 I-0.212 J-0.237
G1 X36.485 Y104.662
G3 X36.539 Y104.116 I0.186 J-0.257
X36.66 Y104.088 I0.132 J0.289
G1 X38.596
X38.746 Y104.095
X38.894 Y104.118
X39.04 Y104.153
X39.182 Y104.2
X39.32 Y104.258
X39.454 Y104.326
X39.582 Y104.404
X39.705 Y104.491
X39.82 Y104.587
X39.927 Y104.692
X40.025 Y104.805
X40.113 Y104.927
X40.191 Y105.055
X40.205 Y105.084
X40.278 Y105.298
X40.296 Y105.522
X40.258 Y105.745
X40.166 Y105.95
X40.025 Y106.127
X39.845 Y106.262
X39.677 Y106.39
X39.588 Y106.466
X39.51 Y106.54
G3 X39. Y106.412 I-0.212 J-0.237
G1 X38.309 Y104.513
G3 X38.475 Y104.116 I0.298 J-0.109
X38.596 Y104.088 I0.132 J0.289
G1 X39.51
X39.659 Y104.095
X39.807 Y104.119
X39.951 Y104.162
X40.089 Y104.222
X40.219 Y104.297
X40.339 Y104.386
X40.45 Y104.487
X40.549 Y104.6
X40.636 Y104.722
X40.71 Y104.853
X40.712 Y104.858
X40.777 Y105.094
X40.778 Y105.339
X40.714 Y105.576
X40.59 Y105.787
X40.415 Y105.958
X40.201 Y106.077
G3 X40.078 Y106.095 I-0.105 J-0.299
X39.803 Y105.9 I0.017 J-0.317
G1 X39.228 Y104.527
G3 X39.389 Y104.116 I0.293 J-0.123
X39.51 Y104.088 I0.132 J0.289
G1 X40.231
X40.381 Y104.095
X40.527 Y104.126
X40.667 Y104.18
X40.797 Y104.256
X40.914 Y104.349
X41.019 Y104.457
X41.107 Y104.578
X41.182 Y104.708
X41.188 Y104.724
X41.252 Y104.979
X41.242 Y105.241
X41.158 Y105.489
X41.007 Y105.704
X40.802 Y105.867
X40.559 Y105.967
X40.348 Y106.019
X40.201 Y106.077
G3 X39.78 Y105.744 I-0.105 J-0.299
G1 X39.926 Y104.371
G3 X40.11 Y104.116 I0.316 J0.034
X40.231 Y104.088 I0.132 J0.289
G1 X40.817
X40.967 Y104.095
X41.112 Y104.132
X41.248 Y104.196
X41.37 Y104.283
X41.477 Y104.387
X41.567 Y104.507
X41.573 Y104.518
X41.671 Y104.766
X41.696 Y105.031
X41.645 Y105.293
X41.523 Y105.53
X41.34 Y105.723
X41.109 Y105.857
X40.851 Y105.921
G3 X40.728 Y105.905 I-0.021 J-0.317
X40.512 Y105.604 I0.102 J-0.301
G1 X40.51 Y104.405
G3 X40.696 Y104.116 I0.318 J-0.001
X40.817 Y104.088 I0.132 J0.289
G1 X41.354
X41.503 Y104.095
X41.645 Y104.145
X41.774 Y104.222
X41.886 Y104.321
X41.982 Y104.437
X42.059 Y104.565
X42.118 Y104.703
X42.159 Y104.847
X42.161 Y104.861
X42.162 Y105.121
X42.09 Y105.371
X41.951 Y105.59
X41.756 Y105.762
X41.521 Y105.873
X41.265 Y105.914
X40.851 Y105.921
G3 X40.73 Y105.894 I0.006 J-0.317
X40.564 Y105.479 I0.127 J-0.291
G1 X41.072 Y104.281
G3 X41.233 Y104.116 I0.292 J0.124
X41.354 Y104.088 I0.132 J0.289
G1 X41.823
X41.972 Y104.095
X42.114 Y104.145
X42.243 Y104.222
X42.356 Y104.32
X42.452 Y104.435
X42.531 Y104.563
X42.59 Y104.701
X42.632 Y104.845
X42.633 Y104.853
X42.635 Y105.117
X42.562 Y105.37
X42.421 Y105.592
X42.222 Y105.765
X41.983 Y105.875
X41.723 Y105.912
X41.354
X41.265 Y105.914
G3 X40.983 Y105.461 I0.006 J-0.317
G1 X41.547 Y104.269
G3 X41.702 Y104.116 I0.287 J0.136
X41.823 Y104.088 I0.132 J0.289
G1 X42.284
X42.434 Y104.095
X42.576 Y104.143
X42.706 Y104.218
X42.821 Y104.314
X42.918 Y104.428
X42.998 Y104.555
X43.058 Y104.692
X43.102 Y104.836
X43.103 Y104.845
X43.107 Y105.11
X43.036 Y105.365
X42.895 Y105.589
X42.696 Y105.763
X42.456 Y105.874
X42.194 Y105.912
X41.723
G3 X41.602 Y105.884 I0.011 J-0.317
X41.446 Y105.46 I0.132 J-0.289
G1 X42.008 Y104.269
G3 X42.163 Y104.116 I0.287 J0.135
X42.284 Y104.088 I0.132 J0.289
G1 X42.745
X42.895 Y104.095
X43.038 Y104.14
X43.169 Y104.213
X43.285 Y104.308
X43.383 Y104.422
X43.465 Y104.548
X43.526 Y104.685
X43.57 Y104.828
X43.572 Y104.838
X43.578 Y105.104
X43.508 Y105.36
X43.367 Y105.586
X43.168 Y105.762
X42.927 Y105.874
X42.664 Y105.912
X42.194
G3 X42.073 Y105.884 I0.011 J-0.317
X41.917 Y105.462 I0.132 J-0.289
G1 X42.468 Y104.271
G3 X42.625 Y104.116 I0.288 J0.133
X42.745 Y104.088 I0.132 J0.289
G1 X43.226
X43.375 Y104.095
X43.518 Y104.142
X43.648 Y104.217
X43.763 Y104.313
X43.86 Y104.428
X43.94 Y104.555
X44. Y104.692
X44.043 Y104.836
X44.045 Y104.847
X44.049 Y105.111
X43.977 Y105.366
X43.836 Y105.589
X43.637 Y105.764
X43.397 Y105.875
X43.136 Y105.912
X42.664
G3 X42.544 Y105.884 I0.011 J-0.317
X42.388 Y105.46 I0.132 J-0.289
G1 X42.949 Y104.269
G3 X43.105 Y104.116 I0.287 J0.135
X43.226 Y104.088 I0.132 J0.289
G1 X43.701
X43.85 Y104.095
X43.992 Y104.143
X44.122 Y104.219
X44.237 Y104.315
X44.333 Y104.43
X44.413 Y104.557
X44.473 Y104.695
X44.516 Y104.839
X44.517 Y104.849
X44.52 Y105.113
X44.449 Y105.367
X44.307 Y105.59
X44.109 Y105.764
X43.869 Y105.875
X43.608 Y105.912
X43.136
G3 X43.015 Y105.884 I0.011 J-0.317
X42.86 Y105.459 I0.132 J-0.289
G1 X43.425 Y104.269
G3 X43.58 Y104.116 I0.287 J0.136
X43.701 Y104.088 I0.132 J0.289
G1 X44.17
X44.319 Y104.095
X44.462 Y104.143
X44.592 Y104.218
X44.706 Y104.314
X44.803 Y104.428
X44.884 Y104.555
X44.944 Y104.693
X44.987 Y104.836
X44.988 Y104.846
X44.992 Y105.111
X44.921 Y105.365
X44.78 Y105.589
X44.581 Y105.764
X44.341 Y105.875
X44.079 Y105.912
X43.608
G3 X43.487 Y105.884 I0.011 J-0.317
X43.332 Y105.46 I0.132 J-0.289
G1 X43.894 Y104.269
G3 X44.049 Y104.116 I0.287 J0.136
X44.17 Y104.088 I0.132 J0.289
G1 X44.631
X44.781 Y104.095
X44.924 Y104.14
X45.055 Y104.213
X45.171 Y104.308
X45.269 Y104.422
X45.35 Y104.548
X45.411 Y104.685
X45.456 Y104.828
X45.457 Y104.838
X45.463 Y105.104
X45.393 Y105.361
X45.253 Y105.586
X45.053 Y105.762
X44.812 Y105.874
X44.549 Y105.912
X44.079
G3 X43.958 Y105.884 I0.011 J-0.317
X43.802 Y105.462 I0.132 J-0.289
G1 X44.354 Y104.271
G3 X44.51 Y104.116 I0.288 J0.134
X44.631 Y104.088 I0.132 J0.289
G1 X45.092
X45.242 Y104.095
X45.386 Y104.138
X45.518 Y104.21
X45.635 Y104.303
X45.734 Y104.416
X45.816 Y104.541
X45.879 Y104.678
X45.924 Y104.821
X45.926 Y104.832
X45.937 Y105.061
X45.892 Y105.285
X45.792 Y105.491
X45.645 Y105.667
X45.459 Y105.8
X45.246 Y105.884
X45.019 Y105.912
X44.549
G3 X44.429 Y105.884 I0.011 J-0.317
X44.272 Y105.463 I0.132 J-0.289
G1 X44.815 Y104.273
G3 X44.972 Y104.116 I0.289 J0.132
X45.092 Y104.088 I0.132 J0.289
G1 X45.573
X45.722 Y104.095
X45.865 Y104.14
X45.996 Y104.214
X46.112 Y104.309
X46.211 Y104.422
X46.291 Y104.549
X46.353 Y104.685
X46.397 Y104.829
X46.399 Y104.84
X46.404 Y105.105
X46.334 Y105.361
X46.193 Y105.587
X45.994 Y105.763
X45.753 Y105.874
X45.491 Y105.912
X45.019
G3 X44.898 Y105.884 I0.011 J-0.317
X44.742 Y105.461 I0.132 J-0.289
G1 X45.296 Y104.271
G3 X45.452 Y104.116 I0.288 J0.134
X45.573 Y104.088 I0.132 J0.289
G1 X46.048
X46.197 Y104.095
X46.34 Y104.141
X46.471 Y104.215
X46.586 Y104.311
X46.683 Y104.425
X46.764 Y104.551
X46.825 Y104.689
X46.869 Y104.832
X46.87 Y104.843
X46.875 Y105.108
X46.804 Y105.363
X46.663 Y105.588
X46.464 Y105.763
X46.224 Y105.874
X45.962 Y105.912
X45.491
G3 X45.37 Y105.884 I0.011 J-0.317
X45.214 Y105.461 I0.132 J-0.289
G1 X45.771 Y104.27
G3 X45.927 Y104.116 I0.288 J0.135
X46.048 Y104.088 I0.132 J0.289
G1 X46.517
X46.666 Y104.095
X46.809 Y104.141
X46.94 Y104.215
X47.056 Y104.31
X47.153 Y104.424
X47.234 Y104.55
X47.295 Y104.687
X47.339 Y104.831
X47.341 Y104.841
X47.346 Y105.106
X47.275 Y105.362
X47.135 Y105.587
X46.936 Y105.763
X46.695 Y105.874
X46.432 Y105.912
X45.962
G3 X45.841 Y105.884 I0.011 J-0.317
X45.685 Y105.461 I0.132 J-0.289
G1 X46.24 Y104.271
G3 X46.396 Y104.116 I0.288 J0.134
X46.517 Y104.088 I0.132 J0.289
G1 X46.978
X47.128 Y104.095
X47.271 Y104.139
X47.403 Y104.211
X47.52 Y104.305
X47.618 Y104.418
X47.701 Y104.543
X47.762 Y104.68
X47.807 Y104.823
X47.809 Y104.834
X47.82 Y105.062
X47.774 Y105.286
X47.675 Y105.492
X47.528 Y105.667
X47.342 Y105.801
X47.129 Y105.884
X46.902 Y105.912
X46.432
G3 X46.312 Y105.884 I0.011 J-0.317
X46.155 Y105.463 I0.132 J-0.289
G1 X46.7 Y104.273
G3 X46.857 Y104.116 I0.289 J0.132
X46.978 Y104.088 I0.132 J0.289
G1 X47.439
X47.589 Y104.095
X47.733 Y104.136
X47.866 Y104.207
X47.983 Y104.3
X48.084 Y104.412
X48.166 Y104.537
X48.23 Y104.672
X48.276 Y104.815
X48.279 Y104.83
X48.291 Y105.059
X48.246 Y105.284
X48.146 Y105.49
X47.999 Y105.666
X47.813 Y105.8
X47.6 Y105.884
X47.372 Y105.912
G3 X47.252 Y105.884 I0.011 J-0.317
X47.066 Y105.577 I0.132 J-0.289
G1 X47.134 Y104.387
G3 X47.319 Y104.116 I0.317 J0.018
X47.439 Y104.088 I0.132 J0.289
G1 X47.92
X48.069 Y104.095
X48.213 Y104.139
X48.344 Y104.211
X48.461 Y104.305
X48.56 Y104.418
X48.641 Y104.544
X48.704 Y104.68
X48.749 Y104.823
X48.751 Y104.836
X48.758 Y105.102
X48.688 Y105.359
X48.547 Y105.585
X48.348 Y105.762
X48.107 Y105.874
X47.843 Y105.912
G3 X47.723 Y105.884 I0.011 J-0.317
X47.538 Y105.575 I0.132 J-0.289
G1 X47.614 Y104.385
G3 X47.799 Y104.116 I0.317 J0.02
X47.92 Y104.088 I0.132 J0.289
G1 X48.395
X48.544 Y104.095
X48.688 Y104.14
X48.819 Y104.213
X48.935 Y104.308
X49.033 Y104.421
X49.114 Y104.547
X49.176 Y104.684
X49.22 Y104.827
X49.222 Y104.839
X49.228 Y105.105
X49.157 Y105.361
X49.017 Y105.586
X48.818 Y105.762
X48.577 Y105.874
X48.314 Y105.912
G3 X48.193 Y105.884 I0.011 J-0.317
X48.008 Y105.574 I0.132 J-0.289
G1 X48.089 Y104.383
G3 X48.274 Y104.116 I0.317 J0.021
X48.395 Y104.088 I0.132 J0.289
G1 X48.864
X49.013 Y104.095
X49.157 Y104.14
X49.288 Y104.212
X49.404 Y104.307
X49.502 Y104.42
X49.584 Y104.546
X49.645 Y104.683
X49.69 Y104.826
X49.692 Y104.837
X49.698 Y105.103
X49.628 Y105.36
X49.488 Y105.586
X49.288 Y105.762
X49.047 Y105.874
X48.784 Y105.912
G3 X48.663 Y105.884 I0.011 J-0.317
X48.478 Y105.574 I0.132 J-0.289
G1 X48.558 Y104.384
G3 X48.743 Y104.116 I0.317 J0.021
X48.864 Y104.088 I0.132 J0.289
G1 X49.325
X49.475 Y104.095
X49.619 Y104.137
X49.751 Y104.209
X49.868 Y104.302
X49.967 Y104.415
X50.05 Y104.54
X50.112 Y104.676
X50.158 Y104.819
X50.16 Y104.831
X50.172 Y105.06
X50.126 Y105.284
X50.027 Y105.491
X49.88 Y105.666
X49.694 Y105.8
X49.481 Y105.884
X49.253 Y105.912
G3 X49.133 Y105.884 I0.011 J-0.317
X48.947 Y105.576 I0.132 J-0.289
G1 X49.019 Y104.386
G3 X49.204 Y104.116 I0.317 J0.019
X49.325 Y104.088 I0.132 J0.289
G1 X49.822
X49.972 Y104.095
X50.113 Y104.144
X50.243 Y104.219
X50.357 Y104.317
X50.454 Y104.431
X50.532 Y104.559
X50.593 Y104.696
X50.635 Y104.84
X50.636 Y104.849
X50.639 Y105.113
X50.567 Y105.367
X50.426 Y105.59
X50.228 Y105.764
X49.988 Y105.875
X49.726 Y105.912
G3 X49.606 Y105.884 I0.011 J-0.317
X49.421 Y105.57 I0.132 J-0.289
G1 X49.516 Y104.379
G3 X49.701 Y104.116 I0.316 J0.025
X49.822 Y104.088 I0.132 J0.289
G1 X50.289
X50.439 Y104.095
X50.63 Y104.195
X50.782 Y104.348
X50.879 Y104.54
X50.912 Y104.753
G3 X50.11 Y105.308 I-0.607 J-0.021
X50.166 Y104.104 I0.201 J-0.594
X50.289 Y104.088 I0.145 J0.61
G1 X50.574
X50.608 Y104.089
X50.643 Y104.095
X50.678 Y104.104
X50.712 Y104.118
X50.742 Y104.134
X50.788 Y104.166
X50.811 Y104.186
X50.835 Y104.21
X50.863 Y104.248
X50.884 Y104.286
X50.9 Y104.329
X50.909 Y104.373
X50.912 Y104.453
Y105.292
X50.905 Y105.442
X50.838 Y105.628
X50.711 Y105.779
X50.539 Y105.878
X50.345 Y105.912
G3 X50.224 Y105.884 I0.011 J-0.317
X50.11 Y105.394 I0.132 J-0.289
G1 X50.35 Y105.102
G3 X50.912 Y105.292 I0.246 J0.201
G1 Y105.46
X50.909 Y105.627
X50.899 Y105.669
X50.884 Y105.711
X50.86 Y105.753
X50.827 Y105.795
X50.784 Y105.834
X50.742 Y105.866
X50.7 Y105.887
X50.658 Y105.902
X50.616 Y105.91
X50.574 Y105.912
X46.902
X46.865 Y105.904 Z-2.484
X46.831 Y105.896 Z-2.466
X46.804 Y105.89 Z-2.438
X46.787 Y105.885 Z-2.404
X46.782 Y105.884 Z-2.365
G0 Z5.
X60.987 Y117.141
Z-1.855
G1 Z-2.172 F1016.
X60.992 Y117.135 Z-2.243
X61.005 Y117.116 Z-2.31
X61.028 Y117.085 Z-2.37
X61.057 Y117.044 Z-2.421
X61.092 Y116.996 Z-2.459
X61.132 Y116.941 Z-2.482
X61.173 Y116.884 Z-2.49
G3 X62.345 Y115.589 I6.561 J4.759
G1 X62.428 Y115.52
X62.477 Y115.475
X62.534 Y115.408
X62.637 Y115.299
X62.761 Y115.214
X62.892 Y115.141
X63.052 Y115.067
X63.255 Y114.987
X63.522 Y114.904
X63.883 Y114.816
X64.408 Y114.724
X65.142 Y114.646
X65.879 Y114.609
X66.617 Y114.59
X67.354 Y114.581
X68.092 Y114.576
X68.83 Y114.574
X71.043 Y114.572
X113.099
X131.544
X131.728 Y114.561
X132.085 Y114.468
X132.392 Y114.263
X132.901 Y113.729
X133.21 Y113.058
X133.382 Y112.341
X133.475 Y111.609
X133.523 Y110.873
X133.547 Y110.136
X133.559 Y109.398
X133.565 Y108.66
X133.569 Y107.922
X133.571 Y106.447
X133.572 Y96.855
Y83.574
Y66.605
X133.605 Y66.36
X133.702 Y66.132
X133.857 Y65.939
X134.057 Y65.794
X134.094 Y65.784 Z-2.484
X134.128 Y65.775 Z-2.466
X134.154 Y65.768 Z-2.438
X134.171 Y65.763 Z-2.404
X134.177 Y65.762 Z-2.365
G0 Z5.
X62.888 Y115.337
Z-1.855
G1 Z-2.172 F1016.
X62.881 Y115.341 Z-2.243
X62.861 Y115.353 Z-2.31
X62.829 Y115.373 Z-2.37
X62.786 Y115.399 Z-2.421
X62.734 Y115.43 Z-2.459
X62.677 Y115.465 Z-2.482
X62.616 Y115.501 Z-2.49
G3 X62.534 Y115.408 I-0.033 J-0.054
G1 X62.644 Y115.278
X62.715 Y115.185
X62.819 Y115.017
X62.844 Y114.967
X62.918 Y114.836
X63.01 Y114.717
X63.114 Y114.61
X63.229 Y114.513
X63.351 Y114.424
X63.492 Y114.335
X63.673 Y114.237
X63.901 Y114.133
X64.155 Y114.036
X64.5 Y113.931
X64.931 Y113.83
X65.562 Y113.726
X66.297 Y113.654
X67.033 Y113.616
X67.771 Y113.595
X68.509 Y113.584
X69.246 Y113.578
X69.984 Y113.575
X71.46 Y113.573
X77.362 Y113.572
X112.778
X130.485
X130.835 Y113.455
X131.15 Y113.262
X131.696 Y112.766
X132.059 Y112.124
X132.282 Y111.421
X132.412 Y110.694
X132.485 Y109.96
X132.525 Y109.224
X132.547 Y108.486
X132.559 Y107.748
X132.565 Y107.011
X132.568 Y106.273
X132.571 Y104.797
X132.572 Y98.895
Y81.925
Y67.906
X132.575 Y67.377
X132.595 Y67.107
X132.631 Y66.853
X132.649 Y66.765
X132.718 Y66.559
X132.834 Y66.375
X132.99 Y66.223
X133.177 Y66.112
X133.385 Y66.047
X133.408 Y66.046 Z-2.488
X133.431 Y66.044 Z-2.481
X133.463 Y66.048 Z-2.462
X133.487 Y66.051 Z-2.435
X133.503 Y66.053 Z-2.402
X133.509 Y66.054 Z-2.365
G0 Z5.
X63.17 Y114.812
Z-1.855
G1 Z-2.172 F1016.
X63.165 Y114.818 Z-2.243
X63.148 Y114.834 Z-2.31
X63.122 Y114.861 Z-2.37
X63.086 Y114.897 Z-2.421
X63.044 Y114.94 Z-2.459
X62.997 Y114.987 Z-2.482
X62.947 Y115.037 Z-2.49
G3 X62.844 Y114.967 I-0.045 J-0.045
G1 X62.902 Y114.85
X62.971 Y114.682
X63.022 Y114.514
X63.032 Y114.464
X63.068 Y114.318
X63.13 Y114.182
X63.21 Y114.054
X63.302 Y113.936
X63.405 Y113.827
X63.515 Y113.725
X63.651 Y113.617
X63.805 Y113.51
X63.99 Y113.4
X64.231 Y113.276
X64.485 Y113.166
X64.828 Y113.045
X65.233 Y112.931
X65.785 Y112.814
X66.515 Y112.71
X67.251 Y112.65
X67.988 Y112.616
X68.725 Y112.597
X69.463 Y112.586
X70.201 Y112.579
X70.939 Y112.576
X72.414 Y112.573
X76.841 Y112.572
X112.994
X129.226
X129.583 Y112.481
X129.915 Y112.319
X130.508 Y111.88
X130.924 Y111.27
X131.191 Y110.583
X131.354 Y109.863
X131.449 Y109.131
X131.504 Y108.396
X131.534 Y107.659
X131.551 Y106.921
X131.561 Y106.183
X131.566 Y105.445
X131.568 Y104.708
X131.571 Y103.232
X131.572 Y96.592
Y79.622
Y68.555
X131.582 Y67.873
X131.611 Y67.509
X131.648 Y67.26
X131.697 Y67.035
X131.749 Y66.853
X131.807 Y66.694
X131.831 Y66.639
X131.938 Y66.455
X132.085 Y66.301
X132.263 Y66.185
X132.463 Y66.112
X132.674 Y66.087
X132.887
X133.054 Y66.084
X133.222 Y66.074
X133.345 Y66.055
X133.385 Y66.047
X133.408 Y66.046 Z-2.488
X133.431 Y66.044 Z-2.481
X133.463 Y66.048 Z-2.462
X133.487 Y66.051 Z-2.435
X133.503 Y66.053 Z-2.402
X133.509 Y66.054 Z-2.365
G0 Z5.
X63.305 Y114.228
Z-1.855
G1 Z-2.172 F1016.
X63.301 Y114.235 Z-2.243
X63.29 Y114.256 Z-2.31
X63.271 Y114.288 Z-2.37
X63.246 Y114.332 Z-2.421
X63.217 Y114.385 Z-2.459
X63.184 Y114.443 Z-2.482
X63.149 Y114.505 Z-2.49
G3 X63.032 Y114.464 I-0.055 J-0.031
G1 X63.054 Y114.347
X63.076 Y114.179
X63.087 Y114.011
Y113.961
X63.095 Y113.811
X63.128 Y113.664
X63.182 Y113.524
X63.252 Y113.392
X63.333 Y113.266
X63.426 Y113.148
X63.527 Y113.037
X63.652 Y112.916
X63.791 Y112.798
X63.968 Y112.668
X64.16 Y112.546
X64.414 Y112.407
X64.682 Y112.282
X65.048 Y112.14
X65.449 Y112.015
X65.988 Y111.885
X66.709 Y111.761
X67.443 Y111.685
X68.179 Y111.639
X68.917 Y111.611
X69.654 Y111.595
X70.392 Y111.585
X71.13 Y111.579
X71.868 Y111.576
X73.343 Y111.573
X77.032 Y111.572
X112.447
X127.942
X128.307 Y111.52
X128.657 Y111.404
X128.978 Y111.222
X129.545 Y110.749
X129.941 Y110.127
X130.197 Y109.435
X130.354 Y108.714
X130.447 Y107.982
X130.501 Y107.246
X130.532 Y106.509
X130.55 Y105.771
X130.559 Y105.034
X130.565 Y104.296
X130.568 Y103.558
X130.57 Y102.082
X130.572 Y96.918
Y77.735
Y69.619
X130.575 Y68.881
X130.593 Y68.218
X130.636 Y67.767
X130.691 Y67.425
X130.752 Y67.158
X130.814 Y66.953
X130.884 Y66.769
X130.958 Y66.605
X130.975 Y66.573
X131.12 Y66.373
X131.314 Y66.218
X131.541 Y66.121
X131.786 Y66.088
X132.674 Y66.087
X132.712 Y66.096 Z-2.484
X132.745 Y66.104 Z-2.466
X132.772 Y66.11 Z-2.438
X132.789 Y66.114 Z-2.404
X132.795 Y66.116 Z-2.365
G0 Z5.
X63.311 Y113.678
Z-1.855
G1 Z-2.172 F1016.
X63.309 Y113.685 Z-2.243
X63.301 Y113.707 Z-2.31
X63.289 Y113.743 Z-2.37
X63.273 Y113.791 Z-2.421
X63.254 Y113.848 Z-2.459
X63.233 Y113.912 Z-2.482
X63.21 Y113.979 Z-2.49
G3 X63.087 Y113.961 I-0.06 J-0.02
G1 X63.088 Y113.248
X63.095 Y113.098
X63.127 Y112.952
X63.176 Y112.81
X63.241 Y112.675
X63.317 Y112.546
X63.403 Y112.423
X63.505 Y112.295
X63.619 Y112.172
X63.768 Y112.032
X63.928 Y111.9
X64.132 Y111.752
X64.354 Y111.614
X64.64 Y111.461
X64.952 Y111.319
X65.365 Y111.164
X65.826 Y111.025
X66.42 Y110.888
X67.148 Y110.771
X67.882 Y110.696
X68.618 Y110.648
X69.355 Y110.619
X70.093 Y110.6
X70.831 Y110.589
X71.569 Y110.582
X72.306 Y110.578
X73.044 Y110.575
X74.52 Y110.573
X79.685 Y110.572
X112.148
X126.905
X127.269 Y110.511
X127.618 Y110.391
X128.259 Y110.027
X128.738 Y109.466
X129.063 Y108.803
X129.269 Y108.095
X129.395 Y107.368
X129.47 Y106.634
X129.513 Y105.897
X129.539 Y105.16
X129.553 Y104.422
X129.561 Y103.684
X129.566 Y102.947
X129.568 Y102.209
X129.571 Y100.733
X129.572 Y94.831
Y76.385
Y70.483
X129.573 Y69.745
X129.582 Y69.007
X129.616 Y68.339
X129.672 Y67.858
X129.745 Y67.464
X129.815 Y67.19
X129.896 Y66.943
X129.972 Y66.755
X130.047 Y66.599
X130.072 Y66.555
X130.218 Y66.361
X130.41 Y66.213
X130.633 Y66.119
X130.873 Y66.088
X131.786
X131.824 Y66.096 Z-2.484
X131.857 Y66.104 Z-2.466
X131.884 Y66.11 Z-2.438
X131.901 Y66.115 Z-2.404
X131.907 Y66.116 Z-2.365
G0 Z5.
X63.311 Y112.965
Z-1.855
G1 Z-2.172 F1016.
X63.308 Y112.972 Z-2.243
X63.301 Y112.994 Z-2.31
X63.289 Y113.03 Z-2.37
X63.273 Y113.078 Z-2.421
X63.254 Y113.135 Z-2.459
X63.233 Y113.199 Z-2.482
X63.211 Y113.266 Z-2.49
G3 X63.088 Y113.248 I-0.06 J-0.02
G1 Y112.502
X63.095 Y112.352
X63.121 Y112.205
X63.164 Y112.061
X63.222 Y111.923
X63.292 Y111.79
X63.372 Y111.663
X63.47 Y111.529
X63.58 Y111.398
X63.718 Y111.254
X63.875 Y111.111
X64.07 Y110.956
X64.292 Y110.802
X64.555 Y110.644
X64.872 Y110.481
X65.23 Y110.327
X65.7 Y110.16
X66.213 Y110.015
X66.903 Y109.87
X67.633 Y109.765
X68.368 Y109.696
X69.104 Y109.651
X69.841 Y109.622
X70.579 Y109.603
X71.317 Y109.591
X72.055 Y109.583
X72.792 Y109.579
X73.53 Y109.576
X75.006 Y109.573
X78.695 Y109.572
X112.634
X125.915
X126.279 Y109.509
X126.625 Y109.383
X127.263 Y109.012
X127.737 Y108.447
X128.058 Y107.783
X128.264 Y107.074
X128.39 Y106.347
X128.466 Y105.613
X128.511 Y104.877
X128.537 Y104.139
X128.552 Y103.402
X128.56 Y102.664
X128.565 Y101.926
X128.568 Y101.188
X128.57 Y99.713
X128.572 Y94.548
Y73.889
Y70.938
X128.574 Y70.2
X128.584 Y69.462
X128.616 Y68.725
X128.675 Y68.143
X128.754 Y67.676
X128.84 Y67.315
X128.917 Y67.064
X129.008 Y66.827
X129.085 Y66.66
X129.135 Y66.568
X129.281 Y66.369
X129.474 Y66.217
X129.7 Y66.12
X129.944 Y66.088
X130.873
X130.911 Y66.096 Z-2.484
X130.944 Y66.104 Z-2.466
X130.971 Y66.11 Z-2.438
X130.988 Y66.115 Z-2.404
X130.994 Y66.116 Z-2.365
G0 Z5.
X63.311 Y112.218
Z-1.855
G1 Z-2.172 F1016.
X63.308 Y112.226 Z-2.243
X63.301 Y112.248 Z-2.31
X63.289 Y112.284 Z-2.37
X63.273 Y112.332 Z-2.421
X63.254 Y112.389 Z-2.459
X63.233 Y112.453 Z-2.482
X63.211 Y112.52 Z-2.49
G3 X63.088 Y112.502 I-0.06 J-0.02
G1 Y111.664
X63.095 Y111.514
X63.122 Y111.366
X63.166 Y111.223
X63.224 Y111.084
X63.292 Y110.951
X63.373 Y110.819
X63.466 Y110.688
X63.587 Y110.541
X63.721 Y110.397
X63.892 Y110.236
X64.078 Y110.083
X64.319 Y109.91
X64.582 Y109.748
X64.904 Y109.576
X65.287 Y109.404
X65.729 Y109.24
X66.287 Y109.074
X66.972 Y108.918
X67.701 Y108.803
X68.435 Y108.725
X69.171 Y108.672
X69.908 Y108.637
X70.645 Y108.613
X71.383 Y108.598
X72.12 Y108.588
X72.858 Y108.582
X73.596 Y108.578
X75.072 Y108.574
X78.023 Y108.572
X111.962
X124.505
X125.243 Y108.547
X125.59 Y108.422
X126.231 Y108.057
X126.71 Y107.496
X127.038 Y106.835
X127.249 Y106.128
X127.38 Y105.402
X127.459 Y104.668
X127.506 Y103.932
X127.534 Y103.195
X127.55 Y102.457
X127.559 Y101.719
X127.564 Y100.982
X127.568 Y100.244
X127.57 Y98.768
X127.572 Y94.341
Y72.207
Y71.469
X127.574 Y70.731
X127.583 Y69.993
X127.607 Y69.256
X127.663 Y68.52
X127.741 Y67.971
X127.834 Y67.525
X127.924 Y67.207
X128.018 Y66.941
X128.104 Y66.741
X128.187 Y66.578
X128.212 Y66.536
X128.359 Y66.35
X128.548 Y66.207
X128.768 Y66.118
X129.003 Y66.088
X129.944
X129.981 Y66.096 Z-2.484
X130.015 Y66.104 Z-2.466
X130.042 Y66.11 Z-2.438
X130.059 Y66.115 Z-2.404
X130.065 Y66.116 Z-2.365
G0 Z5.
X63.311 Y111.38
Z-1.855
G1 Z-2.172 F1016.
X63.308 Y111.388 Z-2.243
X63.301 Y111.41 Z-2.31
X63.289 Y111.446 Z-2.37
X63.273 Y111.494 Z-2.421
X63.254 Y111.551 Z-2.459
X63.233 Y111.614 Z-2.482
X63.211 Y111.681 Z-2.49
G3 X63.088 Y111.664 I-0.06 J-0.02
G1 Y110.825
X63.095 Y110.676
X63.12 Y110.528
X63.161 Y110.383
X63.215 Y110.244
X63.281 Y110.109
X63.358 Y109.978
X63.451 Y109.84
X63.565 Y109.693
X63.701 Y109.541
X63.867 Y109.378
X64.056 Y109.216
X64.294 Y109.037
X64.549 Y108.871
X64.882 Y108.684
X65.247 Y108.51
X65.701 Y108.33
X66.255 Y108.152
X66.907 Y107.988
X67.633 Y107.857
X68.365 Y107.765
X69.1 Y107.702
X69.837 Y107.658
X70.574 Y107.629
X71.312 Y107.609
X72.049 Y107.596
X72.787 Y107.587
X73.525 Y107.581
X74.263 Y107.578
X75.738 Y107.574
X78.69 Y107.572
X111.891
X123.696
X124.064 Y107.541
X124.423 Y107.456
X124.759 Y107.304
X125.366 Y106.884
X125.807 Y106.292
X126.102 Y105.616
X126.29 Y104.902
X126.405 Y104.174
X126.474 Y103.439
X126.515 Y102.702
X126.539 Y101.965
X126.552 Y101.227
X126.561 Y100.49
X126.565 Y99.752
X126.568 Y99.014
X126.57 Y97.538
X126.572 Y92.374
Y72.453
X126.573 Y71.715
X126.576 Y70.977
X126.587 Y70.239
X126.614 Y69.502
X126.668 Y68.766
X126.747 Y68.153
X126.845 Y67.66
X126.946 Y67.281
X127.034 Y67.022
X127.134 Y66.783
X127.217 Y66.617
X127.258 Y66.545
X127.405 Y66.355
X127.595 Y66.21
X127.817 Y66.119
X128.054 Y66.088
X129.003
X129.04 Y66.096 Z-2.484
X129.074 Y66.104 Z-2.466
X129.1 Y66.11 Z-2.438
X129.117 Y66.115 Z-2.404
X129.123 Y66.116 Z-2.365
G0 Z5.
X63.311 Y110.542
Z-1.855
G1 Z-2.172 F1016.
X63.308 Y110.549 Z-2.243
X63.301 Y110.571 Z-2.31
X63.289 Y110.607 Z-2.37
X63.273 Y110.655 Z-2.421
X63.254 Y110.712 Z-2.459
X63.233 Y110.776 Z-2.482
X63.211 Y110.843 Z-2.49
G3 X63.088 Y110.825 I-0.06 J-0.02
G1 Y109.936
X63.095 Y109.786
X63.121 Y109.639
X63.162 Y109.495
X63.217 Y109.355
X63.283 Y109.22
X63.363 Y109.081
X63.456 Y108.944
X63.577 Y108.787
X63.713 Y108.634
X63.888 Y108.461
X64.078 Y108.297
X64.323 Y108.112
X64.594 Y107.934
X64.929 Y107.745
X65.333 Y107.551
X65.778 Y107.373
X66.343 Y107.189
X67.028 Y107.016
X67.754 Y106.882
X68.485 Y106.787
X69.22 Y106.719
X69.956 Y106.672
X70.693 Y106.639
X71.431 Y106.617
X72.168 Y106.601
X72.906 Y106.591
X73.644 Y106.584
X74.382 Y106.58
X75.12 Y106.577
X76.595 Y106.574
X79.546 Y106.572
X112.01
X122.34
X123.078 Y106.564
X123.433 Y106.465
X123.766 Y106.306
X124.368 Y105.879
X124.806 Y105.286
X125.1 Y104.609
X125.287 Y103.895
X125.403 Y103.167
X125.472 Y102.432
X125.514 Y101.695
X125.538 Y100.958
X125.552 Y100.22
X125.56 Y99.483
X125.565 Y98.745
X125.568 Y98.007
X125.57 Y96.531
X125.572 Y91.367
Y72.921
X125.573 Y72.183
X125.577 Y71.446
X125.587 Y70.708
X125.609 Y69.97
X125.651 Y69.234
X125.726 Y68.5
X125.823 Y67.926
X125.931 Y67.473
X126.03 Y67.153
X126.131 Y66.889
X126.221 Y66.694
X126.311 Y66.529
X126.321 Y66.513
X126.469 Y66.334
X126.658 Y66.198
X126.874 Y66.113
X127.105 Y66.085
X127.522 Y66.088
X128.054
X128.091 Y66.096 Z-2.484
X128.125 Y66.104 Z-2.466
X128.152 Y66.11 Z-2.438
X128.169 Y66.115 Z-2.404
X128.175 Y66.116 Z-2.365
G0 Z5.
X63.311 Y109.653
Z-1.855
G1 Z-2.172 F1016.
X63.308 Y109.66 Z-2.243
X63.301 Y109.682 Z-2.31
X63.289 Y109.718 Z-2.37
X63.273 Y109.766 Z-2.421
X63.254 Y109.823 Z-2.459
X63.233 Y109.887 Z-2.482
X63.211 Y109.954 Z-2.49
G3 X63.088 Y109.936 I-0.06 J-0.02
G1 Y109.056
X63.095 Y108.906
X63.119 Y108.758
X63.158 Y108.614
X63.211 Y108.473
X63.275 Y108.338
X63.351 Y108.202
X63.445 Y108.058
X63.559 Y107.905
X63.698 Y107.744
X63.866 Y107.574
X64.063 Y107.398
X64.306 Y107.209
X64.57 Y107.03
X64.914 Y106.829
X65.29 Y106.642
X65.757 Y106.447
X66.324 Y106.253
X66.996 Y106.072
X67.72 Y105.928
X68.45 Y105.823
X69.184 Y105.747
X69.92 Y105.694
X70.657 Y105.655
X71.394 Y105.629
X72.132 Y105.61
X72.869 Y105.597
X73.607 Y105.589
X74.345 Y105.583
X75.083 Y105.579
X76.558 Y105.575
X78.772 Y105.572
X92.79
X111.974
X121.565
X122.302 Y105.529
X122.644 Y105.39
X123.27 Y105.
X123.736 Y104.428
X124.053 Y103.762
X124.257 Y103.053
X124.384 Y102.326
X124.461 Y101.592
X124.506 Y100.856
X124.534 Y100.118
X124.549 Y99.381
X124.559 Y98.643
X124.564 Y97.905
X124.567 Y97.167
X124.57 Y95.692
X124.572 Y92.003
Y73.557
X124.573 Y72.819
X124.575 Y72.082
X124.582 Y71.344
X124.597 Y70.606
X124.626 Y69.869
X124.679 Y69.133
X124.763 Y68.425
X124.871 Y67.845
X124.982 Y67.414
X125.088 Y67.091
X125.188 Y66.842
X125.281 Y66.65
X125.372 Y66.491
X125.439 Y66.389
X125.589 Y66.214
X125.778 Y66.081
X125.995 Y66.
X126.224 Y65.976
X126.453 Y66.009
X126.516 Y66.026
X126.636 Y66.055
X126.851 Y66.08
X127.019 Y66.085
X127.105
X127.142 Y66.094 Z-2.484
X127.176 Y66.103 Z-2.466
X127.202 Y66.109 Z-2.438
X127.219 Y66.113 Z-2.404
X127.225 Y66.115 Z-2.365
G0 Z5.
X63.311 Y108.773
Z-1.855
G1 Z-2.172 F1016.
X63.308 Y108.78 Z-2.243
X63.301 Y108.802 Z-2.31
X63.289 Y108.838 Z-2.37
X63.273 Y108.886 Z-2.421
X63.254 Y108.943 Z-2.459
X63.233 Y109.007 Z-2.482
X63.211 Y109.074 Z-2.49
G3 X63.088 Y109.056 I-0.06 J-0.02
G1 Y108.142
X63.095 Y107.993
X63.119 Y107.845
X63.159 Y107.7
X63.212 Y107.56
X63.276 Y107.424
X63.354 Y107.283
X63.448 Y107.139
X63.566 Y106.98
X63.706 Y106.818
X63.88 Y106.639
X64.074 Y106.466
X64.325 Y106.27
X64.595 Y106.086
X64.943 Y105.882
X65.345 Y105.681
X65.81 Y105.485
X66.388 Y105.286
X67.079 Y105.098
X67.803 Y104.953
X68.533 Y104.845
X69.266 Y104.766
X70.002 Y104.709
X70.738 Y104.667
X71.476 Y104.638
X72.213 Y104.617
X72.951 Y104.602
X73.689 Y104.592
X74.426 Y104.586
X75.164 Y104.581
X75.902 Y104.578
X77.378 Y104.574
X80.329 Y104.572
X112.055
X120.171
X120.909 Y104.568
X121.272 Y104.503
X121.618 Y104.374
X121.963 Y104.169
X122.078 Y104.113
X122.199 Y104.076
X122.325 Y104.059
X122.493 Y104.024
X122.66 Y103.976
X122.828 Y103.916
X122.996 Y103.833
X123.08 Y103.783
X123.163 Y103.729
X123.242 Y103.677
X123.32 Y103.615
X123.499 Y103.447
X123.643 Y103.28
X123.666 Y103.252
X123.764 Y103.112
X123.834 Y102.992
X123.859 Y102.944
X123.935 Y102.777
X123.992 Y102.609
X124.001 Y102.578
X124.038 Y102.441
X124.067 Y102.274
X124.076 Y102.106
X124.086 Y101.771
X124.088 Y101.603
Y68.235
X124.108 Y67.833
X124.139 Y67.563
X124.188 Y67.296
X124.253 Y67.044
X124.32 Y66.837
X124.403 Y66.631
X124.477 Y66.478
X124.561 Y66.328
X124.652 Y66.19
X124.742 Y66.071
X124.841 Y65.958
X124.851 Y65.948
X125.042 Y65.803
X125.264 Y65.711
X125.502 Y65.68
X125.74 Y65.712
X125.962 Y65.804
X126.013 Y65.834
X126.115 Y65.887
X126.181 Y65.918
X126.348 Y65.98
X126.453 Y66.009
G3 X126.562 Y66.068 I-0.095 J0.303
X126.58 Y66.538 I-0.204 J0.243
G1 X124.627 Y68.45
G3 X124.116 Y68.355 I-0.222 J-0.227
X124.088 Y68.235 I0.289 J-0.132
G1 Y66.507
