(SERVOPUZZLECUTS)
(HOLES)
(T1  D=3.175 CR=0. - ZMIN=0. - FLAT END MILL)
G0 G90 G94 G17
G21
G53 Z0.

(2D CONTOUR1)
M5
M9
T1
S16400 M3
G55
M9
G0 X-0.317 Y60.54
Z27.8
Z17.8
G1 Z15.07 F1016.
Z11.847 F40.
G19 G2 Y60.222 Z11.53 J-0.318 K0.
G1 Y59.905 F1016.
G17 G3 X0. Y59.588 I0.317 J0.
G1 X108. F1500.
G2 X109.588 Y58. I0. J-1.588
G1 Y36.4
X109.604 Y36.398
G2 X110.111 Y36.27 I-0.131 J-1.582
G1 X111.92 Y35.477
G2 X112.357 Y35.191 I-0.638 J-1.454
G1 X113.81 Y33.853
G2 X114.131 Y33.441 I-1.075 J-1.168
G1 X115.071 Y31.704
G2 X115.241 Y31.209 I-1.396 J-0.756
G1 X115.566 Y29.261
G2 Y28.739 I-1.566 J-0.261
G1 X115.241 Y26.791
G2 X115.071 Y26.296 I-1.566 J0.261
G1 X114.131 Y24.559
G2 X113.81 Y24.147 I-1.396 J0.756
G1 X112.357 Y22.809
G2 X111.92 Y22.523 I-1.075 J1.168
G1 X110.111 Y21.73
G2 X109.604 Y21.602 I-0.638 J1.454
G1 X109.588 Y21.6
Y0.
G2 X108. Y-1.587 I-1.588 J0.
G1 X0.
G2 X-1.587 Y0. I0. J1.587
G1 Y23.062
G2 X-0.131 Y24.644 I1.587 J0.
G1 X1.078 Y24.744
X2.401 Y25.324
X3.465 Y26.303
X4.153 Y27.574
X4.391 Y29.
X4.153 Y30.426
X3.465 Y31.697
X2.401 Y32.676
X1.078 Y33.256
X-0.131 Y33.356
G2 X-1.587 Y34.938 I0.131 J1.582
G1 Y58.
G2 X0. Y59.588 I1.587 J0.
G3 X0.317 Y59.905 I0. J0.317 F1016.
G1 Y60.222
G19 G3 Y60.54 Z11.847 J0. K0.318
G1 X-0.317
Z10.577 F40.
G2 Y60.222 Z10.26 J-0.318 K0.
G1 Y59.905 F1016.
G17 G3 X0. Y59.588 I0.317 J0.
G1 X108. F1500.
G2 X109.588 Y58. I0. J-1.588
G1 Y36.4
X109.604 Y36.398
G2 X110.111 Y36.27 I-0.131 J-1.582
G1 X111.92 Y35.477
G2 X112.357 Y35.191 I-0.638 J-1.454
G1 X113.81 Y33.853
G2 X114.131 Y33.441 I-1.075 J-1.168
G1 X115.071 Y31.704
G2 X115.241 Y31.209 I-1.396 J-0.756
G1 X115.566 Y29.261
G2 Y28.739 I-1.566 J-0.261
G1 X115.241 Y26.791
G2 X115.071 Y26.296 I-1.566 J0.261
G1 X114.131 Y24.559
G2 X113.81 Y24.147 I-1.396 J0.756
G1 X112.357 Y22.809
G2 X111.92 Y22.523 I-1.075 J1.168
G1 X110.111 Y21.73
G2 X109.604 Y21.602 I-0.638 J1.454
G1 X109.588 Y21.6
Y0.
G2 X108. Y-1.587 I-1.588 J0.
G1 X0.
G2 X-1.587 Y0. I0. J1.587
G1 Y23.062
G2 X-0.131 Y24.644 I1.587 J0.
G1 X1.078 Y24.744
X2.401 Y25.324
X3.465 Y26.303
X4.153 Y27.574
X4.391 Y29.
X4.153 Y30.426
X3.465 Y31.697
X2.401 Y32.676
X1.078 Y33.256
X-0.131 Y33.356
G2 X-1.587 Y34.938 I0.131 J1.582
G1 Y58.
G2 X0. Y59.588 I1.587 J0.
G3 X0.317 Y59.905 I0. J0.317 F1016.
G1 Y60.222
G19 G3 Y60.54 Z10.577 J0. K0.318
G1 X-0.317
Z9.307 F40.
G2 Y60.222 Z8.99 J-0.318 K0.
G1 Y59.905 F1016.
G17 G3 X0. Y59.588 I0.317 J0.
G1 X108. F1500.
G2 X109.588 Y58. I0. J-1.588
G1 Y36.4
X109.604 Y36.398
G2 X110.111 Y36.27 I-0.131 J-1.582
G1 X111.92 Y35.477
G2 X112.357 Y35.191 I-0.638 J-1.454
G1 X113.81 Y33.853
G2 X114.131 Y33.441 I-1.075 J-1.168
G1 X115.071 Y31.704
G2 X115.241 Y31.209 I-1.396 J-0.756
G1 X115.566 Y29.261
G2 Y28.739 I-1.566 J-0.261
G1 X115.241 Y26.791
G2 X115.071 Y26.296 I-1.566 J0.261
G1 X114.131 Y24.559
G2 X113.81 Y24.147 I-1.396 J0.756
G1 X112.357 Y22.809
G2 X111.92 Y22.523 I-1.075 J1.168
G1 X110.111 Y21.73
G2 X109.604 Y21.602 I-0.638 J1.454
G1 X109.588 Y21.6
Y0.
G2 X108. Y-1.587 I-1.588 J0.
G1 X0.
G2 X-1.587 Y0. I0. J1.587
G1 Y23.062
G2 X-0.131 Y24.644 I1.587 J0.
G1 X1.078 Y24.744
X2.401 Y25.324
X3.465 Y26.303
X4.153 Y27.574
X4.391 Y29.
X4.153 Y30.426
X3.465 Y31.697
X2.401 Y32.676
X1.078 Y33.256
X-0.131 Y33.356
G2 X-1.587 Y34.938 I0.131 J1.582
G1 Y58.
G2 X0. Y59.588 I1.587 J0.
G3 X0.317 Y59.905 I0. J0.317 F1016.
G1 Y60.222
G19 G3 Y60.54 Z9.307 J0. K0.318
G1 X-0.317
Z8.037 F40.
G2 Y60.222 Z7.72 J-0.318 K0.
G1 Y59.905 F1016.
G17 G3 X0. Y59.588 I0.317 J0.
G1 X108. F1500.
G2 X109.588 Y58. I0. J-1.588
G1 Y36.4
X109.604 Y36.398
G2 X110.111 Y36.27 I-0.131 J-1.582
G1 X111.92 Y35.477
G2 X112.357 Y35.191 I-0.638 J-1.454
G1 X113.81 Y33.853
G2 X114.131 Y33.441 I-1.075 J-1.168
G1 X115.071 Y31.704
G2 X115.241 Y31.209 I-1.396 J-0.756
G1 X115.566 Y29.261
G2 Y28.739 I-1.566 J-0.261
G1 X115.241 Y26.791
G2 X115.071 Y26.296 I-1.566 J0.261
G1 X114.131 Y24.559
G2 X113.81 Y24.147 I-1.396 J0.756
G1 X112.357 Y22.809
G2 X111.92 Y22.523 I-1.075 J1.168
G1 X110.111 Y21.73
G2 X109.604 Y21.602 I-0.638 J1.454
G1 X109.588 Y21.6
Y0.
G2 X108. Y-1.587 I-1.588 J0.
G1 X0.
G2 X-1.587 Y0. I0. J1.587
G1 Y23.062
G2 X-0.131 Y24.644 I1.587 J0.
G1 X1.078 Y24.744
X2.401 Y25.324
X3.465 Y26.303
X4.153 Y27.574
X4.391 Y29.
X4.153 Y30.426
X3.465 Y31.697
X2.401 Y32.676
X1.078 Y33.256
X-0.131 Y33.356
G2 X-1.587 Y34.938 I0.131 J1.582
G1 Y58.
G2 X0. Y59.588 I1.587 J0.
G3 X0.317 Y59.905 I0. J0.317 F1016.
G1 Y60.222
G19 G3 Y60.54 Z8.037 J0. K0.318
G1 X-0.317
Z6.767 F40.
G2 Y60.222 Z6.45 J-0.318 K0.
G1 Y59.905 F1016.
G17 G3 X0. Y59.588 I0.317 J0.
G1 X108. F1500.
G2 X109.588 Y58. I0. J-1.588
G1 Y36.4
X109.604 Y36.398
G2 X110.111 Y36.27 I-0.131 J-1.582
G1 X111.92 Y35.477
G2 X112.357 Y35.191 I-0.638 J-1.454
G1 X113.81 Y33.853
G2 X114.131 Y33.441 I-1.075 J-1.168
G1 X115.071 Y31.704
G2 X115.241 Y31.209 I-1.396 J-0.756
G1 X115.566 Y29.261
G2 Y28.739 I-1.566 J-0.261
G1 X115.241 Y26.791
G2 X115.071 Y26.296 I-1.566 J0.261
G1 X114.131 Y24.559
G2 X113.81 Y24.147 I-1.396 J0.756
G1 X112.357 Y22.809
G2 X111.92 Y22.523 I-1.075 J1.168
G1 X110.111 Y21.73
G2 X109.604 Y21.602 I-0.638 J1.454
G1 X109.588 Y21.6
Y0.
G2 X108. Y-1.587 I-1.588 J0.
G1 X0.
G2 X-1.587 Y0. I0. J1.587
G1 Y23.062
G2 X-0.131 Y24.644 I1.587 J0.
G1 X1.078 Y24.744
X2.401 Y25.324
X3.465 Y26.303
X4.153 Y27.574
X4.391 Y29.
X4.153 Y30.426
X3.465 Y31.697
X2.401 Y32.676
X1.078 Y33.256
X-0.131 Y33.356
G2 X-1.587 Y34.938 I0.131 J1.582
G1 Y58.
G2 X0. Y59.588 I1.587 J0.
G3 X0.317 Y59.905 I0. J0.317 F1016.
G1 Y60.222
G19 G3 Y60.54 Z6.767 J0. K0.318
G1 X-0.317
Z5.497 F40.
G2 Y60.222 Z5.18 J-0.318 K0.
G1 Y59.905 F1016.
G17 G3 X0. Y59.588 I0.317 J0.
G1 X108. F1500.
G2 X109.588 Y58. I0. J-1.588
G1 Y36.4
X109.604 Y36.398
G2 X110.111 Y36.27 I-0.131 J-1.582
G1 X111.92 Y35.477
G2 X112.357 Y35.191 I-0.638 J-1.454
G1 X113.81 Y33.853
G2 X114.131 Y33.441 I-1.075 J-1.168
G1 X115.071 Y31.704
G2 X115.241 Y31.209 I-1.396 J-0.756
G1 X115.566 Y29.261
G2 Y28.739 I-1.566 J-0.261
G1 X115.241 Y26.791
G2 X115.071 Y26.296 I-1.566 J0.261
G1 X114.131 Y24.559
G2 X113.81 Y24.147 I-1.396 J0.756
G1 X112.357 Y22.809
G2 X111.92 Y22.523 I-1.075 J1.168
G1 X110.111 Y21.73
G2 X109.604 Y21.602 I-0.638 J1.454
G1 X109.588 Y21.6
Y0.
G2 X108. Y-1.587 I-1.588 J0.
G1 X0.
G2 X-1.587 Y0. I0. J1.587
G1 Y23.062
G2 X-0.131 Y24.644 I1.587 J0.
G1 X1.078 Y24.744
X2.401 Y25.324
X3.465 Y26.303
X4.153 Y27.574
X4.391 Y29.
X4.153 Y30.426
X3.465 Y31.697
X2.401 Y32.676
X1.078 Y33.256
X-0.131 Y33.356
G2 X-1.587 Y34.938 I0.131 J1.582
G1 Y58.
G2 X0. Y59.588 I1.587 J0.
G3 X0.317 Y59.905 I0. J0.317 F1016.
G1 Y60.222
G19 G3 Y60.54 Z5.497 J0. K0.318
G1 X-0.317
Z4.227 F40.
G2 Y60.222 Z3.91 J-0.318 K0.
G1 Y59.905 F1016.
G17 G3 X0. Y59.588 I0.317 J0.
G1 X108. F1500.
G2 X109.588 Y58. I0. J-1.588
G1 Y36.4
X109.604 Y36.398
G2 X110.111 Y36.27 I-0.131 J-1.582
G1 X111.92 Y35.477
G2 X112.357 Y35.191 I-0.638 J-1.454
G1 X113.81 Y33.853
G2 X114.131 Y33.441 I-1.075 J-1.168
G1 X115.071 Y31.704
G2 X115.241 Y31.209 I-1.396 J-0.756
G1 X115.566 Y29.261
G2 Y28.739 I-1.566 J-0.261
G1 X115.241 Y26.791
G2 X115.071 Y26.296 I-1.566 J0.261
G1 X114.131 Y24.559
G2 X113.81 Y24.147 I-1.396 J0.756
G1 X112.357 Y22.809
G2 X111.92 Y22.523 I-1.075 J1.168
G1 X110.111 Y21.73
G2 X109.604 Y21.602 I-0.638 J1.454
G1 X109.588 Y21.6
Y0.
G2 X108. Y-1.587 I-1.588 J0.
G1 X0.
G2 X-1.587 Y0. I0. J1.587
G1 Y23.062
G2 X-0.131 Y24.644 I1.587 J0.
G1 X1.078 Y24.744
X2.401 Y25.324
X3.465 Y26.303
X4.153 Y27.574
X4.391 Y29.
X4.153 Y30.426
X3.465 Y31.697
X2.401 Y32.676
X1.078 Y33.256
X-0.131 Y33.356
G2 X-1.587 Y34.938 I0.131 J1.582
G1 Y58.
G2 X0. Y59.588 I1.587 J0.
G3 X0.317 Y59.905 I0. J0.317 F1016.
G1 Y60.222
G19 G3 Y60.54 Z4.227 J0. K0.317
G1 X-0.317
Z2.957 F40.
G2 Y60.222 Z2.64 J-0.318 K0.
G1 Y59.905 F1016.
G17 G3 X0. Y59.588 I0.317 J0.
G1 X108. F1500.
G2 X109.588 Y58. I0. J-1.588
G1 Y36.4
X109.604 Y36.398
G2 X110.111 Y36.27 I-0.131 J-1.582
G1 X111.92 Y35.477
G2 X112.357 Y35.191 I-0.638 J-1.454
G1 X113.81 Y33.853
G2 X114.131 Y33.441 I-1.075 J-1.168
G1 X115.071 Y31.704
G2 X115.241 Y31.209 I-1.396 J-0.756
G1 X115.566 Y29.261
G2 Y28.739 I-1.566 J-0.261
G1 X115.241 Y26.791
G2 X115.071 Y26.296 I-1.566 J0.261
G1 X114.131 Y24.559
G2 X113.81 Y24.147 I-1.396 J0.756
G1 X112.357 Y22.809
G2 X111.92 Y22.523 I-1.075 J1.168
G1 X110.111 Y21.73
G2 X109.604 Y21.602 I-0.638 J1.454
G1 X109.588 Y21.6
Y0.
G2 X108. Y-1.587 I-1.588 J0.
G1 X0.
G2 X-1.587 Y0. I0. J1.587
G1 Y23.062
G2 X-0.131 Y24.644 I1.587 J0.
G1 X1.078 Y24.744
X2.401 Y25.324
X3.465 Y26.303
X4.153 Y27.574
X4.391 Y29.
X4.153 Y30.426
X3.465 Y31.697
X2.401 Y32.676
X1.078 Y33.256
X-0.131 Y33.356
G2 X-1.587 Y34.938 I0.131 J1.582
G1 Y58.
G2 X0. Y59.588 I1.587 J0.
G3 X0.317 Y59.905 I0. J0.317 F1016.
G1 Y60.222
G19 G3 Y60.54 Z2.957 J0. K0.317
G1 X-0.317
Z1.687 F40.
G2 Y60.222 Z1.37 J-0.318 K0.
G1 Y59.905 F1016.
G17 G3 X0. Y59.588 I0.317 J0.
G1 X108. F1500.
G2 X109.588 Y58. I0. J-1.588
G1 Y36.4
X109.604 Y36.398
G2 X110.111 Y36.27 I-0.131 J-1.582
G1 X111.92 Y35.477
G2 X112.357 Y35.191 I-0.638 J-1.454
G1 X113.81 Y33.853
G2 X114.131 Y33.441 I-1.075 J-1.168
G1 X115.071 Y31.704
G2 X115.241 Y31.209 I-1.396 J-0.756
G1 X115.566 Y29.261
G2 Y28.739 I-1.566 J-0.261
G1 X115.241 Y26.791
G2 X115.071 Y26.296 I-1.566 J0.261
G1 X114.131 Y24.559
G2 X113.81 Y24.147 I-1.396 J0.756
G1 X112.357 Y22.809
G2 X111.92 Y22.523 I-1.075 J1.168
G1 X110.111 Y21.73
G2 X109.604 Y21.602 I-0.638 J1.454
G1 X109.588 Y21.6
Y0.
G2 X108. Y-1.587 I-1.588 J0.
G1 X0.
G2 X-1.587 Y0. I0. J1.587
G1 Y23.062
G2 X-0.131 Y24.644 I1.587 J0.
G1 X1.078 Y24.744
X2.401 Y25.324
X3.465 Y26.303
X4.153 Y27.574
X4.391 Y29.
X4.153 Y30.426
X3.465 Y31.697
X2.401 Y32.676
X1.078 Y33.256
X-0.131 Y33.356
G2 X-1.587 Y34.938 I0.131 J1.582
G1 Y58.
G2 X0. Y59.588 I1.587 J0.
G3 X0.317 Y59.905 I0. J0.317 F1016.
G1 Y60.222
G19 G3 Y60.54 Z1.687 J0. K0.317
G1 X-0.317
Z1.002 F40.
G2 Y60.222 Z0.685 J-0.318 K0.
G1 Y59.905 F1016.
G17 G3 X0. Y59.588 I0.317 J0.
G1 X108. F1500.
G2 X109.588 Y58. I0. J-1.588
G1 Y36.4
X109.604 Y36.398
G2 X110.111 Y36.27 I-0.131 J-1.582
G1 X111.92 Y35.477
G2 X112.357 Y35.191 I-0.638 J-1.454
G1 X113.81 Y33.853
G2 X114.131 Y33.441 I-1.075 J-1.168
G1 X115.071 Y31.704
G2 X115.241 Y31.209 I-1.396 J-0.756
G1 X115.566 Y29.261
G2 Y28.739 I-1.566 J-0.261
G1 X115.241 Y26.791
G2 X115.071 Y26.296 I-1.566 J0.261
G1 X114.131 Y24.559
G2 X113.81 Y24.147 I-1.396 J0.756
G1 X112.357 Y22.809
G2 X111.92 Y22.523 I-1.075 J1.168
G1 X110.111 Y21.73
G2 X109.604 Y21.602 I-0.638 J1.454
G1 X109.588 Y21.6
Y0.
G2 X108. Y-1.587 I-1.588 J0.
G1 X0.
G2 X-1.587 Y0. I0. J1.587
G1 Y23.062
G2 X-0.131 Y24.644 I1.587 J0.
G1 X1.078 Y24.744
X2.401 Y25.324
X3.465 Y26.303
X4.153 Y27.574
X4.391 Y29.
X4.153 Y30.426
X3.465 Y31.697
X2.401 Y32.676
X1.078 Y33.256
X-0.131 Y33.356
G2 X-1.587 Y34.938 I0.131 J1.582
G1 Y58.
G2 X0. Y59.588 I1.587 J0.
G3 X0.317 Y59.905 I0. J0.317 F1016.
G1 Y60.222
G19 G3 Y60.54 Z1.002 J0. K0.317
G1 X-0.317
Z0.318 F40.
G2 Y60.222 Z0. J-0.318 K0.
G1 Y59.905 F1016.
G17 G3 X0. Y59.588 I0.317 J0.
G1 X108. F1500.
G2 X109.588 Y58. I0. J-1.588
G1 Y36.4
X109.604 Y36.398
G2 X110.111 Y36.27 I-0.131 J-1.582
G1 X111.92 Y35.477
G2 X112.357 Y35.191 I-0.638 J-1.454
G1 X113.81 Y33.853
G2 X114.131 Y33.441 I-1.075 J-1.168
G1 X115.071 Y31.704
G2 X115.241 Y31.209 I-1.396 J-0.756
G1 X115.566 Y29.261
G2 Y28.739 I-1.566 J-0.261
G1 X115.241 Y26.791
G2 X115.071 Y26.296 I-1.566 J0.261
G1 X114.131 Y24.559
G2 X113.81 Y24.147 I-1.396 J0.756
G1 X112.357 Y22.809
G2 X111.92 Y22.523 I-1.075 J1.168
G1 X110.111 Y21.73
G2 X109.604 Y21.602 I-0.638 J1.454
G1 X109.588 Y21.6
Y0.
G2 X108. Y-1.587 I-1.588 J0.
G1 X0.
G2 X-1.587 Y0. I0. J1.587
G1 Y23.062
G2 X-0.131 Y24.644 I1.587 J0.
G1 X1.078 Y24.744
X2.401 Y25.324
X3.465 Y26.303
X4.153 Y27.574
X4.391 Y29.
X4.153 Y30.426
X3.465 Y31.697
X2.401 Y32.676
X1.078 Y33.256
X-0.131 Y33.356
G2 X-1.587 Y34.938 I0.131 J1.582
G1 Y58.
G2 X0. Y59.588 I1.587 J0.
G3 X0.317 Y59.905 I0. J0.317 F1016.
G1 Y60.222
G19 G3 Y60.54 Z0.318 J0. K0.317
G0 Z27.8
G17

M9
G53 Z0.
M30
