(SERVOPUZZLECUT)
(CONTOUR)
(T1  D=3.175 CR=0. - ZMIN=-12.5 - FLAT END MILL)
G0 G90 G94 G17
G21
G53 Z0.

(2D CONTOUR1)
M5
M9
T1
S16400 M3
G55
M9
G0 X58.46 Y7.48
Z15.
Z5.
G1 Z2.27 F1016.
Z-0.953 F40.
G18 G2 X58.778 Z-1.27 I0.318 K0.
G1 X59.095 F1016.
G17 G3 X59.412 Y7.798 I0. J0.318
G1 Y10.413 F1000.
X42.588
Y7.588
X53.
G2 X54.588 Y6. I0. J-1.588
G1 Y0.
G2 X53. Y-1.587 I-1.588 J0.
G1 X0.
G2 X-1.587 Y0. I0. J1.587
G1 Y51.
G2 X0. Y52.588 I1.587 J0.
G1 X6.
G2 X7.588 Y51. I0. J-1.588
G1 Y49.588
X10.413
Y62.413
X7.588
Y59.
G2 X6. Y57.413 I-1.588 J0.
G1 X0.
G2 X-1.587 Y59. I0. J1.588
G1 Y102.
G2 X0. Y103.588 I1.587 J0.
G1 X51.412
Y106.413
X41.
G2 X39.412 Y108. I0. J1.588
G1 Y114.
G2 X41. Y115.588 I1.588 J0.
G1 X61.
G2 X62.588 Y114. I0. J-1.588
G1 Y103.588
X122.
G2 X123.588 Y102. I0. J-1.588
G1 Y60.588
X125.412
Y64.
G2 X127. Y65.588 I1.588 J0.
G1 X133.
G2 X134.587 Y64. I0. J-1.588
G1 Y48.
G2 X133. Y46.413 I-1.587 J0.
G1 X127.
G2 X125.412 Y48. I0. J1.588
G1 Y49.413
X123.588
Y0.
G2 X122. Y-1.587 I-1.588 J0.
G1 X61.
G2 X59.412 Y0. I0. J1.587
G1 Y7.798
G3 X59.095 Y8.115 I-0.317 J0. F1016.
G1 X58.778
G18 G3 X58.46 Z-0.953 I0. K0.317
G1 Y7.48
Z-2.223 F40.
G2 X58.778 Z-2.54 I0.318 K0.
G1 X59.095 F1016.
G17 G3 X59.412 Y7.798 I0. J0.318
G1 Y10.413 F1000.
X42.588
Y7.588
X53.
G2 X54.588 Y6. I0. J-1.588
G1 Y0.
G2 X53. Y-1.587 I-1.588 J0.
G1 X0.
G2 X-1.587 Y0. I0. J1.587
G1 Y51.
G2 X0. Y52.588 I1.587 J0.
G1 X6.
G2 X7.588 Y51. I0. J-1.588
G1 Y49.588
X10.413
Y62.413
X7.588
Y59.
G2 X6. Y57.413 I-1.588 J0.
G1 X0.
G2 X-1.587 Y59. I0. J1.588
G1 Y102.
G2 X0. Y103.588 I1.587 J0.
G1 X51.412
Y106.413
X41.
G2 X39.412 Y108. I0. J1.588
G1 Y114.
G2 X41. Y115.588 I1.588 J0.
G1 X61.
G2 X62.588 Y114. I0. J-1.588
G1 Y103.588
X122.
G2 X123.588 Y102. I0. J-1.588
G1 Y60.588
X125.412
Y64.
G2 X127. Y65.588 I1.588 J0.
G1 X133.
G2 X134.587 Y64. I0. J-1.588
G1 Y48.
G2 X133. Y46.413 I-1.587 J0.
G1 X127.
G2 X125.412 Y48. I0. J1.588
G1 Y49.413
X123.588
Y0.
G2 X122. Y-1.587 I-1.588 J0.
G1 X61.
G2 X59.412 Y0. I0. J1.587
G1 Y7.798
G3 X59.095 Y8.115 I-0.317 J0. F1016.
G1 X58.778
G18 G3 X58.46 Z-2.223 I0. K0.317
G1 Y7.48
Z-3.493 F40.
G2 X58.778 Z-3.81 I0.318 K0.
G1 X59.095 F1016.
G17 G3 X59.412 Y7.798 I0. J0.318
G1 Y10.413 F1000.
X42.588
Y7.588
X53.
G2 X54.588 Y6. I0. J-1.588
G1 Y0.
G2 X53. Y-1.587 I-1.588 J0.
G1 X0.
G2 X-1.587 Y0. I0. J1.587
G1 Y51.
G2 X0. Y52.588 I1.587 J0.
G1 X6.
G2 X7.588 Y51. I0. J-1.588
G1 Y49.588
X10.413
Y62.413
X7.588
Y59.
G2 X6. Y57.413 I-1.588 J0.
G1 X0.
G2 X-1.587 Y59. I0. J1.588
G1 Y102.
G2 X0. Y103.588 I1.587 J0.
G1 X51.412
Y106.413
X41.
G2 X39.412 Y108. I0. J1.588
G1 Y114.
G2 X41. Y115.588 I1.588 J0.
G1 X61.
G2 X62.588 Y114. I0. J-1.588
G1 Y103.588
X122.
G2 X123.588 Y102. I0. J-1.588
G1 Y60.588
X125.412
Y64.
G2 X127. Y65.588 I1.588 J0.
G1 X133.
G2 X134.587 Y64. I0. J-1.588
G1 Y48.
G2 X133. Y46.413 I-1.587 J0.
G1 X127.
G2 X125.412 Y48. I0. J1.588
G1 Y49.413
X123.588
Y0.
G2 X122. Y-1.587 I-1.588 J0.
G1 X61.
G2 X59.412 Y0. I0. J1.587
G1 Y7.798
G3 X59.095 Y8.115 I-0.317 J0. F1016.
G1 X58.778
G18 G3 X58.46 Z-3.493 I0. K0.317
G1 Y7.48
Z-4.763 F40.
G2 X58.778 Z-5.08 I0.318 K0.
G1 X59.095 F1016.
G17 G3 X59.412 Y7.798 I0. J0.318
G1 Y10.413 F1000.
X42.588
Y7.588
X53.
G2 X54.588 Y6. I0. J-1.588
G1 Y0.
G2 X53. Y-1.587 I-1.588 J0.
G1 X0.
G2 X-1.587 Y0. I0. J1.587
G1 Y51.
G2 X0. Y52.588 I1.587 J0.
G1 X6.
G2 X7.588 Y51. I0. J-1.588
G1 Y49.588
X10.413
Y62.413
X7.588
Y59.
G2 X6. Y57.413 I-1.588 J0.
G1 X0.
G2 X-1.587 Y59. I0. J1.588
G1 Y102.
G2 X0. Y103.588 I1.587 J0.
G1 X51.412
Y106.413
X41.
G2 X39.412 Y108. I0. J1.588
G1 Y114.
G2 X41. Y115.588 I1.588 J0.
G1 X61.
G2 X62.588 Y114. I0. J-1.588
G1 Y103.588
X122.
G2 X123.588 Y102. I0. J-1.588
G1 Y60.588
X125.412
Y64.
G2 X127. Y65.588 I1.588 J0.
G1 X133.
G2 X134.587 Y64. I0. J-1.588
G1 Y48.
G2 X133. Y46.413 I-1.587 J0.
G1 X127.
G2 X125.412 Y48. I0. J1.588
G1 Y49.413
X123.588
Y0.
G2 X122. Y-1.587 I-1.588 J0.
G1 X61.
G2 X59.412 Y0. I0. J1.587
G1 Y7.798
G3 X59.095 Y8.115 I-0.317 J0. F1016.
G1 X58.778
G18 G3 X58.46 Z-4.763 I0. K0.318
G1 Y7.48
Z-6.033 F40.
G2 X58.778 Z-6.35 I0.318 K0.
G1 X59.095 F1016.
G17 G3 X59.412 Y7.798 I0. J0.318
G1 Y10.413 F1000.
X42.588
Y7.588
X53.
G2 X54.588 Y6. I0. J-1.588
G1 Y0.
G2 X53. Y-1.587 I-1.588 J0.
G1 X0.
G2 X-1.587 Y0. I0. J1.587
G1 Y51.
G2 X0. Y52.588 I1.587 J0.
G1 X6.
G2 X7.588 Y51. I0. J-1.588
G1 Y49.588
X10.413
Y62.413
X7.588
Y59.
G2 X6. Y57.413 I-1.588 J0.
G1 X0.
G2 X-1.587 Y59. I0. J1.588
G1 Y102.
G2 X0. Y103.588 I1.587 J0.
G1 X51.412
Y106.413
X41.
G2 X39.412 Y108. I0. J1.588
G1 Y114.
G2 X41. Y115.588 I1.588 J0.
G1 X61.
G2 X62.588 Y114. I0. J-1.588
G1 Y103.588
X122.
G2 X123.588 Y102. I0. J-1.588
G1 Y60.588
X125.412
Y64.
G2 X127. Y65.588 I1.588 J0.
G1 X133.
G2 X134.587 Y64. I0. J-1.588
G1 Y48.
G2 X133. Y46.413 I-1.587 J0.
G1 X127.
G2 X125.412 Y48. I0. J1.588
G1 Y49.413
X123.588
Y0.
G2 X122. Y-1.587 I-1.588 J0.
G1 X61.
G2 X59.412 Y0. I0. J1.587
G1 Y7.798
G3 X59.095 Y8.115 I-0.317 J0. F1016.
G1 X58.778
G18 G3 X58.46 Z-6.033 I0. K0.318
G1 Y7.48
Z-7.303 F40.
G2 X58.778 Z-7.62 I0.318 K0.
G1 X59.095 F1016.
G17 G3 X59.412 Y7.798 I0. J0.318
G1 Y10.413 F1000.
X42.588
Y7.588
X53.
G2 X54.588 Y6. I0. J-1.588
G1 Y0.
G2 X53. Y-1.587 I-1.588 J0.
G1 X0.
G2 X-1.587 Y0. I0. J1.587
G1 Y51.
G2 X0. Y52.588 I1.587 J0.
G1 X6.
G2 X7.588 Y51. I0. J-1.588
G1 Y49.588
X10.413
Y62.413
X7.588
Y59.
G2 X6. Y57.413 I-1.588 J0.
G1 X0.
G2 X-1.587 Y59. I0. J1.588
G1 Y102.
G2 X0. Y103.588 I1.587 J0.
G1 X51.412
Y106.413
X41.
G2 X39.412 Y108. I0. J1.588
G1 Y114.
G2 X41. Y115.588 I1.588 J0.
G1 X61.
G2 X62.588 Y114. I0. J-1.588
G1 Y103.588
X122.
G2 X123.588 Y102. I0. J-1.588
G1 Y60.588
X125.412
Y64.
G2 X127. Y65.588 I1.588 J0.
G1 X133.
G2 X134.587 Y64. I0. J-1.588
G1 Y48.
G2 X133. Y46.413 I-1.587 J0.
G1 X127.
G2 X125.412 Y48. I0. J1.588
G1 Y49.413
X123.588
Y0.
G2 X122. Y-1.587 I-1.588 J0.
G1 X61.
G2 X59.412 Y0. I0. J1.587
G1 Y7.798
G3 X59.095 Y8.115 I-0.317 J0. F1016.
G1 X58.778
G18 G3 X58.46 Z-7.303 I0. K0.318
G1 Y7.48
Z-8.573 F40.
G2 X58.778 Z-8.89 I0.318 K0.
G1 X59.095 F1016.
G17 G3 X59.412 Y7.798 I0. J0.318
G1 Y10.413 F1000.
X42.588
Y7.588
X53.
G2 X54.588 Y6. I0. J-1.588
G1 Y0.
G2 X53. Y-1.587 I-1.588 J0.
G1 X0.
G2 X-1.587 Y0. I0. J1.587
G1 Y51.
G2 X0. Y52.588 I1.587 J0.
G1 X6.
G2 X7.588 Y51. I0. J-1.588
G1 Y49.588
X10.413
Y62.413
X7.588
Y59.
G2 X6. Y57.413 I-1.588 J0.
G1 X0.
G2 X-1.587 Y59. I0. J1.588
G1 Y102.
G2 X0. Y103.588 I1.587 J0.
G1 X51.412
Y106.413
X41.
G2 X39.412 Y108. I0. J1.588
G1 Y114.
G2 X41. Y115.588 I1.588 J0.
G1 X61.
G2 X62.588 Y114. I0. J-1.588
G1 Y103.588
X122.
G2 X123.588 Y102. I0. J-1.588
G1 Y60.588
X125.412
Y64.
G2 X127. Y65.588 I1.588 J0.
G1 X133.
G2 X134.587 Y64. I0. J-1.588
G1 Y48.
G2 X133. Y46.413 I-1.587 J0.
G1 X127.
G2 X125.412 Y48. I0. J1.588
G1 Y49.413
X123.588
Y0.
G2 X122. Y-1.587 I-1.588 J0.
G1 X61.
G2 X59.412 Y0. I0. J1.587
G1 Y7.798
G3 X59.095 Y8.115 I-0.317 J0. F1016.
G1 X58.778
G18 G3 X58.46 Z-8.573 I0. K0.318
G1 Y7.48
Z-9.843 F40.
G2 X58.778 Z-10.16 I0.318 K0.
G1 X59.095 F1016.
G17 G3 X59.412 Y7.798 I0. J0.318
G1 Y10.413 F1000.
X42.588
Y7.588
X53.
G2 X54.588 Y6. I0. J-1.588
G1 Y0.
G2 X53. Y-1.587 I-1.588 J0.
G1 X0.
G2 X-1.587 Y0. I0. J1.587
G1 Y51.
G2 X0. Y52.588 I1.587 J0.
G1 X6.
G2 X7.588 Y51. I0. J-1.588
G1 Y49.588
X10.413
Y62.413
X7.588
Y59.
G2 X6. Y57.413 I-1.588 J0.
G1 X0.
G2 X-1.587 Y59. I0. J1.588
G1 Y102.
G2 X0. Y103.588 I1.587 J0.
G1 X51.412
Y106.413
X41.
G2 X39.412 Y108. I0. J1.588
G1 Y114.
G2 X41. Y115.588 I1.588 J0.
G1 X61.
G2 X62.588 Y114. I0. J-1.588
G1 Y103.588
X122.
G2 X123.588 Y102. I0. J-1.588
G1 Y60.588
X125.412
Y64.
G2 X127. Y65.588 I1.588 J0.
G1 X133.
G2 X134.587 Y64. I0. J-1.588
G1 Y48.
G2 X133. Y46.413 I-1.587 J0.
G1 X127.
G2 X125.412 Y48. I0. J1.588
G1 Y49.413
X123.588
Y0.
G2 X122. Y-1.587 I-1.588 J0.
G1 X61.
G2 X59.412 Y0. I0. J1.587
G1 Y7.798
G3 X59.095 Y8.115 I-0.317 J0. F1016.
G1 X58.778
G18 G3 X58.46 Z-9.843 I0. K0.318
G1 Y7.48
Z-11.113 F40.
G2 X58.778 Z-11.43 I0.318 K0.
G1 X59.095 F1016.
G17 G3 X59.412 Y7.798 I0. J0.318
G1 Y10.413 F1000.
X42.588
Y7.588
X53.
G2 X54.588 Y6. I0. J-1.588
G1 Y0.
G2 X53. Y-1.587 I-1.588 J0.
G1 X0.
G2 X-1.587 Y0. I0. J1.587
G1 Y51.
G2 X0. Y52.588 I1.587 J0.
G1 X6.
G2 X7.588 Y51. I0. J-1.588
G1 Y49.588
X10.413
Y62.413
X7.588
Y59.
G2 X6. Y57.413 I-1.588 J0.
G1 X0.
G2 X-1.587 Y59. I0. J1.588
G1 Y102.
G2 X0. Y103.588 I1.587 J0.
G1 X51.412
Y106.413
X41.
G2 X39.412 Y108. I0. J1.588
G1 Y114.
G2 X41. Y115.588 I1.588 J0.
G1 X61.
G2 X62.588 Y114. I0. J-1.588
G1 Y103.588
X122.
G2 X123.588 Y102. I0. J-1.588
G1 Y60.588
X125.412
Y64.
G2 X127. Y65.588 I1.588 J0.
G1 X133.
G2 X134.587 Y64. I0. J-1.588
G1 Y48.
G2 X133. Y46.413 I-1.587 J0.
G1 X127.
G2 X125.412 Y48. I0. J1.588
G1 Y49.413
X123.588
Y0.
G2 X122. Y-1.587 I-1.588 J0.
G1 X61.
G2 X59.412 Y0. I0. J1.587
G1 Y7.798
G3 X59.095 Y8.115 I-0.317 J0. F1016.
G1 X58.778
G18 G3 X58.46 Z-11.113 I0. K0.318
G1 Y7.48
Z-12.183 F40.
G2 X58.778 Z-12.5 I0.318 K0.
G1 X59.095 F1016.
G17 G3 X59.412 Y7.798 I0. J0.318
G1 Y10.413 F1000.
X42.588
Y7.588
X53.
G2 X54.588 Y6. I0. J-1.588
G1 Y0.
G2 X53. Y-1.587 I-1.588 J0.
G1 X0.
G2 X-1.587 Y0. I0. J1.587
G1 Y51.
G2 X0. Y52.588 I1.587 J0.
G1 X6.
G2 X7.588 Y51. I0. J-1.588
G1 Y49.588
X10.413
Y62.413
X7.588
Y59.
G2 X6. Y57.413 I-1.588 J0.
G1 X0.
G2 X-1.587 Y59. I0. J1.588
G1 Y102.
G2 X0. Y103.588 I1.587 J0.
G1 X51.412
Y106.413
X41.
G2 X39.412 Y108. I0. J1.588
G1 Y114.
G2 X41. Y115.588 I1.588 J0.
G1 X61.
G2 X62.588 Y114. I0. J-1.588
G1 Y103.588
X122.
G2 X123.588 Y102. I0. J-1.588
G1 Y60.588
X125.412
Y64.
G2 X127. Y65.588 I1.588 J0.
G1 X133.
G2 X134.587 Y64. I0. J-1.588
G1 Y48.
G2 X133. Y46.413 I-1.587 J0.
G1 X127.
G2 X125.412 Y48. I0. J1.588
G1 Y49.413
X123.588
Y0.
G2 X122. Y-1.587 I-1.588 J0.
G1 X61.
G2 X59.412 Y0. I0. J1.587
G1 Y7.798
G3 X59.095 Y8.115 I-0.317 J0. F1016.
G1 X58.778
G18 G3 X58.46 Z-12.183 I0. K0.318
G0 Z15.
G17

M9
G53 Z0.
M30
