(SERVOPUZZLECUTTING2)
(CLEARING)
(T1  D=3.175 CR=0. - ZMIN=-13. - FLAT END MILL)
G0 G90 G94 G17
G21
G53 Z0.

(2D ADAPTIVE1)
M5
M9
T1
S16400 M3
G55
M9
G0 X-0.531 Y117.548
Z15.
Z5.
Z-1.855
G1 Z-2.172 F1016.
X-0.532 Y117.54 Z-2.243
X-0.535 Y117.517 Z-2.31
X-0.54 Y117.479 Z-2.37
X-0.546 Y117.429 Z-2.421
X-0.553 Y117.369 Z-2.459
X-0.561 Y117.303 Z-2.482
X-0.569 Y117.232 Z-2.49
G3 X-0.59 Y115.486 I8.048 J-0.967
G1 X-0.578 Y115.395
X-0.492 Y115.272
X-0.39 Y115.162
X-0.276 Y115.065
X-0.154 Y114.977
X-0.026 Y114.899
X0.107 Y114.829
X0.243 Y114.766
X0.382 Y114.71
X0.523 Y114.659
X0.666 Y114.613
X0.81 Y114.572
X0.956 Y114.534
X1.102 Y114.501
X1.249 Y114.471
X1.396 Y114.443
X1.544 Y114.419
X1.692 Y114.396
X1.841 Y114.376
X1.99 Y114.358
X2.139 Y114.342
X2.288 Y114.327
X2.438 Y114.314
X2.587 Y114.301
X2.744 Y114.29
X2.918 Y114.279
X3.114 Y114.267
X3.339 Y114.256
X3.603 Y114.244
X3.92 Y114.233
X4.318 Y114.221
X4.853 Y114.21
X5.591 Y114.199
X6.328 Y114.194
X7.066 Y114.191
X8.542 Y114.188
X15.182 Y114.187
X41.94
X42.133 Y114.213
X42.312 Y114.287
X42.465 Y114.405
X42.575 Y114.514
X42.695 Y114.627
X42.769 Y114.682
X42.862 Y114.749
X43.033 Y114.85
X43.198 Y114.924
X43.365 Y114.986
X43.479 Y115.017
X43.533 Y115.03
X43.701 Y115.058
X44.036 Y115.08
X44.204 Y115.088
X61.974 Y115.087
X62.141 Y115.079
X62.309 Y115.062
X62.477 Y115.03
X62.53 Y115.017
X62.644 Y114.981
X62.812 Y114.919
X62.966 Y114.85
X63.228 Y114.745
X63.599 Y114.631
X64.133 Y114.512
X64.864 Y114.411
X65.6 Y114.359
X66.338 Y114.332
X67.075 Y114.317
X67.813 Y114.31
X68.551 Y114.306
X70.026 Y114.303
X74.453 Y114.302
X113.558
X131.45
X131.634 Y114.291
X131.81 Y114.235
X132.127 Y114.047
X132.384 Y113.782
X132.794 Y113.169
X133.027 Y112.469
X133.155 Y111.742
X133.224 Y111.008
X133.261 Y110.271
X133.28 Y109.533
X133.29 Y108.795
X133.296 Y108.058
X133.298 Y107.32
X133.301 Y105.844
X133.302 Y98.466
Y82.234
Y65.951
X133.327 Y65.757
X133.403 Y65.577
X133.523 Y65.423
X133.557 Y65.389
X133.695 Y65.216
X133.725 Y65.171
X133.8 Y65.049
X133.887 Y64.881
X133.961 Y64.713
X134.011 Y64.546
X134.049 Y64.378
X134.06 Y64.313
X134.074 Y64.21
X134.087 Y63.707
Y50.293
X134.074 Y49.79
X134.06 Y49.687
X134.049 Y49.622
X134.011 Y49.454
X133.961 Y49.287
X133.892 Y49.131
X133.727 Y48.701
X133.612 Y48.31
X133.493 Y47.739
X133.401 Y47.007
X133.354 Y46.271
X133.329 Y45.533
X133.316 Y44.796
X133.309 Y44.058
X133.306 Y43.32
X133.303 Y41.844
X133.302 Y36.68
Y1.449
X133.257 Y1.27
X133.094 Y0.939
X132.843 Y0.669
X132.245 Y0.237
X131.549 Y-0.01
X130.824 Y-0.146
X130.09 Y-0.219
X129.353 Y-0.258
X128.616 Y-0.279
X127.878 Y-0.29
X127.14 Y-0.295
X126.402 Y-0.298
X124.937 Y-0.301
X124.752 Y-0.326
X124.58 Y-0.399
X124.434 Y-0.514
X124.337 Y-0.597
X124.23 Y-0.682
X124.169 Y-0.727
X123.967 Y-0.85
X123.834 Y-0.909
X123.666 Y-0.977
X123.499 Y-1.024
X123.331 Y-1.057
X123.163 Y-1.079
X122.996 Y-1.086
X122.828 Y-1.087
X62.141
X61.974 Y-1.085
X61.806 Y-1.077
X61.638 Y-1.052
X61.471 Y-1.015
X61.303 Y-0.967
X61.135 Y-0.895
X61.033 Y-0.85
X60.896 Y-0.789
X60.568 Y-0.676
X60.109 Y-0.559
X59.404 Y-0.439
X58.669 Y-0.373
X57.932 Y-0.339
X57.195 Y-0.321
X56.457 Y-0.312
X55.93 Y-0.308
X55.747 Y-0.332
X55.576 Y-0.402
X55.429 Y-0.514
X55.268 Y-0.652
X55.228 Y-0.682
X55.1 Y-0.771
X54.964 Y-0.85
X54.765 Y-0.935
X54.597 Y-0.997
X54.43 Y-1.042
X54.262 Y-1.067
X54.094 Y-1.081
X53.759 Y-1.086
X53.592 Y-1.087
X1.119
X0.952 Y-1.084
X0.784 Y-1.073
X0.616 Y-1.051
X0.449 Y-1.009
X0.281 Y-0.955
X0.113 Y-0.89
X0.033 Y-0.85
X-0.054 Y-0.798
X-0.222 Y-0.688
X-0.389 Y-0.554
X-0.557 Y-0.386
X-0.593 Y-0.347
X-0.725 Y-0.174
X-0.823 Y-0.011
X-0.892 Y0.12
X-0.972 Y0.324
X-1.02 Y0.492
X-1.057 Y0.659
X-1.079 Y0.827
X-1.085 Y0.995
X-1.087 Y1.163
Y51.97
X-1.079 Y52.137
X-1.06 Y52.312
X-1.032 Y52.473
X-0.983 Y52.64
X-0.92 Y52.808
X-0.892 Y52.871
X-0.844 Y52.976
X-0.781 Y53.112
X-0.668 Y53.447
X-0.551 Y53.917
X-0.431 Y54.645
X-0.369 Y55.38
X-0.337 Y56.117
X-0.32 Y56.855
X-0.311 Y57.593
X-0.308 Y58.054
X-0.333 Y58.247
X-0.407 Y58.428
X-0.525 Y58.582
X-0.557 Y58.614
X-0.61 Y58.677
X-0.737 Y58.844
X-0.837 Y59.012
X-0.892 Y59.135
X-0.982 Y59.348
X-1.027 Y59.515
X-1.06 Y59.689
X-1.08 Y59.851
X-1.087 Y60.354
Y102.777
X-1.081 Y102.944
X-1.06 Y103.302
X-1.035 Y103.447
X-0.992 Y103.615
X-0.932 Y103.783
X-0.892 Y103.877
X-0.858 Y103.95
X-0.793 Y104.086
X-0.681 Y104.41
X-0.564 Y104.861
X-0.444 Y105.552
X-0.376 Y106.287
X-0.34 Y107.024
X-0.322 Y107.761
X-0.312 Y108.499
X-0.307 Y109.237
X-0.305 Y109.975
X-0.302 Y111.635
X-0.257 Y111.814
X-0.168 Y111.976
X0.083 Y112.246
X0.706 Y112.641
X1.419 Y112.83
X2.152 Y112.91
X2.89 Y112.938
X3.628 Y112.943
X4.365 Y112.939
X5.841 Y112.928
X6.579 Y112.924
X8.054 Y112.92
X10.268 Y112.918
X40.518 Y112.917
X41.133 Y112.92
X41.479 Y112.949
X41.734 Y112.991
X41.825 Y113.035
X41.893 Y113.11
X41.926 Y113.206
X41.943 Y113.341
X41.98 Y113.508
X42.024 Y113.666
X42.093 Y113.844
X42.1 Y113.885 Z-2.483
X42.107 Y113.921 Z-2.462
X42.111 Y113.948 Z-2.43
Y113.962 Z-2.399
Y113.966 Z-2.365
G0 Z5.
X-0.91 Y104.308
Z-1.855
G1 Z-2.172 F1016.
X-0.911 Y104.3 Z-2.243
X-0.916 Y104.277 Z-2.31
X-0.924 Y104.24 Z-2.37
X-0.934 Y104.191 Z-2.421
X-0.946 Y104.132 Z-2.459
X-0.959 Y104.066 Z-2.482
X-0.973 Y103.997 Z-2.49
G3 X-0.858 Y103.95 I0.062 J-0.013
G1 X-0.761 Y104.118
X-0.725 Y104.172
X-0.642 Y104.286
X-0.557 Y104.387
X-0.497 Y104.453
X-0.389 Y104.556
X-0.311 Y104.621
X-0.222 Y104.692
X-0.104 Y104.784
X-0.004 Y104.897
X0.105 Y105.041
X0.213 Y105.211
X0.329 Y105.43
X0.451 Y105.712
X0.574 Y106.077
X0.701 Y106.585
X0.822 Y107.312
X0.888 Y108.047
X0.924 Y108.784
X0.944 Y109.522
X0.95 Y109.891
X1.065 Y110.241
X1.28 Y110.541
X1.83 Y111.033
X2.508 Y111.323
X3.228 Y111.484
X3.961 Y111.569
X4.698 Y111.612
X5.435 Y111.633
X6.173 Y111.642
X6.911 Y111.646
X7.649 Y111.648
X39.375 Y111.647
X40.112 Y111.648
X40.743 Y111.665
X41.065 Y111.7
X41.3 Y111.745
X41.368 Y111.764
X41.546 Y111.839
X41.698 Y111.956
X41.814 Y112.109
X41.888 Y112.287
X41.912 Y112.478
Y112.837
X41.915 Y113.005
X41.921 Y113.173
X41.926 Y113.206
X41.927 Y113.237 Z-2.486
X41.922 Y113.274 Z-2.47
X41.917 Y113.304 Z-2.442
X41.914 Y113.323 Z-2.406
X41.913 Y113.33 Z-2.365
G0 Z5.
X-0.108 Y105.034
Z-1.855
G1 Z-2.172 F1016.
X-0.113 Y105.028 Z-2.243
X-0.127 Y105.01 Z-2.31
X-0.151 Y104.98 Z-2.37
X-0.182 Y104.94 Z-2.421
X-0.219 Y104.893 Z-2.459
X-0.261 Y104.84 Z-2.482
X-0.305 Y104.785 Z-2.49
G3 X-0.222 Y104.692 I0.05 J-0.039
G1 X-0.075 Y104.789
X-0.054 Y104.801
X0.113 Y104.889
X0.284 Y104.957
X0.375 Y104.986
X0.515 Y105.038
X0.649 Y105.107
X0.773 Y105.19
X0.889 Y105.286
X1.009 Y105.402
X1.129 Y105.54
X1.263 Y105.72
X1.405 Y105.947
X1.537 Y106.201
X1.682 Y106.545
X1.819 Y106.961
X1.961 Y107.545
X2.077 Y108.274
X2.167 Y108.632
X2.343 Y108.956
X2.823 Y109.516
X3.467 Y109.877
X4.171 Y110.095
X4.898 Y110.222
X5.633 Y110.293
X6.369 Y110.333
X7.107 Y110.354
X7.845 Y110.365
X8.583 Y110.371
X9.32 Y110.374
X10.796 Y110.377
X27.028
X38.833
X39.571 Y110.381
X40.295 Y110.403
X40.693 Y110.447
X40.972 Y110.501
X41.227 Y110.572
X41.426 Y110.646
X41.482 Y110.671
X41.658 Y110.786
X41.796 Y110.945
X41.883 Y111.136
X41.912 Y111.344
Y112.478
X41.904 Y112.515 Z-2.484
X41.896 Y112.549 Z-2.466
X41.89 Y112.576 Z-2.438
X41.885 Y112.593 Z-2.404
X41.884 Y112.599 Z-2.365
G0 Z5.
X0.577 Y105.285
Z-1.855
G1 Z-2.172 F1016.
X0.57 Y105.28 Z-2.243
X0.551 Y105.266 Z-2.31
X0.521 Y105.244 Z-2.37
X0.48 Y105.214 Z-2.421
X0.431 Y105.179 Z-2.459
X0.377 Y105.139 Z-2.482
X0.32 Y105.098 Z-2.49
G3 X0.375 Y104.986 I0.037 J-0.051
G1 X0.449 Y105.009
X0.616 Y105.051
X0.784 Y105.073
X0.952 Y105.084
X1.044 Y105.086
X1.193 Y105.097
X1.339 Y105.132
X1.479 Y105.185
X1.613 Y105.253
X1.744 Y105.336
X1.873 Y105.433
X2.019 Y105.562
X2.162 Y105.71
X2.315 Y105.897
X2.478 Y106.133
X2.632 Y106.398
X2.949 Y107.064
X3.114 Y107.394
X3.546 Y107.992
X4.149 Y108.417
X4.833 Y108.693
X5.551 Y108.865
X6.282 Y108.967
X7.017 Y109.028
X7.754 Y109.062
X8.491 Y109.082
X9.229 Y109.094
X9.967 Y109.1
X10.705 Y109.103
X12.18 Y109.106
X16.607 Y109.107
X38.004
X38.742 Y109.109
X39.479 Y109.12
X40.15 Y109.162
X40.631 Y109.231
X40.964 Y109.306
X41.235 Y109.391
X41.448 Y109.477
X41.503 Y109.505
X41.672 Y109.62
X41.802 Y109.778
X41.884 Y109.965
X41.912 Y110.167
Y111.344
X41.904 Y111.381 Z-2.484
X41.896 Y111.415 Z-2.466
X41.89 Y111.442 Z-2.438
X41.885 Y111.459 Z-2.404
X41.884 Y111.465 Z-2.365
G0 Z5.
X1.323 Y105.315
Z-1.855
G1 Z-2.172 F1016.
X1.315 Y105.312 Z-2.243
X1.293 Y105.305 Z-2.31
X1.257 Y105.292 Z-2.37
X1.21 Y105.275 Z-2.421
X1.153 Y105.255 Z-2.459
X1.09 Y105.233 Z-2.482
X1.024 Y105.209 Z-2.49
G3 X1.044 Y105.086 I0.021 J-0.06
G1 X1.119 Y105.088
X1.958
X2.107 Y105.095
X2.254 Y105.126
X2.397 Y105.172
X2.534 Y105.232
X2.668 Y105.304
X2.823 Y105.405
X3.003 Y105.544
X3.287 Y105.801
X3.792 Y106.339
X4.349 Y106.823
X4.993 Y107.183
X5.69 Y107.427
X6.41 Y107.585
X7.141 Y107.685
X7.876 Y107.746
X8.613 Y107.784
X9.351 Y107.806
X10.089 Y107.819
X10.826 Y107.827
X11.564 Y107.831
X12.302 Y107.834
X13.778 Y107.836
X19.68 Y107.837
X37.388 Y107.838
X38.125 Y107.84
X38.863 Y107.849
X39.6 Y107.881
X40.253 Y107.949
X40.731 Y108.039
X41.062 Y108.129
X41.319 Y108.221
X41.47 Y108.29
X41.652 Y108.407
X41.794 Y108.57
X41.883 Y108.767
X41.913 Y108.981
Y109.484
X41.912 Y110.167
X41.904 Y110.204 Z-2.484
X41.896 Y110.238 Z-2.466
X41.89 Y110.265 Z-2.438
X41.885 Y110.282 Z-2.404
X41.884 Y110.288 Z-2.365
G0 Z5.
X2.241 Y105.311
Z-1.855
G1 Z-2.172 F1016.
X2.234 Y105.308 Z-2.243
X2.211 Y105.301 Z-2.31
X2.175 Y105.289 Z-2.37
X2.128 Y105.273 Z-2.421
X2.071 Y105.254 Z-2.459
X2.007 Y105.233 Z-2.482
X1.94 Y105.211 Z-2.49
G3 X1.958 Y105.088 I0.02 J-0.06
G1 X2.963
X3.113 Y105.095
X3.262 Y105.115
X3.456 Y105.158
X3.715 Y105.238
X4.4 Y105.513
X5.077 Y105.805
X5.775 Y106.046
X6.491 Y106.223
X7.219 Y106.345
X7.952 Y106.426
X8.688 Y106.479
X9.425 Y106.513
X10.162 Y106.534
X10.9 Y106.547
X11.638 Y106.555
X12.376 Y106.56
X13.114 Y106.563
X14.589 Y106.566
X19.016 Y106.567
X36.724 Y106.568
X37.461 Y106.569
X38.199 Y106.577
X38.937 Y106.597
X39.673 Y106.645
X40.333 Y106.734
X40.783 Y106.831
X41.129 Y106.936
X41.365 Y107.028
X41.593 Y107.14
X41.771 Y107.245
X41.831 Y107.287
X41.977 Y107.423
X42.081 Y107.592
X42.137 Y107.783
X42.139 Y107.982
X42.089 Y108.174
X42.033 Y108.31
X41.981 Y108.478
X41.947 Y108.645
X41.924 Y108.813
X41.913 Y108.981
X41.902 Y109.017 Z-2.484
X41.892 Y109.051 Z-2.466
X41.884 Y109.077 Z-2.438
X41.879 Y109.093 Z-2.404
X41.877 Y109.099 Z-2.365
G0 Z5.
X3.247 Y105.311
Z-1.855
G1 Z-2.172 F1016.
X3.24 Y105.308 Z-2.243
X3.217 Y105.301 Z-2.31
X3.181 Y105.289 Z-2.37
X3.134 Y105.273 Z-2.421
X3.076 Y105.254 Z-2.459
X3.013 Y105.233 Z-2.482
X2.946 Y105.211 Z-2.49
G3 X2.963 Y105.088 I0.02 J-0.06
G1 X5.981
X6.718 Y105.124
X7.455 Y105.149
X8.192 Y105.184
X8.929 Y105.216
X9.667 Y105.241
X10.404 Y105.26
X11.142 Y105.273
X11.88 Y105.282
X12.618 Y105.288
X13.355 Y105.291
X14.831 Y105.295
X17.782 Y105.297
X35.49
X36.228 Y105.298
X36.965 Y105.3
X37.703 Y105.307
X38.441 Y105.325
X39.178 Y105.363
X39.912 Y105.436
X40.516 Y105.541
X40.992 Y105.663
X41.357 Y105.789
X41.646 Y105.916
X41.86 Y106.031
X42.057 Y106.158
X42.219 Y106.281
X42.356 Y106.406
X42.487 Y106.544
X42.527 Y106.594
X42.632 Y106.771
X42.685 Y106.97
X42.681 Y107.175
X42.62 Y107.372
X42.508 Y107.544
X42.359 Y107.715
X42.292 Y107.807
X42.182 Y107.975
X42.102 Y108.142
X42.089 Y108.174
X42.067 Y108.205 Z-2.484
X42.047 Y108.233 Z-2.466
X42.031 Y108.255 Z-2.438
X42.021 Y108.27 Z-2.404
X42.017 Y108.275 Z-2.365
G0 Z5.
X6.265 Y105.311
Z-1.855
G1 Z-2.172 F1016.
X6.257 Y105.308 Z-2.243
X6.235 Y105.301 Z-2.31
X6.199 Y105.289 Z-2.37
X6.151 Y105.273 Z-2.421
X6.094 Y105.254 Z-2.459
X6.03 Y105.233 Z-2.482
X5.963 Y105.211 Z-2.49
G3 X5.981 Y105.088 I0.02 J-0.06
G1 X41.354
X41.553 Y105.097
X41.731 Y105.121
X41.917 Y105.161
X42.106 Y105.217
X42.288 Y105.288
X42.449 Y105.366
X42.615 Y105.464
X42.751 Y105.56
X42.873 Y105.661
X42.994 Y105.779
X43.093 Y105.892
X43.182 Y106.013
X43.264 Y106.145
X43.29 Y106.196
X43.36 Y106.409
X43.364 Y106.632
X43.301 Y106.847
X43.176 Y107.033
X43.002 Y107.174
X42.862 Y107.255
X42.695 Y107.375
X42.582 Y107.472
X42.527 Y107.522
X42.508 Y107.544
G3 X41.989 Y107.463 I-0.232 J-0.217
G1 X41.078 Y105.541
G3 X41.233 Y105.116 I0.287 J-0.136
X41.354 Y105.088 I0.132 J0.289
G1 X42.695
X42.845 Y105.095
X42.993 Y105.119
X43.137 Y105.161
X43.275 Y105.218
X43.407 Y105.29
X43.53 Y105.375
X43.645 Y105.472
X43.749 Y105.58
X43.84 Y105.699
X43.92 Y105.826
X43.986 Y105.961
X44.002 Y106.007
X44.046 Y106.206
X44.033 Y106.408
X43.966 Y106.6
X43.849 Y106.767
X43.691 Y106.895
X43.504 Y106.976
X43.365 Y107.014
X43.198 Y107.074
X43.07 Y107.136
X43.03 Y107.157
X43.002 Y107.174
G3 X42.884 Y107.21 I-0.15 J-0.28
X42.536 Y106.925 I-0.031 J-0.316
G1 X42.39 Y105.436
G3 X42.574 Y105.116 I0.316 J-0.031
X42.695 Y105.088 I0.132 J0.289
G1 X43.625
X43.775 Y105.095
X43.921 Y105.131
X44.059 Y105.188
X44.189 Y105.264
X44.307 Y105.355
X44.414 Y105.461
X44.506 Y105.58
X44.583 Y105.708
X44.645 Y105.845
X44.691 Y105.988
X44.701 Y106.037
X44.712 Y106.246
X44.664 Y106.45
X44.562 Y106.633
X44.412 Y106.779
X44.227 Y106.878
X44.022 Y106.921
X43.701 Y106.942
X43.529 Y106.969
X43.504 Y106.976
G3 X43.117 Y106.616 I-0.074 J-0.309
G1 X43.323 Y105.354
G3 X43.505 Y105.116 I0.313 J0.051
X43.625 Y105.088 I0.132 J0.289
G1 X44.371
X44.521 Y105.095
X44.665 Y105.136
X44.801 Y105.201
X44.925 Y105.284
X45.037 Y105.384
X45.135 Y105.498
X45.217 Y105.623
X45.284 Y105.757
X45.335 Y105.899
X45.367 Y106.045
X45.372 Y106.091
X45.366 Y106.297
X45.302 Y106.494
X45.187 Y106.666
X45.029 Y106.799
X44.84 Y106.884
X44.636 Y106.912
X44.204
X44.022 Y106.921
G3 X43.709 Y106.51 I-0.009 J-0.317
G1 X44.079 Y105.311
G3 X44.251 Y105.116 I0.303 J0.094
X44.371 Y105.088 I0.132 J0.289
G1 X45.042
X45.192 Y105.095
X45.336 Y105.136
X45.471 Y105.2
X45.595 Y105.285
X45.706 Y105.386
X45.803 Y105.5
X45.885 Y105.626
X45.95 Y105.761
X45.999 Y105.903
X46.03 Y106.05
X46.035 Y106.101
X46.026 Y106.306
X45.961 Y106.501
X45.846 Y106.67
X45.688 Y106.801
X45.5 Y106.884
X45.297 Y106.912
X44.636
G3 X44.515 Y106.884 I0.011 J-0.317
X44.346 Y106.493 I0.132 J-0.289
G1 X44.752 Y105.302
G3 X44.921 Y105.116 I0.3 J0.103
X45.042 Y105.088 I0.132 J0.289
G1 X45.712
X45.862 Y105.095
X46.006 Y105.137
X46.141 Y105.203
X46.264 Y105.288
X46.375 Y105.39
X46.47 Y105.505
X46.551 Y105.632
X46.615 Y105.767
X46.663 Y105.909
X46.694 Y106.056
X46.698 Y106.106
X46.688 Y106.31
X46.623 Y106.503
X46.507 Y106.672
X46.35 Y106.802
X46.163 Y106.884
X45.96 Y106.912
X45.297
G3 X45.177 Y106.884 I0.011 J-0.317
X45.009 Y106.491 I0.132 J-0.289
G1 X45.424 Y105.3
G3 X45.592 Y105.116 I0.3 J0.104
X45.712 Y105.088 I0.132 J0.289
G1 X46.349
X46.499 Y105.095
X46.644 Y105.132
X46.781 Y105.193
X46.906 Y105.275
X47.019 Y105.374
X47.117 Y105.488
X47.201 Y105.612
X47.267 Y105.747
X47.318 Y105.888
X47.352 Y106.034
X47.358 Y106.094
X47.351 Y106.3
X47.287 Y106.496
X47.172 Y106.667
X47.014 Y106.8
X46.826 Y106.884
X46.621 Y106.912
X45.96
G3 X45.84 Y106.884 I0.011 J-0.317
X45.669 Y106.497 I0.132 J-0.289
G1 X46.058 Y105.306
G3 X46.228 Y105.116 I0.302 J0.099
X46.349 Y105.088 I0.132 J0.289
G1 X47.019
X47.169 Y105.095
X47.314 Y105.134
X47.45 Y105.197
X47.575 Y105.28
X47.687 Y105.38
X47.784 Y105.494
X47.867 Y105.619
X47.932 Y105.754
X47.982 Y105.896
X48.015 Y106.042
X48.02 Y106.098
X48.012 Y106.303
X47.948 Y106.498
X47.832 Y106.669
X47.675 Y106.801
X47.487 Y106.884
X47.283 Y106.912
X46.621
G3 X46.501 Y106.884 I0.011 J-0.317
X46.331 Y106.495 I0.132 J-0.289
G1 X46.729 Y105.304
G3 X46.899 Y105.116 I0.301 J0.101
X47.019 Y105.088 I0.132 J0.289
G1 X47.69
X47.84 Y105.095
X47.984 Y105.135
X48.12 Y105.2
X48.244 Y105.284
X48.355 Y105.385
X48.451 Y105.5
X48.533 Y105.626
X48.598 Y105.761
X48.646 Y105.903
X48.678 Y106.05
X48.683 Y106.102
X48.674 Y106.307
X48.609 Y106.501
X48.493 Y106.67
X48.336 Y106.801
X48.148 Y106.884
X47.945 Y106.912
X47.283
G3 X47.162 Y106.884 I0.011 J-0.317
X46.994 Y106.492 I0.132 J-0.289
G1 X47.401 Y105.302
G3 X47.569 Y105.116 I0.3 J0.103
X47.69 Y105.088 I0.132 J0.289
G1 X48.319
X48.469 Y105.095
X48.615 Y105.129
X48.753 Y105.188
X48.88 Y105.268
X48.994 Y105.366
X49.093 Y105.478
X49.178 Y105.601
X49.247 Y105.735
X49.299 Y105.876
X49.334 Y106.021
X49.342 Y106.086
X49.336 Y106.294
X49.274 Y106.492
X49.159 Y106.664
X49.001 Y106.799
X48.811 Y106.883
X48.606 Y106.912
X47.945
G3 X47.825 Y106.884 I0.011 J-0.317
X47.653 Y106.5 I0.132 J-0.289
G1 X48.027 Y105.31
G3 X48.199 Y105.116 I0.303 J0.095
X48.319 Y105.088 I0.132 J0.289
G1 X48.99
X49.14 Y105.095
X49.285 Y105.131
X49.422 Y105.192
X49.548 Y105.273
X49.661 Y105.372
X49.76 Y105.485
X49.844 Y105.609
X49.911 Y105.743
X49.962 Y105.884
X49.996 Y106.03
X50.003 Y106.091
X49.997 Y106.297
X49.933 Y106.494
X49.818 Y106.666
X49.66 Y106.799
X49.471 Y106.884
X49.267 Y106.912
X48.606
G3 X48.485 Y106.884 I0.011 J-0.317
X48.315 Y106.498 I0.132 J-0.289
G1 X48.699 Y105.307
G3 X48.869 Y105.116 I0.302 J0.097
X48.99 Y105.088 I0.132 J0.289
G1 X49.66
X49.81 Y105.095
X49.955 Y105.133
X50.092 Y105.196
X50.217 Y105.278
X50.329 Y105.378
X50.427 Y105.491
X50.51 Y105.616
X50.576 Y105.751
X50.626 Y105.892
X50.659 Y106.039
X50.665 Y106.095
X50.657 Y106.301
X50.593 Y106.497
X50.478 Y106.668
X50.32 Y106.8
X50.132 Y106.884
X49.928 Y106.912
X49.267
G3 X49.146 Y106.884 I0.011 J-0.317
X48.976 Y106.495 I0.132 J-0.289
G1 X49.37 Y105.305
G3 X49.54 Y105.116 I0.301 J0.1
X49.66 Y105.088 I0.132 J0.289
G1 X50.331
X50.481 Y105.095
X50.625 Y105.135
X50.761 Y105.199
X50.885 Y105.282
X50.997 Y105.383
X51.094 Y105.498
X51.176 Y105.623
X51.241 Y105.758
X51.29 Y105.9
X51.322 Y106.046
X51.327 Y106.1
X51.319 Y106.305
X51.254 Y106.5
X51.138 Y106.67
X50.981 Y106.801
X50.793 Y106.884
X50.59 Y106.912
X49.928
G3 X49.807 Y106.884 I0.011 J-0.317
X49.638 Y106.493 I0.132 J-0.289
G1 X50.041 Y105.303
G3 X50.21 Y105.116 I0.301 J0.102
X50.331 Y105.088 I0.132 J0.289
G1 X51.001
X51.151 Y105.095
X51.295 Y105.136
X51.43 Y105.202
X51.554 Y105.287
X51.665 Y105.388
X51.761 Y105.503
X51.842 Y105.629
X51.906 Y105.765
X51.955 Y105.907
X51.986 Y106.054
X51.99 Y106.104
X51.981 Y106.309
X51.915 Y106.502
X51.8 Y106.671
X51.642 Y106.802
X51.455 Y106.884
X51.252 Y106.912
G3 X51.132 Y106.884 I0.011 J-0.317
X50.953 Y106.661 I0.132 J-0.289
G1 X50.702 Y105.47
G3 X50.881 Y105.116 I0.311 J-0.066
X51.001 Y105.088 I0.132 J0.289
G1 X51.672
X51.822 Y105.095
X51.966 Y105.138
X52.1 Y105.205
X52.223 Y105.29
X52.333 Y105.393
X52.428 Y105.508
X52.509 Y105.635
X52.572 Y105.771
X52.619 Y105.913
X52.65 Y106.06
X52.654 Y106.108
X52.643 Y106.312
X52.577 Y106.505
X52.461 Y106.673
X52.304 Y106.802
X52.118 Y106.884
X51.916 Y106.912
G3 X51.795 Y106.884 I0.011 J-0.317
X51.616 Y106.659 I0.132 J-0.289
G1 X51.372 Y105.468
G3 X51.551 Y105.116 I0.311 J-0.064
X51.672 Y105.088 I0.132 J0.289
G1 X52.301
X52.451 Y105.095
X52.597 Y105.131
X52.733 Y105.192
X52.859 Y105.274
X52.972 Y105.373
X53.071 Y105.486
X53.155 Y105.61
X53.222 Y105.744
X53.273 Y105.885
X53.307 Y106.031
X53.313 Y106.092
X53.306 Y106.299
X53.243 Y106.495
X53.128 Y106.667
X52.97 Y106.8
X52.781 Y106.884
X52.577 Y106.912
G3 X52.456 Y106.884 I0.011 J-0.317
X52.278 Y106.667 I0.132 J-0.289
G1 X52.003 Y105.476
G3 X52.18 Y105.116 I0.309 J-0.072
X52.301 Y105.088 I0.132 J0.289
G1 X52.972
X53.121 Y105.095
X53.267 Y105.133
X53.403 Y105.196
X53.528 Y105.279
X53.64 Y105.378
X53.737 Y105.492
X53.821 Y105.617
X53.837 Y105.652
X53.879 Y105.756
X53.904 Y105.865
X53.912 Y105.977
G3 X53.381 Y106.2 I-0.317 J-0.011
G1 X52.768 Y105.639
G3 X52.851 Y105.116 I0.214 J-0.234
X52.972 Y105.088 I0.132 J0.289
G1 X53.592
X53.625 Y105.091
X53.659 Y105.098
X53.693 Y105.109
X53.727 Y105.124
X53.759 Y105.144
X53.8 Y105.176
X53.841 Y105.218
X53.867 Y105.255
X53.886 Y105.292
X53.901 Y105.334
X53.91 Y105.376
X53.912 Y105.46
Y106.298
X53.905 Y106.448
X53.841 Y106.631
X53.717 Y106.781
X53.549 Y106.878
X53.358 Y106.912
G3 X53.238 Y106.884 I0.011 J-0.317
X53.12 Y106.399 I0.132 J-0.289
G1 X53.346 Y106.112
G3 X53.912 Y106.298 I0.249 J0.197
G1 Y106.466
X53.908 Y106.633
X53.899 Y106.675
X53.882 Y106.717
X53.859 Y106.759
X53.825 Y106.801
X53.792 Y106.831
X53.759 Y106.856
X53.717 Y106.881
X53.675 Y106.898
X53.633 Y106.908
X53.592 Y106.912
X50.59
X50.553 Y106.904 Z-2.484
X50.519 Y106.896 Z-2.466
X50.492 Y106.89 Z-2.438
X50.475 Y106.885 Z-2.404
X50.469 Y106.884 Z-2.365
G0 Z5.
X63.317 Y114.935
Z-1.855
G1 Z-2.172 F1016.
X63.309 Y114.936 Z-2.243
X63.285 Y114.938 Z-2.31
X63.248 Y114.942 Z-2.37
X63.198 Y114.948 Z-2.421
X63.138 Y114.954 Z-2.459
X63.071 Y114.962 Z-2.482
X63.001 Y114.969 Z-2.49
G3 X62.966 Y114.85 I-0.007 J-0.063
G1 X62.979 Y114.843
X63.235 Y114.682
X63.482 Y114.469
X63.539 Y114.408
X63.592 Y114.347
X63.65 Y114.269
X63.745 Y114.153
X63.853 Y114.048
X63.976 Y113.948
X64.135 Y113.838
X64.336 Y113.723
X64.582 Y113.606
X64.911 Y113.482
X65.342 Y113.357
X65.97 Y113.229
X66.703 Y113.14
X67.439 Y113.091
X68.176 Y113.064
X68.914 Y113.049
X69.652 Y113.041
X70.389 Y113.037
X71.127 Y113.035
X72.603 Y113.032
X80.719
X113.92
X129.784
X130.15 Y112.993
X130.492 Y112.854
X130.789 Y112.635
X131.287 Y112.09
X131.599 Y111.422
X131.785 Y110.708
X131.893 Y109.978
X131.954 Y109.243
X131.989 Y108.506
X132.008 Y107.768
X132.018 Y107.03
X132.024 Y106.293
X132.028 Y105.555
X132.03 Y104.079
X132.032 Y98.915
Y79.731
Y67.188
X132.041 Y66.686
X132.046 Y66.64
X132.097 Y66.432
X132.206 Y66.248
X132.363 Y66.102
X132.556 Y66.008
X132.719 Y65.955
X132.89 Y65.887
X133.054 Y65.801
X133.222 Y65.691
X133.306 Y65.626
X133.392 Y65.552
X133.523 Y65.423
X133.556 Y65.403 Z-2.484
X133.585 Y65.385 Z-2.466
X133.609 Y65.371 Z-2.438
X133.624 Y65.362 Z-2.404
X133.629 Y65.359 Z-2.365
G0 Z5.
X63.998 Y114.174
Z-1.855
G1 Z-2.172 F1016.
X63.992 Y114.179 Z-2.243
X63.973 Y114.192 Z-2.31
X63.942 Y114.214 Z-2.37
X63.901 Y114.243 Z-2.421
X63.851 Y114.277 Z-2.459
X63.796 Y114.316 Z-2.482
X63.739 Y114.357 Z-2.49
G3 X63.65 Y114.269 I-0.036 J-0.052
G1 X63.717 Y114.179
X63.82 Y114.011
X63.908 Y113.844
X63.972 Y113.676
X63.985 Y113.627
X64.032 Y113.484
X64.101 Y113.351
X64.185 Y113.227
X64.281 Y113.111
X64.397 Y112.993
X64.549 Y112.86
X64.726 Y112.73
X64.939 Y112.598
X65.223 Y112.452
X65.549 Y112.316
X65.993 Y112.172
X66.585 Y112.031
X67.314 Y111.918
X68.049 Y111.852
X68.786 Y111.814
X69.524 Y111.792
X70.261 Y111.779
X70.999 Y111.772
X71.737 Y111.767
X72.475 Y111.765
X73.95 Y111.763
X79.853 Y111.762
X113.792
X128.549
X128.908 Y111.68
X129.237 Y111.512
X129.809 Y111.046
X130.188 Y110.413
X130.424 Y109.714
X130.565 Y108.99
X130.648 Y108.257
X130.697 Y107.521
X130.725 Y106.783
X130.741 Y106.046
X130.75 Y105.308
X130.755 Y104.57
X130.758 Y103.832
X130.76 Y102.357
X130.762 Y97.192
Y77.271
Y68.417
X130.764 Y67.679
X130.789 Y67.275
X130.829 Y66.991
X130.885 Y66.746
X130.928 Y66.608
X131.032 Y66.398
X131.196 Y66.232
X131.404 Y66.124
X131.635 Y66.088
X131.881
X132.048 Y66.084
X132.216 Y66.073
X132.384 Y66.051
X132.556 Y66.008
X132.587 Y66.003 Z-2.486
X132.617 Y65.999 Z-2.473
X132.642 Y65.996 Z-2.454
X132.662 Y65.997 Z-2.428
X132.675 Y65.998 Z-2.398
X132.679 Z-2.365
G0 Z5.
X64.275 Y113.412
Z-1.855
G1 Z-2.172 F1016.
X64.271 Y113.418 Z-2.243
X64.258 Y113.438 Z-2.31
X64.237 Y113.47 Z-2.37
X64.209 Y113.511 Z-2.421
X64.176 Y113.562 Z-2.459
X64.139 Y113.617 Z-2.482
X64.1 Y113.676 Z-2.49
G3 X63.985 Y113.627 I-0.053 J-0.035
G1 X64.018 Y113.508
X64.057 Y113.341
X64.079 Y113.173
X64.085 Y113.005
X64.086 Y112.954
X64.096 Y112.805
X64.131 Y112.659
X64.185 Y112.519
X64.253 Y112.385
X64.336 Y112.254
X64.432 Y112.126
X64.56 Y111.982
X64.712 Y111.836
X64.897 Y111.684
X65.138 Y111.518
X65.401 Y111.366
X65.761 Y111.195
X66.166 Y111.041
X66.717 Y110.88
X67.439 Y110.732
X68.171 Y110.639
X68.907 Y110.581
X69.644 Y110.546
X70.381 Y110.524
X71.119 Y110.511
X71.857 Y110.503
X72.595 Y110.498
X73.332 Y110.496
X74.808 Y110.493
X79.235 Y110.492
X113.174
X127.193
X127.555 Y110.42
X127.889 Y110.264
X128.182 Y110.04
X128.682 Y109.497
X129.005 Y108.834
X129.204 Y108.123
X129.323 Y107.395
X129.394 Y106.661
X129.435 Y105.924
X129.459 Y105.187
X129.473 Y104.449
X129.481 Y103.711
X129.485 Y102.974
X129.488 Y102.236
X129.49 Y100.76
X129.492 Y95.595
Y74.937
Y69.034
X129.498 Y68.296
X129.531 Y67.683
X129.584 Y67.29
X129.652 Y66.977
X129.72 Y66.753
X129.81 Y66.525
X129.821 Y66.502
X129.936 Y66.332
X130.094 Y66.2
X130.282 Y66.116
X130.486 Y66.088
X131.635
X131.672 Y66.096 Z-2.484
X131.706 Y66.104 Z-2.466
X131.733 Y66.11 Z-2.438
X131.75 Y66.115 Z-2.404
X131.756 Y66.116 Z-2.365
G0 Z5.
X64.313 Y112.674
Z-1.855
G1 Z-2.172 F1016.
X64.311 Y112.682 Z-2.243
X64.303 Y112.704 Z-2.31
X64.29 Y112.74 Z-2.37
X64.274 Y112.787 Z-2.421
X64.254 Y112.844 Z-2.459
X64.232 Y112.907 Z-2.482
X64.209 Y112.974 Z-2.49
G3 X64.086 Y112.954 I-0.06 J-0.021
G1 X64.088 Y112.837
Y112.075
X64.095 Y111.925
X64.121 Y111.777
X64.164 Y111.633
X64.221 Y111.495
X64.29 Y111.361
X64.383 Y111.212
X64.496 Y111.059
X64.638 Y110.897
X64.81 Y110.729
X65.018 Y110.557
X65.278 Y110.375
X65.579 Y110.198
X65.972 Y110.008
X66.423 Y109.832
X67.005 Y109.659
X67.726 Y109.505
X68.457 Y109.404
X69.192 Y109.337
X69.929 Y109.295
X70.666 Y109.267
X71.404 Y109.25
X72.141 Y109.239
X72.879 Y109.232
X73.617 Y109.228
X74.355 Y109.226
X75.83 Y109.223
X80.257 Y109.222
X113.459
X126.002
X126.356 Y109.12
X126.679 Y108.941
X127.244 Y108.466
X127.622 Y107.833
X127.862 Y107.135
X128.008 Y106.412
X128.096 Y105.679
X128.148 Y104.943
X128.179 Y104.206
X128.197 Y103.469
X128.207 Y102.731
X128.213 Y101.993
X128.217 Y101.255
X128.22 Y99.78
X128.222 Y96.091
Y72.48
Y70.267
X128.223 Y69.529
X128.232 Y68.791
X128.268 Y68.055
X128.337 Y67.507
X128.414 Y67.134
X128.504 Y66.828
X128.588 Y66.609
X128.636 Y66.509
X128.75 Y66.336
X128.909 Y66.202
X129.098 Y66.117
X129.304 Y66.088
X130.486
X130.523 Y66.096 Z-2.484
X130.557 Y66.104 Z-2.466
X130.584 Y66.11 Z-2.438
X130.601 Y66.115 Z-2.404
X130.607 Y66.116 Z-2.365
G0 Z5.
X64.311 Y111.791
Z-1.855
G1 Z-2.172 F1016.
X64.308 Y111.798 Z-2.243
X64.301 Y111.821 Z-2.31
X64.289 Y111.857 Z-2.37
X64.273 Y111.904 Z-2.421
X64.254 Y111.961 Z-2.459
X64.233 Y112.025 Z-2.482
X64.211 Y112.092 Z-2.49
G3 X64.088 Y112.075 I-0.06 J-0.02
G1 Y111.068
X64.095 Y110.919
X64.117 Y110.77
X64.155 Y110.625
X64.207 Y110.484
X64.277 Y110.336
X64.363 Y110.186
X64.476 Y110.022
X64.616 Y109.848
X64.787 Y109.669
X64.998 Y109.481
X65.249 Y109.29
X65.56 Y109.092
X65.931 Y108.895
X66.386 Y108.699
X66.96 Y108.504
X67.675 Y108.323
X68.403 Y108.2
X69.136 Y108.115
X69.871 Y108.059
X70.608 Y108.021
X71.346 Y107.996
X72.083 Y107.98
X72.821 Y107.97
X73.559 Y107.963
X74.297 Y107.959
X75.035 Y107.956
X76.51 Y107.953
X80.199 Y107.952
X113.401
X124.468
X124.835 Y107.909
X125.183 Y107.787
X125.495 Y107.591
X126.033 Y107.086
X126.391 Y106.441
X126.616 Y105.738
X126.752 Y105.013
X126.834 Y104.28
X126.883 Y103.544
X126.911 Y102.806
X126.928 Y102.069
X126.938 Y101.331
X126.944 Y100.593
X126.947 Y99.855
X126.95 Y98.38
X126.952 Y94.691
Y71.081
Y70.343
X126.957 Y69.605
X126.976 Y68.867
X127.025 Y68.131
X127.111 Y67.533
X127.201 Y67.135
X127.302 Y66.815
X127.392 Y66.59
X127.439 Y66.497
X127.555 Y66.328
X127.712 Y66.198
X127.899 Y66.116
X128.102 Y66.087
X129.304 Y66.088
X129.341 Y66.096 Z-2.484
X129.375 Y66.104 Z-2.466
X129.402 Y66.11 Z-2.438
X129.419 Y66.115 Z-2.404
X129.425 Y66.116 Z-2.365
G0 Z5.
X64.311 Y110.785
Z-1.855
G1 Z-2.172 F1016.
X64.308 Y110.792 Z-2.243
X64.301 Y110.815 Z-2.31
X64.289 Y110.851 Z-2.37
X64.273 Y110.898 Z-2.421
X64.254 Y110.955 Z-2.459
X64.233 Y111.019 Z-2.482
X64.211 Y111.086 Z-2.49
G3 X64.088 Y111.068 I-0.06 J-0.02
G1 Y109.987
X64.095 Y109.837
X64.115 Y109.688
X64.152 Y109.543
X64.202 Y109.402
X64.272 Y109.246
X64.356 Y109.092
X64.472 Y108.916
X64.609 Y108.741
X64.787 Y108.549
X64.995 Y108.356
X65.26 Y108.148
X65.569 Y107.943
X65.968 Y107.723
X66.414 Y107.521
X66.993 Y107.313
X67.705 Y107.121
X68.43 Y106.984
X69.162 Y106.888
X69.897 Y106.821
X70.633 Y106.775
X71.37 Y106.743
X72.108 Y106.722
X72.845 Y106.708
X73.583 Y106.699
X74.321 Y106.692
X75.059 Y106.689
X76.534 Y106.684
X78.748 Y106.682
X101.62
X113.425
X123.017
X123.385 Y106.665
X123.744 Y106.579
X124.074 Y106.414
X124.654 Y105.958
X125.048 Y105.334
X125.298 Y104.64
X125.453 Y103.919
X125.546 Y103.187
X125.601 Y102.451
X125.634 Y101.714
X125.654 Y100.977
X125.665 Y100.239
X125.672 Y99.501
X125.676 Y98.763
X125.68 Y97.288
X125.681 Y94.336
X125.682 Y71.464
X125.683 Y70.726
X125.69 Y69.989
X125.71 Y69.251
X125.754 Y68.515
X125.837 Y67.808
X125.939 Y67.295
X126.039 Y66.942
X126.139 Y66.676
X126.243 Y66.454
X126.353 Y66.26
X126.381 Y66.219
X126.512 Y66.073
X126.677 Y65.966
X126.865 Y65.907
X127.061 Y65.899
X127.252 Y65.943
X127.354 Y65.981
X127.522 Y66.03
X127.69 Y66.061
X127.857 Y66.079
X128.025 Y66.087
X128.102
X128.139 Y66.096 Z-2.484
X128.173 Y66.104 Z-2.466
X128.199 Y66.11 Z-2.438
X128.216 Y66.114 Z-2.404
X128.222 Y66.116 Z-2.365
G0 Z5.
X64.311 Y109.703
Z-1.855
G1 Z-2.172 F1016.
X64.308 Y109.711 Z-2.243
X64.301 Y109.733 Z-2.31
X64.289 Y109.769 Z-2.37
X64.273 Y109.817 Z-2.421
X64.254 Y109.874 Z-2.459
X64.233 Y109.938 Z-2.482
X64.211 Y110.005 Z-2.49
G3 X64.088 Y109.987 I-0.06 J-0.02
G1 Y108.813
X64.095 Y108.663
X64.121 Y108.516
X64.162 Y108.371
X64.216 Y108.227
X64.293 Y108.065
X64.386 Y107.902
X64.516 Y107.714
X64.664 Y107.532
X64.864 Y107.323
X65.084 Y107.126
X65.385 Y106.899
X65.71 Y106.692
X66.151 Y106.459
X66.649 Y106.244
X67.276 Y106.032
X67.992 Y105.853
X68.718 Y105.723
X69.45 Y105.629
X70.185 Y105.562
X70.921 Y105.514
X71.658 Y105.481
X72.396 Y105.458
X73.133 Y105.443
X73.871 Y105.432
X74.609 Y105.425
X75.347 Y105.42
X76.084 Y105.417
X77.56 Y105.414
X80.511 Y105.412
X112.975
X121.829
X122.197 Y105.38
X122.551 Y105.279
X122.735 Y105.176
X122.84 Y105.128
X122.951 Y105.096
X123.066 Y105.083
X123.163 Y105.079
X123.331 Y105.057
X123.499 Y105.024
X123.666 Y104.977
X123.72 Y104.957
X123.834 Y104.909
X124.001 Y104.83
X124.074 Y104.789
X124.169 Y104.726
X124.31 Y104.621
X124.337 Y104.599
X124.49 Y104.453
X124.642 Y104.286
X124.76 Y104.118
X124.84 Y103.977
X124.854 Y103.95
X124.932 Y103.783
X124.992 Y103.615
X125.007 Y103.568
X125.035 Y103.447
X125.061 Y103.28
X125.081 Y102.944
X125.088 Y102.777
Y67.396
X125.106 Y67.024
X125.135 Y66.805
X125.177 Y66.606
X125.236 Y66.411
X125.298 Y66.251
X125.377 Y66.088
X125.462 Y65.944
X125.548 Y65.821
X125.648 Y65.701
X125.821 Y65.549
X126.033 Y65.459
X126.263 Y65.439
X126.487 Y65.492
X126.684 Y65.612
X126.824 Y65.719
X127.019 Y65.842
X127.187 Y65.918
X127.252 Y65.943
G3 X127.355 Y66.011 I-0.121 J0.293
X127.307 Y66.5 I-0.224 J0.225
G1 X125.581 Y67.649
G3 X125.116 Y67.517 I-0.176 J-0.264
X125.088 Y67.396 I0.289 J-0.132
G1 Y65.887
X125.095 Y65.737
X125.123 Y65.59
X125.136 Y65.555
X125.242 Y65.361
X125.401 Y65.207
X125.598 Y65.107
X125.816 Y65.069
X126.036 Y65.098
X126.237 Y65.19
X126.402 Y65.338
G3 X126.284 Y65.82 I-0.252 J0.194
G1 X125.538 Y66.164
G3 X125.088 Y65.887 I-0.133 J-0.288
G1 Y65.292
X125.095 Y65.142
X125.138 Y64.998
X125.143 Y64.989
X125.279 Y64.828
X125.463 Y64.725
X125.67 Y64.693
X125.876 Y64.736
X126.054 Y64.849
X126.181 Y65.016
X126.305 Y65.216
X126.348 Y65.273
X126.402 Y65.338
G3 X126.049 Y65.832 I-0.252 J0.194
G1 X125.304 Y65.582
G3 X125.116 Y65.412 I0.101 J-0.301
X125.088 Y65.292 I0.289 J-0.132
G1 Y64.83
X125.095 Y64.68
X125.154 Y64.543
X125.291 Y64.42
X125.462 Y64.354
X125.646
X125.817 Y64.42
X125.953 Y64.543
X126.037 Y64.706
G3 X126.051 Y64.811 I-0.411 J0.107
X125.088 Y64.83 I-0.482 J0.002
G1 Y64.453
X125.095 Y64.304
X125.21 Y64.155
X125.375 Y64.065
X125.562 Y64.049
X125.74 Y64.108
X125.879 Y64.234
X125.957 Y64.404
X125.989 Y64.546
X126.037 Y64.706
G3 X125.89 Y64.989 I-0.23 J0.06
X125.088 Y64.453 I-0.209 J-0.556
G1 Y64.124
X125.095 Y63.974
X125.168 Y63.843
X125.313 Y63.753
X125.482 Y63.723
X125.649 Y63.758
X125.791 Y63.853
X125.888 Y63.994
X125.925 Y64.161
G3 X125.919 Y64.209 I-0.209 J-0.002
X125.894 Y64.281 I-0.41 J-0.099
X125.088 Y64.124 I-0.385 J-0.172
G1 Y63.789
X125.095 Y63.639
X125.172 Y63.51
X125.317 Y63.425
X125.483 Y63.399
X125.647 Y63.437
X125.786 Y63.532
X125.88 Y63.671
X125.916 Y63.836
X125.925 Y64.161
G3 X125.736 Y64.365 I-0.206 J-0.002
X125.088 Y63.789 I-0.05 J-0.597
G1 Y63.489
X125.095 Y63.339
X125.164 Y63.206
X125.309 Y63.115
X125.478 Y63.085
X125.645 Y63.122
X125.786 Y63.219
X125.88 Y63.362
X125.912 Y63.529
X125.913 Y63.707
X125.916 Y63.836
G3 X125.741 Y64.036 I-0.204 J-0.002
X125.105 Y63.612 I-0.081 J-0.567
X125.088 Y63.489 I0.555 J-0.143
G1 Y63.176
X125.095 Y63.026
X125.164 Y62.893
X125.309 Y62.802
X125.477 Y62.772
X125.644 Y62.808
X125.785 Y62.905
X125.88 Y63.048
X125.912 Y63.216
G3 X125.907 Y63.255 I-0.206 J-0.007
X125.88 Y63.335 I-0.405 J-0.093
X125.088 Y63.176 I-0.377 J-0.174
G1 Y62.841
X125.095 Y62.691
X125.171 Y62.562
X125.318 Y62.476
X125.485 Y62.451
X125.65 Y62.491
X125.788 Y62.589
X125.88 Y62.731
X125.912 Y62.897
G3 X125.903 Y62.952 I-0.206 J-0.007
X125.877 Y63.016 I-0.398 J-0.126
X125.088 Y62.841 I-0.372 J-0.19
G1 Y62.533
X125.095 Y62.384
X125.167 Y62.252
X125.312 Y62.163
X125.481 Y62.136
X125.647 Y62.173
X125.787 Y62.271
X125.88 Y62.413
X125.912 Y62.581
G3 X125.906 Y62.627 I-0.206 J-0.007
X125.878 Y62.7 I-0.402 J-0.108
X125.088 Y62.533 I-0.375 J-0.181
G1 Y62.198
X125.095 Y62.048
X125.173 Y61.92
X125.32 Y61.836
X125.488 Y61.813
X125.652 Y61.853
X125.789 Y61.952
X125.881 Y62.094
X125.912 Y62.26
G3 X125.901 Y62.32 I-0.206 J-0.007
X125.088 Y62.198 I-0.396 J-0.137
G1 Y61.897
X125.095 Y61.747
X125.166 Y61.615
X125.312 Y61.526
X125.48 Y61.498
X125.646 Y61.536
X125.787 Y61.633
X125.88 Y61.776
X125.912 Y61.943
G3 X125.906 Y61.989 I-0.206 J-0.007
X125.879 Y62.062 I-0.402 J-0.107
X125.088 Y61.897 I-0.375 J-0.18
G1 Y61.561
X125.095 Y61.412
X125.173 Y61.283
X125.32 Y61.199
X125.487 Y61.176
X125.652 Y61.216
X125.789 Y61.314
X125.881 Y61.457
X125.912 Y61.623
G3 X125.902 Y61.682 I-0.206 J-0.007
X125.876 Y61.741 I-0.396 J-0.136
X125.11 Y61.683 I-0.371 J-0.194
X125.088 Y61.561 I0.395 J-0.137
G1 Y61.226
X125.091 Y61.151
X125.148 Y61.012
X125.291 Y60.911
X125.461 Y60.874
X125.633 Y60.905
X125.78 Y61.
X125.878 Y61.145
X125.912 Y61.316
G3 X125.891 Y61.401 I-0.205 J-0.007
X125.873 Y61.433 I-0.38 J-0.189
X125.088 Y61.226 I-0.362 J-0.222
G1 Y60.938
X125.095 Y60.788
X125.173 Y60.66
X125.319 Y60.576
X125.487 Y60.551
X125.651 Y60.591
X125.789 Y60.689
X125.88 Y60.831
X125.912 Y60.997
G3 X125.902 Y61.054 I-0.206 J-0.007
X125.088 Y60.938 I-0.397 J-0.13
G1 Y60.638
X125.095 Y60.488
X125.165 Y60.356
X125.31 Y60.266
X125.479 Y60.237
X125.645 Y60.274
X125.786 Y60.371
X125.88 Y60.514
X125.912 Y60.682
G3 X125.906 Y60.725 I-0.206 J-0.007
X125.879 Y60.801 I-0.403 J-0.101
X125.088 Y60.638 I-0.376 J-0.177
G1 Y60.437
X125.089 Y60.396
X125.095 Y60.354
X125.106 Y60.315
X125.122 Y60.276
X125.146 Y60.238
X125.175 Y60.199
X125.187 Y60.186
X125.226 Y60.151
X125.265 Y60.126
X125.304 Y60.108
X125.343 Y60.096
X125.385 Y60.089
X125.426 Y60.088
X125.594
X125.636 Y60.092
X125.678 Y60.102
X125.712 Y60.115
X125.745 Y60.132
X125.779 Y60.155
X125.813 Y60.186
X125.846 Y60.226
X125.867 Y60.258
X125.884 Y60.29
X125.897 Y60.322
X125.905 Y60.354
X125.911 Y60.396
X125.912 Y60.437
Y63.529
X125.904 Y63.567 Z-2.484
X125.896 Y63.6 Z-2.466
X125.89 Y63.627 Z-2.438
X125.885 Y63.644 Z-2.404
X125.884 Y63.65 Z-2.365
G0 Z5.
X133.982 Y48.781
Z-1.855
G1 Z-2.172 F1016.
X133.983 Y48.789 Z-2.243
X133.985 Y48.812 Z-2.31
X133.989 Y48.85 Z-2.37
X133.993 Y48.9 Z-2.421
X133.999 Y48.96 Z-2.459
X134.006 Y49.027 Z-2.482
X134.012 Y49.097 Z-2.49
G3 X133.892 Y49.131 I-0.063 J0.006
G1 X133.887 Y49.119
X133.8 Y48.951
X133.725 Y48.829
X133.695 Y48.784
X133.557 Y48.611
X133.389 Y48.446
X133.306 Y48.374
X133.26 Y48.338
X133.146 Y48.24
X133.042 Y48.131
X132.943 Y48.009
X132.835 Y47.85
X132.717 Y47.644
X132.601 Y47.395
X132.477 Y47.064
X132.351 Y46.625
X132.223 Y45.982
X132.136 Y45.249
X132.089 Y44.513
X132.063 Y43.776
X132.049 Y43.038
X132.041 Y42.3
X132.037 Y41.562
X132.034 Y40.824
X132.032 Y38.611
Y3.196
X131.99 Y2.829
X131.846 Y2.489
X131.624 Y2.195
X131.075 Y1.702
X130.405 Y1.394
X129.69 Y1.211
X128.96 Y1.105
X128.225 Y1.045
X127.487 Y1.011
X126.75 Y0.992
X126.012 Y0.981
X125.689 Y0.967
X125.465 Y0.923
X125.264 Y0.812
X125.107 Y0.646
X125.007 Y0.44
X124.972 Y0.324
X124.907 Y0.156
X124.84 Y0.024
X124.82 Y-0.011
X124.717 Y-0.179
X124.592 Y-0.347
X124.504 Y-0.441
X124.434 Y-0.514
G3 X124.37 Y-0.621 I0.236 J-0.213
G1 X124.347 Y-0.687 Z-2.482
X124.324 Y-0.75 Z-2.459
X124.304 Y-0.807 Z-2.421
X124.287 Y-0.855 Z-2.37
X124.275 Y-0.89 Z-2.31
X124.267 Y-0.912 Z-2.243
X124.264 Y-0.92 Z-2.172
G0 Z5.
X133.173 Y47.987
Z-1.855
G1 Z-2.172 F1016.
X133.177 Y47.994 Z-2.243
X133.19 Y48.014 Z-2.31
X133.211 Y48.045 Z-2.37
X133.239 Y48.087 Z-2.421
X133.273 Y48.137 Z-2.459
X133.31 Y48.193 Z-2.482
X133.349 Y48.251 Z-2.49
G3 X133.26 Y48.338 I-0.053 J0.035
G1 X133.222 Y48.309
X133.054 Y48.199
X132.887 Y48.111
X132.719 Y48.045
X132.627 Y48.015
X132.486 Y47.962
X132.353 Y47.893
X132.229 Y47.809
X132.113 Y47.714
X131.996 Y47.599
X131.865 Y47.449
X131.731 Y47.268
X131.601 Y47.058
X131.456 Y46.778
X131.319 Y46.449
X131.174 Y46.006
X131.034 Y45.422
X130.92 Y44.693
X130.854 Y43.959
X130.815 Y43.222
X130.792 Y42.484
X130.779 Y41.747
X130.772 Y41.009
X130.767 Y40.271
X130.765 Y39.533
X130.763 Y38.058
X130.762 Y32.155
Y4.487
X130.69 Y4.125
X130.53 Y3.793
X130.303 Y3.502
X129.752 Y3.011
X129.085 Y2.697
X128.372 Y2.506
X127.643 Y2.392
X126.908 Y2.327
X126.337 Y2.279
X126.011 Y2.226
X125.752 Y2.162
X125.537 Y2.089
X125.354 Y1.977
X125.21 Y1.816
X125.119 Y1.621
X125.088 Y1.408
Y1.163
X125.085 Y0.995
X125.079 Y0.827
X125.057 Y0.659
X125.02 Y0.492
X125.007 Y0.44
G3 X125.005 Y0.316 I0.31 J-0.067
G1 X125.018 Y0.247 Z-2.482
X125.03 Y0.181 Z-2.459
X125.041 Y0.121 Z-2.421
X125.05 Y0.072 Z-2.37
X125.056 Y0.035 Z-2.31
X125.061 Y0.012 Z-2.243
X125.062 Y0.004 Z-2.172
G0 Z5.
X132.425 Y47.716
Z-1.855
G1 Z-2.172 F1016.
X132.432 Y47.72 Z-2.243
X132.451 Y47.734 Z-2.31
X132.481 Y47.756 Z-2.37
X132.522 Y47.786 Z-2.421
X132.57 Y47.822 Z-2.459
X132.624 Y47.861 Z-2.482
X132.681 Y47.903 Z-2.49
G3 X132.627 Y48.015 I-0.037 J0.051
G1 X132.551 Y47.991
X132.384 Y47.949
X132.216 Y47.927
X132.048 Y47.916
X131.956 Y47.914
X131.807 Y47.903
X131.661 Y47.868
X131.521 Y47.814
X131.387 Y47.746
X131.256 Y47.662
X131.128 Y47.566
X130.982 Y47.436
X130.836 Y47.284
X130.684 Y47.098
X130.518 Y46.858
X130.366 Y46.593
X130.194 Y46.231
X130.04 Y45.826
X129.88 Y45.273
X129.732 Y44.551
X129.639 Y43.819
X129.581 Y43.083
X129.546 Y42.346
X129.524 Y41.609
X129.511 Y40.871
X129.503 Y40.133
X129.498 Y39.395
X129.496 Y38.657
X129.493 Y37.182
X129.492 Y32.755
X129.491 Y5.825
X129.42 Y5.463
X129.267 Y5.127
X129.046 Y4.832
X128.505 Y4.33
X127.844 Y4.003
X127.136 Y3.794
X126.418 Y3.625
X126.002 Y3.509
X125.721 Y3.405
X125.481 Y3.295
X125.465 Y3.285
X125.309 Y3.168
X125.189 Y3.014
X125.113 Y2.833
X125.088 Y2.64
Y1.408
G3 X125.116 Y1.287 I0.317 J0.011
G1 X125.145 Y1.223 Z-2.482
X125.173 Y1.162 Z-2.459
X125.198 Y1.107 Z-2.421
X125.219 Y1.061 Z-2.37
X125.235 Y1.027 Z-2.31
X125.244 Y1.006 Z-2.243
X125.248 Y0.998 Z-2.172
G0 Z5.
X131.677 Y47.685
Z-1.855
G1 Z-2.172 F1016.
X131.685 Y47.688 Z-2.243
X131.707 Y47.695 Z-2.31
X131.743 Y47.708 Z-2.37
X131.79 Y47.725 Z-2.421
X131.847 Y47.745 Z-2.459
X131.91 Y47.767 Z-2.482
X131.976 Y47.791 Z-2.49
G3 X131.956 Y47.914 I-0.021 J0.06
G1 X131.881 Y47.912
X131.042
X130.893 Y47.905
X130.746 Y47.874
X130.603 Y47.828
X130.466 Y47.767
X130.332 Y47.695
X130.178 Y47.594
X130.026 Y47.477
X129.858 Y47.324
X129.693 Y47.148
X129.515 Y46.925
X129.336 Y46.659
X129.154 Y46.335
X128.969 Y45.934
X128.787 Y45.438
X128.617 Y44.826
X128.477 Y44.102
X128.386 Y43.37
X128.326 Y42.634
X128.287 Y41.898
X128.263 Y41.16
X128.247 Y40.423
X128.237 Y39.685
X128.231 Y38.947
X128.227 Y38.209
X128.224 Y36.734
X128.222 Y33.782
Y7.221
X128.167 Y6.856
X128.037 Y6.511
X127.632 Y5.894
X127.045 Y5.447
X126.388 Y5.111
X125.731 Y4.808
X125.446 Y4.648
X125.415 Y4.627
X125.278 Y4.508
X125.174 Y4.36
X125.11 Y4.192
X125.088 Y4.012
Y2.64
G3 X125.116 Y2.519 I0.317 J0.011
G1 X125.145 Y2.455 Z-2.482
X125.173 Y2.394 Z-2.459
X125.198 Y2.339 Z-2.421
X125.219 Y2.293 Z-2.37
X125.235 Y2.259 Z-2.31
X125.244 Y2.238 Z-2.243
X125.248 Y2.23 Z-2.172
G0 Z5.
X130.759 Y47.689
Z-1.855
G1 Z-2.172 F1016.
X130.766 Y47.692 Z-2.243
X130.789 Y47.699 Z-2.31
X130.825 Y47.711 Z-2.37
X130.872 Y47.727 Z-2.421
X130.929 Y47.746 Z-2.459
X130.993 Y47.767 Z-2.482
X131.06 Y47.789 Z-2.49
G3 X131.042 Y47.912 I-0.02 J0.06
G1 X130.037
X129.887 Y47.905
X129.739 Y47.879
X129.595 Y47.837
X129.455 Y47.782
X129.309 Y47.71
X129.151 Y47.616
X128.989 Y47.5
X128.809 Y47.349
X128.633 Y47.176
X128.436 Y46.947
X128.25 Y46.693
X128.044 Y46.356
X127.854 Y45.984
X127.655 Y45.5
X127.462 Y44.896
X127.295 Y44.177
X127.18 Y43.449
X127.102 Y42.715
X127.05 Y41.979
X127.015 Y41.242
X126.992 Y40.504
X126.978 Y39.767
X126.968 Y39.029
X126.962 Y38.291
X126.958 Y37.553
X126.954 Y36.078
X126.952 Y33.127
Y8.779
X126.946 Y8.41
X126.884 Y8.046
X126.618 Y7.358
X126.137 Y6.799
X125.563 Y6.334
X125.37 Y6.181
X125.218 Y6.019
X125.121 Y5.819
X125.088 Y5.599
Y4.012
G3 X125.116 Y3.892 I0.317 J0.011
G1 X125.145 Y3.827 Z-2.482
X125.173 Y3.766 Z-2.459
X125.198 Y3.711 Z-2.421
X125.219 Y3.666 Z-2.37
X125.235 Y3.631 Z-2.31
X125.244 Y3.61 Z-2.243
X125.248 Y3.603 Z-2.172
G0 Z5.
X129.753 Y47.689
Z-1.855
G1 Z-2.172 F1016.
X129.76 Y47.692 Z-2.243
X129.783 Y47.699 Z-2.31
X129.819 Y47.711 Z-2.37
X129.866 Y47.727 Z-2.421
X129.924 Y47.746 Z-2.459
X129.987 Y47.767 Z-2.482
X130.054 Y47.789 Z-2.49
G3 X130.037 Y47.912 I-0.02 J0.06
G1 X128.939
X128.789 Y47.905
X128.641 Y47.879
X128.497 Y47.837
X128.357 Y47.783
X128.199 Y47.707
X128.038 Y47.613
X127.862 Y47.49
X127.681 Y47.341
X127.488 Y47.153
X127.29 Y46.927
X127.082 Y46.648
X126.874 Y46.315
X126.655 Y45.894
X126.453 Y45.415
X126.248 Y44.792
X126.075 Y44.075
X125.952 Y43.348
X125.865 Y42.615
X125.805 Y41.88
X125.764 Y41.143
X125.736 Y40.406
X125.717 Y39.668
X125.705 Y38.93
X125.697 Y38.193
X125.691 Y37.455
X125.688 Y36.717
X125.684 Y35.241
X125.682 Y32.29
Y10.156
X125.68 Y9.418
X125.526 Y8.696
X125.184 Y8.097
X125.131 Y7.981
X125.098 Y7.857
X125.088 Y7.73
Y5.599
G3 X125.116 Y5.479 I0.317 J0.011
G1 X125.145 Y5.415 Z-2.482
X125.173 Y5.353 Z-2.459
X125.198 Y5.299 Z-2.421
X125.219 Y5.253 Z-2.37
X125.235 Y5.218 Z-2.31
X125.244 Y5.197 Z-2.243
X125.248 Y5.19 Z-2.172
G0 Z5.
X128.655 Y47.689
Z-1.855
G1 Z-2.172 F1016.
X128.662 Y47.692 Z-2.243
X128.685 Y47.699 Z-2.31
X128.721 Y47.711 Z-2.37
X128.768 Y47.727 Z-2.421
X128.825 Y47.746 Z-2.459
X128.889 Y47.767 Z-2.482
X128.956 Y47.789 Z-2.49
G3 X128.939 Y47.912 I-0.02 J0.06
G1 X128.025 Y47.913
X127.857 Y47.921
X127.707 Y47.929
X127.559 Y47.906
X127.414 Y47.868
X127.268 Y47.816
X127.115 Y47.746
X126.942 Y47.651
X126.77 Y47.537
X126.571 Y47.381
X126.381 Y47.205
X126.164 Y46.97
X125.961 Y46.71
X125.731 Y46.361
X125.517 Y45.974
X125.294 Y45.477
X125.131 Y45.02
X125.107 Y44.939
X125.092 Y44.855
X125.088 Y44.771
Y7.73
G3 X125.116 Y7.61 I0.317 J0.011
G1 X125.145 Y7.545 Z-2.482
X125.173 Y7.484 Z-2.459
X125.198 Y7.429 Z-2.421
X125.219 Y7.384 Z-2.37
X125.235 Y7.349 Z-2.31
X125.244 Y7.328 Z-2.243
X125.248 Y7.321 Z-2.172
G0 Z5.
X127.552 Y47.729
Z-1.855
G1 Z-2.172 F1016.
X127.56 Y47.73 Z-2.243
X127.583 Y47.735 Z-2.31
X127.62 Y47.743 Z-2.37
X127.669 Y47.754 Z-2.421
X127.728 Y47.767 Z-2.459
X127.793 Y47.782 Z-2.482
X127.862 Y47.797 Z-2.49
G3 X127.857 Y47.921 I-0.014 J0.062
G1 X127.69 Y47.939
X127.522 Y47.97
X127.354 Y48.019
X127.262 Y48.054
X127.119 Y48.099
X126.971 Y48.124
X126.821 Y48.128
X126.672 Y48.115
X126.524 Y48.087
X126.38 Y48.048
X126.212 Y47.987
X126.046 Y47.911
X125.853 Y47.803
X125.663 Y47.676
X125.448 Y47.505
X125.323 Y47.389
X125.196 Y47.232
X125.115 Y47.047
X125.088 Y46.847
G3 X125.116 Y46.726 I0.317 J0.011
X125.551 Y46.576 I0.289 J0.132
G1 X127.287 Y47.479
G3 X127.262 Y48.054 I-0.146 J0.282
G1 X127.187 Y48.082
X127.019 Y48.158
X126.824 Y48.281
X126.747 Y48.34
X126.623 Y48.425
X126.485 Y48.483
X126.34 Y48.52
X126.191 Y48.539
X126.041 Y48.543
X125.891 Y48.532
X125.738 Y48.509
X125.658 Y48.49
X125.473 Y48.419
X125.314 Y48.302
X125.191 Y48.147
X125.114 Y47.965
X125.088 Y47.769
G3 X125.116 Y47.648 I0.317 J0.011
X125.489 Y47.474 I0.289 J0.132
G1 X126.629 Y47.789
G3 X126.825 Y48.244 I-0.085 J0.306
X126.747 Y48.34 I-0.28 J-0.149
G1 X126.684 Y48.388
X126.613 Y48.448
X126.516 Y48.533
X126.44 Y48.616
X126.348 Y48.727
X126.251 Y48.841
X126.046 Y48.943
X125.819 Y48.977
X125.592 Y48.939
X125.388 Y48.834
X125.227 Y48.671
X125.123 Y48.466
X125.088 Y48.239
G3 X125.116 Y48.119 I0.317 J0.011
X125.529 Y47.958 I0.289 J0.132
G1 X126.215 Y48.25
G3 X126.399 Y48.614 I-0.124 J0.292
X126.348 Y48.727 I-0.309 J-0.072
G1 X126.305 Y48.784
X126.181 Y48.984
X126.146 Y49.053
X126.071 Y49.183
X125.959 Y49.283
X125.765 Y49.344
X125.562 Y49.336
X125.374 Y49.261
X125.221 Y49.127
X125.122 Y48.95
X125.088 Y48.75
G3 X125.108 Y48.628 I0.463 J0.016
X125.15 Y48.534 I0.442 J0.139
X126.146 Y49.053 I0.486 J0.283
G1 X126.112 Y49.119
X126.039 Y49.287
X126.013 Y49.368
X125.961 Y49.508
X125.859 Y49.618
X125.693 Y49.683
X125.515 Y49.685
X125.346 Y49.626
X125.209 Y49.513
X125.119 Y49.359
X125.088 Y49.183
G3 X125.109 Y49.074 I0.345 J0.012
X125.114 Y49.062 I0.445 J0.167
X126.03 Y49.245 I0.441 J0.179
X126.013 Y49.368 I-0.476 J-0.004
G1 X125.986 Y49.454
X125.947 Y49.622
X125.938 Y49.664
X125.924 Y49.706
X125.902 Y49.748
X125.872 Y49.79
X125.846 Y49.818
X125.804 Y49.854
X125.762 Y49.879
X125.72 Y49.896
X125.678 Y49.907
X125.636 Y49.912
X125.426
X125.385 Y49.911
X125.343 Y49.904
X125.301 Y49.891
X125.259 Y49.871
X125.217 Y49.843
X125.196 Y49.824
X125.175 Y49.802
X125.165 Y49.79
X125.134 Y49.748
X125.113 Y49.706
X125.098 Y49.664
X125.09 Y49.622
X125.088 Y49.454
Y44.771
G3 X125.116 Y44.65 I0.317 J0.011
G1 X125.145 Y44.586 Z-2.482
X125.173 Y44.525 Z-2.459
X125.198 Y44.47 Z-2.421
X125.219 Y44.424 Z-2.37
X125.235 Y44.39 Z-2.31
X125.244 Y44.369 Z-2.243
X125.248 Y44.361 Z-2.172
G0 Z5.
X60.675 Y-0.892
Z-1.855
G1 Z-2.172 F1016.
X60.682 Y-0.894 Z-2.243
X60.705 Y-0.899 Z-2.31
X60.742 Y-0.908 Z-2.37
X60.791 Y-0.919 Z-2.421
X60.85 Y-0.933 Z-2.459
X60.915 Y-0.948 Z-2.482
X60.984 Y-0.964 Z-2.49
G3 X61.033 Y-0.85 I0.014 J0.062
G1 X60.8 Y-0.707
X60.564 Y-0.514
X60.465 Y-0.41
X60.408 Y-0.347
X60.347 Y-0.265
X60.252 Y-0.149
X60.144 Y-0.045
X60.013 Y0.06
X59.853 Y0.17
X59.657 Y0.282
X59.4 Y0.402
X59.075 Y0.524
X58.63 Y0.651
X57.989 Y0.779
X57.256 Y0.865
X56.783 Y0.89
X56.672 Y0.887
X56.443 Y0.844
X56.238 Y0.732
X56.079 Y0.563
X55.98 Y0.351
G3 X56.229 Y-0.038 I0.308 J-0.077
G1 X60.027 Y-0.757
G3 X60.347 Y-0.265 I0.059 J0.312
G1 X60.283 Y-0.179
X60.18 Y-0.011
X60.13 Y0.081
X60.091 Y0.156
X60.028 Y0.324
X60.013 Y0.375
X59.964 Y0.516
X59.895 Y0.65
X59.811 Y0.774
X59.715 Y0.89
X59.601 Y1.007
X59.451 Y1.138
X59.27 Y1.271
X59.06 Y1.402
X58.781 Y1.546
X58.46 Y1.68
X58.08 Y1.804
X57.774 Y1.877
X57.481 Y1.923
X57.257 Y1.939
X57.044 Y1.938
X56.837 Y1.92
X56.666 Y1.891
X56.647 Y1.886
X56.465 Y1.814
X56.309 Y1.697
X56.189 Y1.542
X56.113 Y1.362
X56.088 Y1.168
X56.085 Y0.995
X56.079 Y0.827
X56.057 Y0.659
X56.02 Y0.492
X55.98 Y0.351
G3 X56.29 Y-0.043 I0.308 J-0.077
G1 X59.708 Y-0.022
G3 X60.013 Y0.375 I-0.002 J0.317
G1 X59.979 Y0.492
X59.962 Y0.56
X59.943 Y0.659
X59.921 Y0.827
X59.915 Y0.995
X59.914 Y1.046
X59.904 Y1.195
X59.869 Y1.341
X59.815 Y1.481
X59.747 Y1.615
X59.664 Y1.745
X59.568 Y1.873
X59.44 Y2.018
X59.296 Y2.156
X59.119 Y2.3
X58.921 Y2.437
X58.701 Y2.564
X58.464 Y2.676
X58.213 Y2.772
X57.952 Y2.848
X57.692 Y2.901
X57.473 Y2.928
X57.249 Y2.937
X57.065 Y2.93
X56.874 Y2.908
X56.703 Y2.873
X56.624 Y2.85
X56.449 Y2.774
X56.299 Y2.656
X56.184 Y2.504
X56.112 Y2.327
X56.088 Y2.138
Y1.168
G3 X56.392 Y0.862 I0.317 J0.011
G1 X59.584 Y0.735
G3 X59.914 Y1.046 I0.013 J0.317
G1 X59.912 Y1.163
Y1.925
X59.905 Y2.075
X59.878 Y2.223
X59.835 Y2.366
X59.776 Y2.505
X59.706 Y2.637
X59.621 Y2.769
X59.512 Y2.911
X59.389 Y3.048
X59.24 Y3.189
X59.067 Y3.328
X58.879 Y3.456
X58.672 Y3.574
X58.446 Y3.68
X58.21 Y3.768
X57.964 Y3.837
X57.714 Y3.887
X57.487 Y3.913
X57.258 Y3.922
X57.065 Y3.913
X56.878 Y3.889
X56.7 Y3.852
X56.619 Y3.828
X56.446 Y3.752
X56.297 Y3.634
X56.183 Y3.482
X56.112 Y3.306
X56.088 Y3.118
Y2.138
G3 X56.384 Y1.832 I0.317 J0.011
G1 X59.574 Y1.62
G3 X59.912 Y1.925 I0.021 J0.317
G1 Y2.932
X59.905 Y3.081
X59.876 Y3.229
X59.831 Y3.372
X59.772 Y3.509
X59.7 Y3.641
X59.614 Y3.774
X59.505 Y3.915
X59.382 Y4.051
X59.234 Y4.189
X59.063 Y4.326
X58.876 Y4.451
X58.67 Y4.567
X58.445 Y4.67
X58.208 Y4.757
X57.963 Y4.825
X57.711 Y4.874
X57.482 Y4.899
X57.252 Y4.906
X57.057 Y4.896
X56.87 Y4.871
X56.692 Y4.833
X56.615 Y4.81
X56.403 Y4.707
X56.234 Y4.542
X56.125 Y4.333
X56.088 Y4.1
Y3.118
G3 X56.386 Y2.812 I0.317 J0.011
G1 X59.577 Y2.626
G3 X59.912 Y2.932 I0.018 J0.317
G1 Y3.938
X59.905 Y4.087
X59.875 Y4.234
X59.828 Y4.377
X59.767 Y4.514
X59.694 Y4.646
X59.607 Y4.778
X59.496 Y4.918
X59.371 Y5.054
X59.222 Y5.19
X59.049 Y5.326
X58.859 Y5.45
X58.653 Y5.564
X58.426 Y5.666
X58.188 Y5.75
X57.941 Y5.816
X57.689 Y5.862
X57.463 Y5.885
X57.239 Y5.89
X57.031 Y5.877
X56.86 Y5.853
X56.681 Y5.813
X56.609 Y5.79
X56.399 Y5.687
X56.232 Y5.522
X56.125 Y5.314
X56.088 Y5.083
Y4.1
G3 X56.389 Y3.794 I0.317 J0.011
G1 X59.579 Y3.632
G3 X59.912 Y3.938 I0.016 J0.317
G1 Y4.902
X59.905 Y5.052
X59.878 Y5.2
X59.834 Y5.343
X59.776 Y5.481
X59.705 Y5.613
X59.619 Y5.747
X59.513 Y5.885
X59.391 Y6.02
X59.243 Y6.158
X59.077 Y6.292
X58.892 Y6.416
X58.686 Y6.533
X58.462 Y6.637
X58.223 Y6.725
X57.979 Y6.793
X57.728 Y6.842
X57.495 Y6.868
X57.279 Y6.875
X57.061 Y6.864
X56.884 Y6.842
X56.711 Y6.805
X56.617 Y6.777
X56.404 Y6.674
X56.234 Y6.51
X56.125 Y6.3
X56.088 Y6.067
Y5.083
G3 X56.387 Y4.777 I0.317 J0.011
G1 X59.577 Y4.596
G3 X59.912 Y4.902 I0.018 J0.317
G1 Y5.858
X59.905 Y6.007
X59.883 Y6.156
X59.842 Y6.3
X59.787 Y6.439
X59.718 Y6.573
X59.636 Y6.705
X59.534 Y6.843
X59.417 Y6.977
X59.274 Y7.115
X59.112 Y7.25
X58.933 Y7.375
X58.73 Y7.494
X58.51 Y7.601
X58.274 Y7.692
X58.031 Y7.765
X57.782 Y7.818
X57.543 Y7.849
X57.328 Y7.859
X57.103 Y7.852
X56.921 Y7.832
X56.75 Y7.798
X56.564 Y7.746
X56.364 Y7.634
X56.207 Y7.467
X56.109 Y7.26
X56.079 Y7.033
X56.087 Y6.696
X56.088 Y6.067
G3 X56.384 Y5.761 I0.317 J0.011
G1 X59.574 Y5.552
G3 X59.912 Y5.858 I0.021 J0.317
G1 Y6.864
X59.905 Y7.013
X59.879 Y7.161
X59.836 Y7.305
X59.779 Y7.444
X59.709 Y7.576
X59.626 Y7.705
X59.522 Y7.843
X59.399 Y7.98
X59.258 Y8.115
X59.091 Y8.25
X58.905 Y8.378
X58.704 Y8.493
X58.485 Y8.597
X58.248 Y8.686
X58.003 Y8.756
X57.754 Y8.806
X57.501 Y8.836
X57.294 Y8.844
X57.074 Y8.835
X56.885 Y8.812
X56.722 Y8.779
X56.545 Y8.727
X56.389 Y8.668
X56.319 Y8.635
X56.138 Y8.512
X56.001 Y8.339
X55.924 Y8.134
X55.911 Y7.915
X55.965 Y7.702
X56.014 Y7.534
X56.051 Y7.367
X56.075 Y7.199
X56.079 Y7.033
G3 X56.379 Y6.734 I0.317 J0.019
G1 X59.578 Y6.558
G3 X59.912 Y6.864 I0.018 J0.317
G1 Y7.87
X59.905 Y8.02
X59.876 Y8.167
X59.831 Y8.31
X59.772 Y8.448
X59.7 Y8.579
X59.615 Y8.709
X59.507 Y8.848
X59.383 Y8.984
X59.238 Y9.119
X59.068 Y9.253
X58.879 Y9.38
X58.673 Y9.495
X58.45 Y9.596
X58.211 Y9.683
X57.963 Y9.751
X57.713 Y9.798
X57.457 Y9.826
X57.203 Y9.833
X56.981 Y9.821
X56.757 Y9.79
X56.563 Y9.748
X56.399 Y9.698
X56.225 Y9.63
X56.074 Y9.556
X55.945 Y9.48
X55.811 Y9.385
X55.692 Y9.284
X55.562 Y9.112
X55.487 Y8.909
X55.474 Y8.694
X55.523 Y8.484
X55.631 Y8.296
X55.704 Y8.205
X55.806 Y8.037
X55.893 Y7.87
X55.965 Y7.702
G3 X56.257 Y7.519 I0.288 J0.134
G1 X59.599 Y7.563
G3 X59.912 Y7.87 I-0.004 J0.317
G1 Y8.876
X59.905 Y9.026
X59.874 Y9.172
X59.826 Y9.315
X59.765 Y9.451
X59.69 Y9.584
X59.602 Y9.714
X59.491 Y9.854
X59.364 Y9.989
X59.215 Y10.125
X59.04 Y10.26
X58.849 Y10.384
X58.638 Y10.498
X58.403 Y10.602
X58.154 Y10.689
X57.891 Y10.757
X57.622 Y10.805
X57.353 Y10.83
X57.084 Y10.834
X56.819 Y10.816
X56.562 Y10.779
X56.313 Y10.721
X56.077 Y10.646
X55.888 Y10.569
X55.695 Y10.471
X55.54 Y10.376
X55.402 Y10.276
X55.264 Y10.158
X55.153 Y10.046
X55.056 Y9.931
X54.96 Y9.797
X54.924 Y9.737
X54.838 Y9.525
X54.821 Y9.297
X54.874 Y9.075
X54.993 Y8.879
X55.165 Y8.729
G3 X55.316 Y8.686 I0.16 J0.275
G1 X59.587 Y8.569
G3 X59.912 Y8.876 I0.009 J0.317
G1 Y9.806
X59.905 Y9.956
X59.882 Y10.104
X59.84 Y10.249
X59.784 Y10.388
X59.715 Y10.521
X59.686 Y10.567
X59.568 Y10.711
X59.417 Y10.82
X59.244 Y10.889
X59.059 Y10.913
G3 X58.807 Y10.418 I0.011 J-0.317
G1 X59.332 Y9.64
G3 X59.912 Y9.806 I0.263 J0.178
G1 Y10.595
X59.907 Y10.636
X59.896 Y10.678
X59.879 Y10.72
X59.844 Y10.776
X59.822 Y10.805
X59.794 Y10.833
X59.75 Y10.865
X59.706 Y10.888
X59.666 Y10.902
X59.627 Y10.91
X59.459 Y10.913
X55.603
X55.453 Y10.905
X55.305 Y10.882
X55.16 Y10.844
X55.019 Y10.792
X54.884 Y10.727
X54.757 Y10.648
X54.636 Y10.559
X54.524 Y10.459
X54.424 Y10.348
X54.333 Y10.228
X54.255 Y10.1
X54.191 Y9.964
X54.182 Y9.94
X54.136 Y9.71
X54.165 Y9.478
X54.264 Y9.267
X54.424 Y9.097
X54.63 Y8.985
X54.765 Y8.937
X54.913 Y8.876
X55.1 Y8.77
X55.165 Y8.729
G3 X55.638 Y8.951 I0.16 J0.275
G1 X55.905 Y10.543
G3 X55.603 Y10.913 I-0.313 J0.053
G1 X54.597
X54.448 Y10.905
X54.302 Y10.871
X54.162 Y10.816
X54.03 Y10.744
X53.91 Y10.655
X53.8 Y10.553
X53.703 Y10.438
X53.621 Y10.313
X53.553 Y10.179
X53.501 Y10.038
X53.489 Y9.991
X53.469 Y9.779
X53.509 Y9.57
X53.608 Y9.381
X53.756 Y9.228
X53.942 Y9.123
X54.15 Y9.076
X54.262 Y9.067
X54.423 Y9.043
X54.597 Y8.997
X54.63 Y8.985
G3 X55.041 Y9.321 I0.095 J0.303
G1 X54.902 Y10.629
G3 X54.597 Y10.913 I-0.316 J-0.034
G1 X53.835
X53.685 Y10.905
X53.54 Y10.867
X53.403 Y10.806
X53.276 Y10.725
X53.163 Y10.627
X53.062 Y10.516
X52.977 Y10.392
X52.908 Y10.259
X52.855 Y10.119
X52.82 Y9.973
X52.814 Y9.922
X52.817 Y9.714
X52.878 Y9.514
X52.992 Y9.339
X53.151 Y9.203
X53.341 Y9.117
X53.548 Y9.087
X53.759 Y9.086
X54.094 Y9.081
X54.15 Y9.076
G3 X54.469 Y9.48 I0.014 J0.317
G1 X54.129 Y10.682
G3 X53.835 Y10.913 I-0.305 J-0.087
G1 X53.164
X53.014 Y10.905
X52.869 Y10.868
X52.732 Y10.807
X52.606 Y10.726
X52.493 Y10.627
X52.394 Y10.514
X52.31 Y10.39
X52.243 Y10.256
X52.192 Y10.115
X52.158 Y9.968
X52.152 Y9.91
X52.158 Y9.703
X52.221 Y9.506
X52.336 Y9.334
X52.494 Y9.201
X52.683 Y9.116
X52.888 Y9.087
X53.548
G3 X53.839 Y9.502 I-0.011 J0.317
G1 X53.455 Y10.693
G3 X53.164 Y10.913 I-0.302 J-0.098
G1 X52.493
X52.344 Y10.905
X52.199 Y10.867
X52.062 Y10.804
X51.937 Y10.722
X51.825 Y10.622
X51.727 Y10.508
X51.644 Y10.383
X51.578 Y10.248
X51.528 Y10.107
X51.495 Y9.961
X51.49 Y9.904
X51.497 Y9.698
X51.561 Y9.503
X51.677 Y9.332
X51.834 Y9.2
X52.023 Y9.116
X52.227 Y9.087
X52.888
G3 X53.178 Y9.505 I-0.011 J0.317
G1 X52.784 Y10.695
G3 X52.493 Y10.913 I-0.301 J-0.1
G1 X51.823
X51.673 Y10.905
X51.528 Y10.865
X51.393 Y10.801
X51.268 Y10.717
X51.157 Y10.617
X51.06 Y10.502
X50.978 Y10.376
X50.913 Y10.241
X50.864 Y10.099
X50.832 Y9.953
X50.827 Y9.9
X50.836 Y9.695
X50.901 Y9.5
X51.016 Y9.33
X51.174 Y9.199
X51.361 Y9.116
X51.565 Y9.087
X52.227
G3 X52.516 Y9.507 I-0.011 J0.317
G1 X52.112 Y10.697
G3 X51.823 Y10.913 I-0.301 J-0.102
G1 X51.152
X51.002 Y10.905
X50.858 Y10.863
X50.723 Y10.798
X50.6 Y10.713
X50.489 Y10.612
X50.393 Y10.496
X50.312 Y10.37
X50.248 Y10.235
X50.2 Y10.093
X50.169 Y9.946
X50.164 Y9.895
X50.174 Y9.691
X50.239 Y9.497
X50.355 Y9.329
X50.512 Y9.198
X50.699 Y9.116
X50.902 Y9.087
X51.565
G3 X51.854 Y9.509 I-0.011 J0.317
G1 X51.441 Y10.699
G3 X51.152 Y10.913 I-0.3 J-0.104
G1 X50.482
X50.332 Y10.905
X50.188 Y10.862
X50.054 Y10.795
X49.931 Y10.709
X49.821 Y10.607
X49.726 Y10.491
X49.646 Y10.365
X49.582 Y10.229
X49.535 Y10.086
X49.512 Y9.977
X49.501 Y9.759
X49.553 Y9.547
X49.664 Y9.36
X49.826 Y9.213
X50.022 Y9.12
X50.238 Y9.087
X50.902
G3 X51.19 Y9.51 I-0.011 J0.317
G1 X50.77 Y10.701
G3 X50.482 Y10.913 I-0.299 J-0.106
G1 X49.853
X49.703 Y10.905
X49.557 Y10.869
X49.42 Y10.807
X49.295 Y10.726
X49.182 Y10.626
X49.083 Y10.514
X49. Y10.389
X48.933 Y10.255
X48.881 Y10.114
X48.848 Y9.968
X48.842 Y9.912
X48.848 Y9.704
X48.911 Y9.507
X49.026 Y9.335
X49.184 Y9.201
X49.373 Y9.116
X49.578 Y9.087
X50.238
G3 X50.529 Y9.503 I-0.011 J0.317
G1 X50.144 Y10.693
G3 X49.853 Y10.913 I-0.302 J-0.098
G1 X49.182
X49.032 Y10.905
X48.887 Y10.867
X48.751 Y10.804
X48.626 Y10.721
X48.514 Y10.621
X48.417 Y10.507
X48.334 Y10.382
X48.268 Y10.247
X48.218 Y10.106
X48.185 Y9.959
X48.18 Y9.904
X48.187 Y9.698
X48.251 Y9.502
X48.367 Y9.332
X48.525 Y9.2
X48.713 Y9.116
X48.917 Y9.087
X49.578
G3 X49.868 Y9.505 I-0.011 J0.317
G1 X49.472 Y10.695
G3 X49.182 Y10.913 I-0.301 J-0.1
G1 X48.512
X48.362 Y10.905
X48.217 Y10.865
X48.082 Y10.8
X47.957 Y10.717
X47.846 Y10.616
X47.75 Y10.501
X47.668 Y10.375
X47.603 Y10.24
X47.554 Y10.098
X47.522 Y9.952
X47.517 Y9.899
X47.526 Y9.694
X47.591 Y9.499
X47.706 Y9.33
X47.864 Y9.199
X48.051 Y9.116
X48.255 Y9.087
X48.917
G3 X49.206 Y9.507 I-0.011 J0.317
G1 X48.801 Y10.697
G3 X48.512 Y10.913 I-0.301 J-0.102
G1 X47.841
X47.691 Y10.905
X47.547 Y10.863
X47.412 Y10.798
X47.289 Y10.712
X47.178 Y10.611
X47.082 Y10.495
X47.001 Y10.369
X46.937 Y10.234
X46.889 Y10.092
X46.858 Y9.945
X46.854 Y9.895
X46.864 Y9.691
X46.929 Y9.497
X47.045 Y9.329
X47.202 Y9.198
X47.389 Y9.116
X47.592 Y9.087
G3 X47.891 Y9.34 I-0.011 J0.317
G1 X48.141 Y10.53
G3 X47.841 Y10.913 I-0.311 J0.065
G1 X47.221
X47.071 Y10.905
X46.925 Y10.872
X46.787 Y10.813
X46.66 Y10.733
X46.546 Y10.636
X46.446 Y10.524
X46.36 Y10.401
X46.292 Y10.267
X46.239 Y10.127
X46.204 Y9.981
X46.196 Y9.915
X46.201 Y9.707
X46.263 Y9.509
X46.378 Y9.336
X46.536 Y9.202
X46.726 Y9.117
X46.932 Y9.087
G3 X47.229 Y9.33 I-0.011 J0.317
G1 X47.519 Y10.52
G3 X47.221 Y10.913 I-0.309 J0.075
G1 X46.551
X46.401 Y10.905
X46.255 Y10.87
X46.118 Y10.809
X45.991 Y10.728
X45.878 Y10.63
X45.779 Y10.517
X45.695 Y10.393
X45.627 Y10.259
X45.576 Y10.118
X45.542 Y9.972
X45.535 Y9.911
X45.541 Y9.704
X45.604 Y9.507
X45.719 Y9.335
X45.877 Y9.201
X46.066 Y9.116
X46.271 Y9.087
G3 X46.569 Y9.332 I-0.011 J0.317
G1 X46.849 Y10.523
G3 X46.551 Y10.913 I-0.309 J0.073
G1 X45.88
X45.73 Y10.905
X45.585 Y10.868
X45.448 Y10.805
X45.323 Y10.723
X45.211 Y10.624
X45.113 Y10.51
X45.029 Y10.386
X44.963 Y10.251
X44.912 Y10.11
X44.879 Y9.964
X44.873 Y9.906
X44.88 Y9.7
X44.944 Y9.504
X45.059 Y9.333
X45.217 Y9.2
X45.406 Y9.116
X45.61 Y9.087
G3 X45.908 Y9.335 I-0.011 J0.317
G1 X46.178 Y10.525
G3 X45.88 Y10.913 I-0.31 J0.07
G1 X45.209
X45.06 Y10.905
X44.915 Y10.866
X44.779 Y10.802
X44.654 Y10.719
X44.543 Y10.618
X44.446 Y10.504
X44.363 Y10.379
X44.298 Y10.244
X44.248 Y10.102
X44.216 Y9.956
X44.211 Y9.901
X44.219 Y9.696
X44.283 Y9.501
X44.399 Y9.331
X44.557 Y9.199
X44.744 Y9.116
X44.948 Y9.087
G3 X45.247 Y9.337 I-0.011 J0.317
G1 X45.508 Y10.527
G3 X45.209 Y10.913 I-0.31 J0.068
G1 X44.539
X44.511 Y10.912
X44.469 Y10.911
X44.443 Y10.909
X44.336 Y10.887
X44.238 Y10.841
X44.154 Y10.772
G3 X44.123 Y10.386 I0.343 J-0.221
X44.807 Y10.687 I0.342 J0.151
X44.469 Y10.911 I-0.342 J-0.151
G1 X44.371 Y10.908
X44.336 Y10.9
X44.301 Y10.888
X44.252 Y10.862
X44.204 Y10.824
X44.154 Y10.772
X44.136 Y10.746
X44.121 Y10.72
X44.104 Y10.678
X44.093 Y10.636
X44.088 Y10.595
Y9.547
X44.09 Y9.379
X44.097 Y9.337
X44.111 Y9.295
X44.132 Y9.253
X44.162 Y9.211
X44.183 Y9.189
X44.204 Y9.17
X44.245 Y9.141
X44.287 Y9.118
X44.329 Y9.102
X44.371 Y9.092
X44.539 Y9.087
X48.255
G3 X48.375 Y9.116 I-0.011 J0.317
G1 X48.439 Y9.145 Z-2.482
X48.5 Y9.173 Z-2.459
X48.555 Y9.198 Z-2.421
X48.601 Y9.219 Z-2.37
X48.635 Y9.235 Z-2.31
X48.657 Y9.244 Z-2.243
X48.664 Y9.248 Z-2.172
G0 Z5.
X-0.887 Y53.334
Z-1.855
G1 Z-2.172 F1016.
X-0.889 Y53.326 Z-2.243
X-0.894 Y53.303 Z-2.31
X-0.903 Y53.267 Z-2.37
X-0.914 Y53.218 Z-2.421
X-0.928 Y53.159 Z-2.459
X-0.943 Y53.094 Z-2.482
X-0.959 Y53.025 Z-2.49
G3 X-0.844 Y52.976 I0.062 J-0.014
G1 X-0.725 Y53.172
X-0.617 Y53.311
X-0.557 Y53.384
X-0.469 Y53.479
X-0.389 Y53.555
X-0.274 Y53.646
X-0.158 Y53.742
X-0.053 Y53.849
X0.05 Y53.974
X0.161 Y54.134
X0.272 Y54.324
X0.39 Y54.572
X0.512 Y54.891
X0.638 Y55.32
X0.766 Y55.933
X0.858 Y56.665
X0.889 Y57.168
X0.887 Y57.31
X0.849 Y57.534
X0.746 Y57.736
X0.588 Y57.898
X0.389 Y58.006
X0.281 Y58.045
X0.113 Y58.111
X-0.054 Y58.201
X-0.222 Y58.313
X-0.263 Y58.341
X-0.326 Y58.389
X-0.389 Y58.446
X-0.525 Y58.582
G3 X-1.059 Y58.33 I-0.217 J-0.232
G1 X-0.771 Y53.887
G3 X-0.274 Y53.646 I0.317 J0.021
G1 X-0.222 Y53.685
X-0.054 Y53.797
X0.113 Y53.888
X0.281 Y53.956
X0.351 Y53.982
X0.381 Y53.99
X0.522 Y54.04
X0.655 Y54.11
X0.779 Y54.194
X0.895 Y54.29
X1.015 Y54.408
X1.149 Y54.563
X1.275 Y54.735
X1.409 Y54.953
X1.555 Y55.239
X1.688 Y55.562
X1.808 Y55.937
X1.879 Y56.239
X1.923 Y56.526
X1.938 Y56.743
X1.936 Y56.969
X1.918 Y57.165
X1.889 Y57.334
X1.883 Y57.356
X1.81 Y57.537
X1.693 Y57.692
X1.539 Y57.812
X1.359 Y57.887
X1.165 Y57.912
X1.119
X0.952 Y57.916
X0.784 Y57.927
X0.616 Y57.949
X0.389 Y58.006
G3 X0.003 Y57.698 I-0.068 J-0.31
G1 X-0.015 Y54.3
G3 X0.381 Y53.99 I0.317 J-0.002
G1 X0.449 Y54.01
X0.616 Y54.051
X0.784 Y54.073
X0.952 Y54.084
X1.044 Y54.086
X1.193 Y54.097
X1.339 Y54.132
X1.479 Y54.186
X1.613 Y54.253
X1.744 Y54.336
X1.872 Y54.432
X2.015 Y54.559
X2.154 Y54.703
X2.299 Y54.88
X2.434 Y55.075
X2.561 Y55.294
X2.673 Y55.53
X2.769 Y55.782
X2.845 Y56.042
X2.899 Y56.302
X2.926 Y56.521
X2.936 Y56.747
X2.929 Y56.932
X2.906 Y57.122
X2.872 Y57.294
X2.849 Y57.375
X2.773 Y57.551
X2.655 Y57.701
X2.502 Y57.816
X2.326 Y57.888
X2.136 Y57.912
X1.165
G3 X0.859 Y57.608 I0.011 J-0.317
G1 X0.731 Y54.416
G3 X1.044 Y54.086 I0.317 J-0.013
G1 X1.119 Y54.088
X1.958
X2.107 Y54.095
X2.254 Y54.126
X2.396 Y54.174
X2.533 Y54.235
X2.668 Y54.311
X2.801 Y54.399
X2.942 Y54.512
X3.083 Y54.643
X3.22 Y54.795
X3.359 Y54.974
X3.487 Y55.17
X3.602 Y55.382
X3.703 Y55.61
X3.786 Y55.848
X3.851 Y56.095
X3.895 Y56.345
X3.916 Y56.567
X3.92 Y56.793
X3.908 Y56.978
X3.88 Y57.169
X3.841 Y57.339
X3.823 Y57.395
X3.718 Y57.604
X3.554 Y57.769
X3.347 Y57.876
X3.116 Y57.912
X2.136
G3 X1.83 Y57.613 I0.011 J-0.317
G1 X1.652 Y54.423
G3 X1.958 Y54.088 I0.317 J-0.018
G1 X2.888
X3.038 Y54.095
X3.186 Y54.117
X3.331 Y54.158
X3.47 Y54.213
X3.604 Y54.281
X3.741 Y54.366
X3.874 Y54.464
X4.013 Y54.585
X4.153 Y54.727
X4.285 Y54.886
X4.415 Y55.07
X4.536 Y55.274
X4.644 Y55.495
X4.735 Y55.728
X4.808 Y55.969
X4.862 Y56.219
X4.894 Y56.46
X4.905 Y56.67
X4.898 Y56.894
X4.878 Y57.078
X4.846 Y57.245
X4.812 Y57.369
X4.738 Y57.546
X4.62 Y57.698
X4.467 Y57.814
X4.289 Y57.888
X4.098 Y57.912
X3.116
G3 X2.811 Y57.618 I0.011 J-0.317
G1 X2.582 Y54.427
G3 X2.888 Y54.088 I0.317 J-0.023
G1 X3.894
X4.044 Y54.095
X4.192 Y54.12
X4.336 Y54.162
X4.474 Y54.218
X4.608 Y54.288
X4.737 Y54.369
X4.876 Y54.473
X5.013 Y54.594
X5.149 Y54.734
X5.285 Y54.9
X5.413 Y55.085
X5.53 Y55.285
X5.634 Y55.504
X5.725 Y55.739
X5.797 Y55.984
X5.849 Y56.232
X5.878 Y56.469
X5.889 Y56.703
X5.882 Y56.903
X5.86 Y57.091
X5.824 Y57.274
X5.779 Y57.43
X5.67 Y57.626
X5.508 Y57.78
X5.306 Y57.879
X5.085 Y57.912
X4.098
G3 X3.793 Y57.616 I0.011 J-0.317
G1 X3.588 Y54.425
G3 X3.894 Y54.088 I0.317 J-0.02
G1 X4.9
X5.049 Y54.095
X5.197 Y54.122
X5.34 Y54.166
X5.479 Y54.224
X5.611 Y54.295
X5.74 Y54.378
X5.879 Y54.484
X6.016 Y54.608
X6.151 Y54.75
X6.286 Y54.919
X6.413 Y55.106
X6.528 Y55.308
X6.632 Y55.531
X6.72 Y55.767
X6.789 Y56.013
X6.839 Y56.265
X6.867 Y56.513
X6.874 Y56.717
X6.864 Y56.935
X6.841 Y57.12
X6.807 Y57.283
X6.778 Y57.381
X6.701 Y57.555
X6.583 Y57.703
X6.431 Y57.817
X6.255 Y57.888
X6.067 Y57.912
X5.085
G3 X4.779 Y57.614 I0.011 J-0.317
G1 X4.594 Y54.423
G3 X4.9 Y54.088 I0.317 J-0.018
G1 X5.906
X6.055 Y54.095
X6.202 Y54.125
X6.345 Y54.171
X6.483 Y54.231
X6.615 Y54.304
X6.745 Y54.39
X6.884 Y54.499
X7.02 Y54.624
X7.155 Y54.771
X7.29 Y54.943
X7.416 Y55.133
X7.53 Y55.34
X7.631 Y55.563
X7.717 Y55.802
X7.783 Y56.05
X7.83 Y56.3
X7.853 Y56.53
X7.859 Y56.761
X7.847 Y56.954
X7.821 Y57.143
X7.782 Y57.319
X7.757 Y57.398
X7.678 Y57.572
X7.556 Y57.72
X7.401 Y57.832
X7.222 Y57.9
X7.032 Y57.921
X6.819 Y57.916
X6.652 Y57.912
X6.067
G3 X5.761 Y57.611 I0.011 J-0.317
G1 X5.599 Y54.421
G3 X5.906 Y54.088 I0.317 J-0.016
G1 X6.652
X6.819 Y54.084
X6.969 Y54.088
X7.118 Y54.108
X7.263 Y54.147
X7.403 Y54.2
X7.537 Y54.267
X7.672 Y54.349
X7.805 Y54.445
X7.942 Y54.563
X8.082 Y54.703
X8.213 Y54.859
X8.342 Y55.039
X8.464 Y55.241
X8.573 Y55.461
X8.666 Y55.693
X8.741 Y55.935
X8.797 Y56.184
X8.831 Y56.431
X8.845 Y56.654
X8.84 Y56.874
X8.821 Y57.056
X8.786 Y57.247
X8.742 Y57.411
X8.688 Y57.564
X8.648 Y57.653
X8.525 Y57.842
X8.352 Y57.985
X8.144 Y58.07
X7.92 Y58.089
X7.701 Y58.039
G3 X7.523 Y57.838 I0.126 J-0.291
G1 X6.533 Y54.491
G3 X6.819 Y54.084 I0.304 J-0.09
G1 X7.154 Y54.076
X7.322 Y54.058
X7.49 Y54.027
X7.537 Y54.013
X7.683 Y53.979
X7.832 Y53.973
X7.982 Y53.988
X8.128 Y54.022
X8.27 Y54.07
X8.407 Y54.131
X8.547 Y54.209
X8.684 Y54.3
X8.83 Y54.414
X8.974 Y54.548
X9.114 Y54.7
X9.253 Y54.877
X9.385 Y55.078
X9.503 Y55.293
X9.607 Y55.524
X9.694 Y55.77
X9.762 Y56.022
X9.81 Y56.282
X9.836 Y56.542
X9.841 Y56.796
X9.828 Y57.016
X9.796 Y57.246
X9.753 Y57.435
X9.701 Y57.602
X9.631 Y57.779
X9.558 Y57.925
X9.48 Y58.055
X9.381 Y58.193
X9.282 Y58.309
X9.107 Y58.44
X8.9 Y58.514
X8.682 Y58.524
X8.469 Y58.469
X8.282 Y58.355
G3 X8.185 Y58.189 I0.212 J-0.236
G1 X7.327 Y54.385
G3 X7.537 Y54.013 I0.31 J-0.07
G1 X7.657 Y53.978
X7.825 Y53.917
X7.993 Y53.835
X8.03 Y53.814
X8.069 Y53.79
X8.201 Y53.717
X8.346 Y53.68
X8.495 Y53.665
X8.645 Y53.669
X8.794 Y53.689
X8.94 Y53.724
X9.082 Y53.772
X9.234 Y53.837
X9.386 Y53.917
X9.544 Y54.017
X9.708 Y54.141
X9.865 Y54.281
X10.024 Y54.446
X10.18 Y54.637
X10.326 Y54.85
X10.459 Y55.079
X10.578 Y55.331
X10.681 Y55.602
X10.762 Y55.883
X10.822 Y56.174
X10.857 Y56.464
X10.869 Y56.75
X10.858 Y57.033
X10.825 Y57.307
X10.772 Y57.568
X10.7 Y57.82
X10.62 Y58.03
X10.528 Y58.225
X10.427 Y58.402
X10.33 Y58.543
X10.214 Y58.686
X10.096 Y58.81
X9.984 Y58.91
X9.854 Y59.007
X9.725 Y59.09
X9.517 Y59.179
X9.291 Y59.197
X9.071 Y59.143
X8.88 Y59.021
X8.738 Y58.844
X8.663 Y58.741
X8.609 Y58.677
X8.496 Y58.547
X8.328 Y58.393
X8.282 Y58.355
G3 X8.177 Y58.138 I0.212 J-0.236
G1 X7.929 Y54.073
G3 X8.069 Y53.79 I0.317 J-0.019
G1 X8.16 Y53.733
X8.278 Y53.646
X8.328 Y53.608
X8.469 Y53.479
X8.582 Y53.381
X8.714 Y53.308
X8.855 Y53.257
X9.001 Y53.226
X9.151 Y53.212
X9.301 Y53.213
X9.45 Y53.229
X9.604 Y53.258
X9.76 Y53.302
X9.932 Y53.364
X10.105 Y53.444
X10.284 Y53.544
X10.472 Y53.67
X10.657 Y53.816
X10.677 Y53.836
X10.805 Y53.992
X10.885 Y54.177
X10.913 Y54.377
G3 X10.49 Y54.666 I-0.317 J-0.011
G1 X8.591 Y54.
G3 X8.469 Y53.479 I0.105 J-0.3
G1 X8.496 Y53.453
X8.62 Y53.311
X8.663 Y53.259
X8.737 Y53.143
X8.765 Y53.098
X8.851 Y52.974
X8.959 Y52.871
X9.084 Y52.787
X9.219 Y52.722
X9.361 Y52.674
X9.507 Y52.64
X9.656 Y52.622
X9.808 Y52.616
X9.967 Y52.623
X10.143 Y52.644
X10.305 Y52.678
X10.379 Y52.699
X10.553 Y52.775
X10.702 Y52.894
X10.816 Y53.046
X10.888 Y53.222
X10.913 Y53.411
G3 X10.566 Y53.716 I-0.317 J-0.011
G1 X9.012 Y53.571
G3 X8.765 Y53.098 I0.029 J-0.316
G1 X8.841 Y52.976
X8.92 Y52.808
X8.983 Y52.64
X9.036 Y52.5
X9.12 Y52.376
X9.224 Y52.268
X9.342 Y52.175
X9.471 Y52.098
X9.607 Y52.034
X9.749 Y51.985
X9.895 Y51.951
X10.043 Y51.931
X10.193 Y51.927
X10.222 Y51.929
X10.438 Y51.977
X10.631 Y52.087
X10.783 Y52.249
X10.879 Y52.449
X10.913 Y52.668
G3 X10.61 Y52.974 I-0.317 J-0.011
G1 X9.306 Y53.035
G3 X8.983 Y52.64 I-0.015 J-0.317
G1 X9.032 Y52.473
X9.061 Y52.305
X9.079 Y52.137
X9.096 Y51.988
X9.155 Y51.85
X9.236 Y51.724
X9.335 Y51.611
X9.447 Y51.512
X9.571 Y51.428
X9.704 Y51.359
X9.845 Y51.306
X9.99 Y51.27
X10.139 Y51.251
X10.157 Y51.25
X10.389 Y51.283
X10.6 Y51.387
X10.768 Y51.551
X10.875 Y51.759
X10.913 Y51.991
G3 X10.637 Y52.295 I-0.317 J-0.011
G1 X9.439 Y52.456
G3 X9.079 Y52.137 I-0.042 J-0.315
G1 X9.087 Y51.97
Y51.584
Y51.548
Y51.503
X9.095 Y51.353
X9.186 Y51.214
X9.323 Y51.12
X9.486 Y51.088
G3 X9.759 Y51.203 I-0.014 J0.415
X9.209 Y51.776 I-0.275 J0.287
X9.087 Y51.503 I0.275 J-0.287
G1 X9.089 Y51.383
X9.095 Y51.341
X9.108 Y51.299
X9.131 Y51.25
X9.147 Y51.226
X9.166 Y51.201
X9.188 Y51.179
X9.21 Y51.16
X9.254 Y51.131
X9.294 Y51.112
X9.334 Y51.098
X9.376 Y51.09
X9.418 Y51.088
X10.591
X10.633 Y51.092
X10.675 Y51.103
X10.71 Y51.115
X10.746 Y51.131
X10.77 Y51.146
X10.794 Y51.163
X10.821 Y51.188
X10.843 Y51.212
X10.872 Y51.255
X10.892 Y51.299
X10.905 Y51.341
X10.911 Y51.383
X10.913 Y51.467
Y58.434
X10.905 Y58.583
X10.879 Y58.731
X10.838 Y58.875
X10.783 Y59.015
X10.715 Y59.149
X10.635 Y59.275
X10.544 Y59.395
X10.442 Y59.505
X10.33 Y59.605
X10.209 Y59.694
X10.08 Y59.771
X9.944 Y59.834
X9.923 Y59.841
X9.729 Y59.881
X9.531 Y59.867
X9.344 Y59.8
X9.183 Y59.685
X9.059 Y59.53
X8.982 Y59.348
X8.915 Y59.18
X8.831 Y59.008
X8.738 Y58.844
G3 X8.969 Y58.384 I0.281 J-0.147
G1 X10.545 Y58.131
G3 X10.913 Y58.434 I0.05 J0.313
G1 Y59.398
X10.905 Y59.548
X10.874 Y59.695
X10.822 Y59.835
X10.752 Y59.968
X10.666 Y60.091
X10.566 Y60.203
X10.453 Y60.301
X10.329 Y60.386
X10.197 Y60.457
X10.057 Y60.511
X9.912 Y60.55
X9.904 Y60.551
X9.7 Y60.552
X9.505 Y60.496
X9.333 Y60.387
X9.198 Y60.235
X9.111 Y60.051
X9.08 Y59.851
X9.059 Y59.683
X9.027 Y59.515
X8.982 Y59.348
G3 X9.323 Y58.96 I0.309 J-0.072
G1 X10.628 Y59.093
G3 X10.913 Y59.398 I-0.032 J0.316
G1 Y60.186
X10.905 Y60.336
X10.866 Y60.481
X10.805 Y60.618
X10.725 Y60.744
X10.628 Y60.859
X10.517 Y60.96
X10.394 Y61.046
X10.262 Y61.116
X10.122 Y61.17
X9.976 Y61.207
X9.924 Y61.214
X9.715 Y61.211
X9.515 Y61.15
X9.34 Y61.036
X9.203 Y60.877
X9.117 Y60.686
X9.087 Y60.479
G3 X9.329 Y60.182 I0.317 J0.011
G1 X10.519 Y59.889
G3 X10.913 Y60.186 I0.076 J0.308
G1 Y60.857
X10.905 Y61.006
X10.869 Y61.152
X10.809 Y61.289
X10.728 Y61.416
X10.63 Y61.53
X10.518 Y61.629
X10.394 Y61.714
X10.26 Y61.781
X10.12 Y61.833
X9.974 Y61.868
X9.913 Y61.875
X9.705 Y61.869
X9.508 Y61.807
X9.335 Y61.692
X9.201 Y61.533
X9.117 Y61.344
X9.087 Y61.139
G3 X9.332 Y60.841 I0.317 J0.011
G1 X10.522 Y60.559
G3 X10.913 Y60.857 I0.073 J0.309
G1 Y61.527
X10.905 Y61.677
X10.868 Y61.823
X10.806 Y61.959
X10.724 Y62.085
X10.625 Y62.197
X10.512 Y62.296
X10.387 Y62.379
X10.253 Y62.446
X10.112 Y62.497
X9.966 Y62.53
X9.907 Y62.536
X9.701 Y62.53
X9.504 Y62.466
X9.333 Y62.351
X9.2 Y62.193
X9.116 Y62.004
X9.087 Y61.8
G3 X9.334 Y61.501 I0.317 J0.011
G1 X10.524 Y61.229
G3 X10.913 Y61.527 I0.071 J0.309
G1 Y62.198
X10.905 Y62.348
X10.901 Y62.363
X10.827 Y62.542
X10.709 Y62.695
X10.556 Y62.813
X10.377 Y62.887
X10.185 Y62.912
G3 X9.543 Y62.035 I0.024 J-0.692
X10.913 Y62.198 I0.672 J0.188
G1 Y62.533
X10.911 Y62.617
X10.905 Y62.659
X10.892 Y62.701
X10.872 Y62.745
X10.843 Y62.788
X10.821 Y62.812
X10.794 Y62.837
X10.77 Y62.854
X10.746 Y62.869
X10.71 Y62.885
X10.675 Y62.897
X10.633 Y62.908
X10.591 Y62.912
X9.501
X9.418
X9.376 Y62.91
X9.334 Y62.902
X9.294 Y62.888
X9.254 Y62.869
X9.21 Y62.84
X9.188 Y62.821
X9.166 Y62.799
X9.147 Y62.774
X9.131 Y62.75
X9.108 Y62.701
X9.095 Y62.659
X9.089 Y62.617
X9.087 Y62.533
Y60.354
X9.08 Y59.851
X9.088 Y59.813 Z-2.484
X9.095 Y59.779 Z-2.466
X9.101 Y59.753 Z-2.438
X9.105 Y59.735 Z-2.404
X9.106 Y59.73 Z-2.365
G0 Z5.
X-0.531 Y117.548
Z-4.845
G1 Z-5.162 F1016.
X-0.532 Y117.54 Z-5.233
X-0.535 Y117.517 Z-5.3
X-0.54 Y117.479 Z-5.36
X-0.546 Y117.429 Z-5.411
X-0.553 Y117.369 Z-5.449
X-0.561 Y117.303 Z-5.472
X-0.569 Y117.232 Z-5.48
G3 X-0.59 Y115.486 I8.048 J-0.967
G1 X-0.578 Y115.395
X-0.492 Y115.272
X-0.39 Y115.162
X-0.276 Y115.065
X-0.154 Y114.977
X-0.026 Y114.899
X0.107 Y114.829
X0.243 Y114.766
X0.382 Y114.71
X0.523 Y114.659
X0.666 Y114.613
X0.81 Y114.572
X0.956 Y114.534
X1.102 Y114.501
X1.249 Y114.471
X1.396 Y114.443
X1.544 Y114.419
X1.692 Y114.396
X1.841 Y114.376
X1.99 Y114.358
X2.139 Y114.342
X2.288 Y114.327
X2.438 Y114.314
X2.587 Y114.301
X2.744 Y114.29
X2.918 Y114.279
X3.114 Y114.267
X3.339 Y114.256
X3.603 Y114.244
X3.92 Y114.233
X4.318 Y114.221
X4.853 Y114.21
X5.591 Y114.199
X6.328 Y114.194
X7.066 Y114.191
X8.542 Y114.188
X15.182 Y114.187
X41.94
X42.133 Y114.213
X42.312 Y114.287
X42.465 Y114.405
X42.575 Y114.514
X42.695 Y114.627
X42.769 Y114.682
X42.862 Y114.749
X43.033 Y114.85
X43.198 Y114.924
X43.365 Y114.986
X43.479 Y115.017
X43.533 Y115.03
X43.701 Y115.058
X44.036 Y115.08
X44.204 Y115.088
X61.974 Y115.087
X62.141 Y115.079
X62.309 Y115.062
X62.477 Y115.03
X62.53 Y115.017
X62.644 Y114.981
X62.812 Y114.919
X62.966 Y114.85
X63.228 Y114.745
X63.599 Y114.631
X64.133 Y114.512
X64.864 Y114.411
X65.6 Y114.359
X66.338 Y114.332
X67.075 Y114.317
X67.813 Y114.31
X68.551 Y114.306
X70.026 Y114.303
X74.453 Y114.302
X113.558
X131.45
X131.634 Y114.291
X131.81 Y114.235
X132.127 Y114.047
X132.384 Y113.782
X132.794 Y113.169
X133.027 Y112.469
X133.155 Y111.742
X133.224 Y111.008
X133.261 Y110.271
X133.28 Y109.533
X133.29 Y108.795
X133.296 Y108.058
X133.298 Y107.32
X133.301 Y105.844
X133.302 Y98.466
Y82.234
Y65.951
X133.327 Y65.757
X133.403 Y65.577
X133.523 Y65.423
X133.557 Y65.389
X133.695 Y65.216
X133.725 Y65.171
X133.8 Y65.049
X133.887 Y64.881
X133.961 Y64.713
X134.011 Y64.546
X134.049 Y64.378
X134.06 Y64.313
X134.074 Y64.21
X134.087 Y63.707
Y50.293
X134.074 Y49.79
X134.06 Y49.687
X134.049 Y49.622
X134.011 Y49.454
X133.961 Y49.287
X133.892 Y49.131
X133.727 Y48.701
X133.612 Y48.31
X133.493 Y47.739
X133.401 Y47.007
X133.354 Y46.271
X133.329 Y45.533
X133.316 Y44.796
X133.309 Y44.058
X133.306 Y43.32
X133.303 Y41.844
X133.302 Y36.68
Y1.449
X133.257 Y1.27
X133.094 Y0.939
X132.843 Y0.669
X132.245 Y0.237
X131.549 Y-0.01
X130.824 Y-0.146
X130.09 Y-0.219
X129.353 Y-0.258
X128.616 Y-0.279
X127.878 Y-0.29
X127.14 Y-0.295
X126.402 Y-0.298
X124.937 Y-0.301
X124.752 Y-0.326
X124.58 Y-0.399
X124.434 Y-0.514
X124.337 Y-0.597
X124.23 Y-0.682
X124.169 Y-0.727
X123.967 Y-0.85
X123.834 Y-0.909
X123.666 Y-0.977
X123.499 Y-1.024
X123.331 Y-1.057
X123.163 Y-1.079
X122.996 Y-1.086
X122.828 Y-1.087
X62.141
X61.974 Y-1.085
X61.806 Y-1.077
X61.638 Y-1.052
X61.471 Y-1.015
X61.303 Y-0.967
X61.135 Y-0.895
X61.033 Y-0.85
X60.896 Y-0.789
X60.568 Y-0.676
X60.109 Y-0.559
X59.404 Y-0.439
X58.669 Y-0.373
X57.932 Y-0.339
X57.195 Y-0.321
X56.457 Y-0.312
X55.93 Y-0.308
X55.747 Y-0.332
X55.576 Y-0.402
X55.429 Y-0.514
X55.268 Y-0.652
X55.228 Y-0.682
X55.1 Y-0.771
X54.964 Y-0.85
X54.765 Y-0.935
X54.597 Y-0.997
X54.43 Y-1.042
X54.262 Y-1.067
X54.094 Y-1.081
X53.759 Y-1.086
X53.592 Y-1.087
X1.119
X0.952 Y-1.084
X0.784 Y-1.073
X0.616 Y-1.051
X0.449 Y-1.009
X0.281 Y-0.955
X0.113 Y-0.89
X0.033 Y-0.85
X-0.054 Y-0.798
X-0.222 Y-0.688
X-0.389 Y-0.554
X-0.557 Y-0.386
X-0.593 Y-0.347
X-0.725 Y-0.174
X-0.823 Y-0.011
X-0.892 Y0.12
X-0.972 Y0.324
X-1.02 Y0.492
X-1.057 Y0.659
X-1.079 Y0.827
X-1.085 Y0.995
X-1.087 Y1.163
Y51.97
X-1.079 Y52.137
X-1.06 Y52.312
X-1.032 Y52.473
X-0.983 Y52.64
X-0.92 Y52.808
X-0.892 Y52.871
X-0.844 Y52.976
X-0.781 Y53.112
X-0.668 Y53.447
X-0.551 Y53.917
X-0.431 Y54.645
X-0.369 Y55.38
X-0.337 Y56.117
X-0.32 Y56.855
X-0.311 Y57.593
X-0.308 Y58.054
X-0.333 Y58.247
X-0.407 Y58.428
X-0.525 Y58.582
X-0.557 Y58.614
X-0.61 Y58.677
X-0.737 Y58.844
X-0.837 Y59.012
X-0.892 Y59.135
X-0.982 Y59.348
X-1.027 Y59.515
X-1.06 Y59.689
X-1.08 Y59.851
X-1.087 Y60.354
Y102.777
X-1.081 Y102.944
X-1.06 Y103.302
X-1.035 Y103.447
X-0.992 Y103.615
X-0.932 Y103.783
X-0.892 Y103.877
X-0.858 Y103.95
X-0.793 Y104.086
X-0.681 Y104.41
X-0.564 Y104.861
X-0.444 Y105.552
X-0.376 Y106.287
X-0.34 Y107.024
X-0.322 Y107.761
X-0.312 Y108.499
X-0.307 Y109.237
X-0.305 Y109.975
X-0.302 Y111.635
X-0.257 Y111.814
X-0.168 Y111.976
X0.083 Y112.246
X0.706 Y112.641
X1.419 Y112.83
X2.152 Y112.91
X2.89 Y112.938
X3.628 Y112.943
X4.365 Y112.939
X5.841 Y112.928
X6.579 Y112.924
X8.054 Y112.92
X10.268 Y112.918
X40.518 Y112.917
X41.133 Y112.92
X41.479 Y112.949
X41.734 Y112.991
X41.825 Y113.035
X41.893 Y113.11
X41.926 Y113.206
X41.943 Y113.341
X41.98 Y113.508
X42.024 Y113.666
X42.093 Y113.844
X42.1 Y113.885 Z-5.473
X42.107 Y113.921 Z-5.452
X42.111 Y113.948 Z-5.42
Y113.962 Z-5.389
Y113.966 Z-5.355
G0 Z5.
X-0.91 Y104.308
Z-4.845
G1 Z-5.162 F1016.
X-0.911 Y104.3 Z-5.233
X-0.916 Y104.277 Z-5.3
X-0.924 Y104.24 Z-5.36
X-0.934 Y104.191 Z-5.411
X-0.946 Y104.132 Z-5.449
X-0.959 Y104.066 Z-5.472
X-0.973 Y103.997 Z-5.48
G3 X-0.858 Y103.95 I0.062 J-0.013
G1 X-0.761 Y104.118
X-0.725 Y104.172
X-0.642 Y104.286
X-0.557 Y104.387
X-0.497 Y104.453
X-0.389 Y104.556
X-0.311 Y104.621
X-0.222 Y104.692
X-0.104 Y104.784
X-0.004 Y104.897
X0.105 Y105.041
X0.213 Y105.211
X0.329 Y105.43
X0.451 Y105.712
X0.574 Y106.077
X0.701 Y106.585
X0.822 Y107.312
X0.888 Y108.047
X0.924 Y108.784
X0.944 Y109.522
X0.95 Y109.891
X1.065 Y110.241
X1.28 Y110.541
X1.83 Y111.033
X2.508 Y111.323
X3.228 Y111.484
X3.961 Y111.569
X4.698 Y111.612
X5.435 Y111.633
X6.173 Y111.642
X6.911 Y111.646
X7.649 Y111.648
X39.375 Y111.647
X40.112 Y111.648
X40.743 Y111.665
X41.065 Y111.7
X41.3 Y111.745
X41.368 Y111.764
X41.546 Y111.839
X41.698 Y111.956
X41.814 Y112.109
X41.888 Y112.287
X41.912 Y112.478
Y112.837
X41.915 Y113.005
X41.921 Y113.173
X41.926 Y113.206
X41.927 Y113.237 Z-5.476
X41.922 Y113.274 Z-5.46
X41.917 Y113.304 Z-5.432
X41.914 Y113.323 Z-5.396
X41.913 Y113.33 Z-5.355
G0 Z5.
X-0.108 Y105.034
Z-4.845
G1 Z-5.162 F1016.
X-0.113 Y105.028 Z-5.233
X-0.127 Y105.01 Z-5.3
X-0.151 Y104.98 Z-5.36
X-0.182 Y104.94 Z-5.411
X-0.219 Y104.893 Z-5.449
X-0.261 Y104.84 Z-5.472
X-0.305 Y104.785 Z-5.48
G3 X-0.222 Y104.692 I0.05 J-0.039
G1 X-0.075 Y104.789
X-0.054 Y104.801
X0.113 Y104.889
X0.284 Y104.957
X0.375 Y104.986
X0.515 Y105.038
X0.649 Y105.107
X0.773 Y105.19
X0.889 Y105.286
X1.009 Y105.402
X1.129 Y105.54
X1.263 Y105.72
X1.405 Y105.947
X1.537 Y106.201
X1.682 Y106.545
X1.819 Y106.961
X1.961 Y107.545
X2.077 Y108.274
X2.167 Y108.632
X2.343 Y108.956
X2.823 Y109.516
X3.467 Y109.877
X4.171 Y110.095
X4.898 Y110.222
X5.633 Y110.293
X6.369 Y110.333
X7.107 Y110.354
X7.845 Y110.365
X8.583 Y110.371
X9.32 Y110.374
X10.796 Y110.377
X27.028
X38.833
X39.571 Y110.381
X40.295 Y110.403
X40.693 Y110.447
X40.972 Y110.501
X41.227 Y110.572
X41.426 Y110.646
X41.482 Y110.671
X41.658 Y110.786
X41.796 Y110.945
X41.883 Y111.136
X41.912 Y111.344
Y112.478
X41.904 Y112.515 Z-5.474
X41.896 Y112.549 Z-5.456
X41.89 Y112.576 Z-5.428
X41.885 Y112.593 Z-5.394
X41.884 Y112.599 Z-5.355
G0 Z5.
X0.577 Y105.285
Z-4.845
G1 Z-5.162 F1016.
X0.57 Y105.28 Z-5.233
X0.551 Y105.266 Z-5.3
X0.521 Y105.244 Z-5.36
X0.48 Y105.214 Z-5.411
X0.431 Y105.179 Z-5.449
X0.377 Y105.139 Z-5.472
X0.32 Y105.098 Z-5.48
G3 X0.375 Y104.986 I0.037 J-0.051
G1 X0.449 Y105.009
X0.616 Y105.051
X0.784 Y105.073
X0.952 Y105.084
X1.044 Y105.086
X1.193 Y105.097
X1.339 Y105.132
X1.479 Y105.185
X1.613 Y105.253
X1.744 Y105.336
X1.873 Y105.433
X2.019 Y105.562
X2.162 Y105.71
X2.315 Y105.897
X2.478 Y106.133
X2.632 Y106.398
X2.949 Y107.064
X3.114 Y107.394
X3.546 Y107.992
X4.149 Y108.417
X4.833 Y108.693
X5.551 Y108.865
X6.282 Y108.967
X7.017 Y109.028
X7.754 Y109.062
X8.491 Y109.082
X9.229 Y109.094
X9.967 Y109.1
X10.705 Y109.103
X12.18 Y109.106
X16.607 Y109.107
X38.004
X38.742 Y109.109
X39.479 Y109.12
X40.15 Y109.162
X40.631 Y109.231
X40.964 Y109.306
X41.235 Y109.391
X41.448 Y109.477
X41.503 Y109.505
X41.672 Y109.62
X41.802 Y109.778
X41.884 Y109.965
X41.912 Y110.167
Y111.344
X41.904 Y111.381 Z-5.474
X41.896 Y111.415 Z-5.456
X41.89 Y111.442 Z-5.428
X41.885 Y111.459 Z-5.394
X41.884 Y111.465 Z-5.355
G0 Z5.
X1.323 Y105.315
Z-4.845
G1 Z-5.162 F1016.
X1.315 Y105.312 Z-5.233
X1.293 Y105.305 Z-5.3
X1.257 Y105.292 Z-5.36
X1.21 Y105.275 Z-5.411
X1.153 Y105.255 Z-5.449
X1.09 Y105.233 Z-5.472
X1.024 Y105.209 Z-5.48
G3 X1.044 Y105.086 I0.021 J-0.06
G1 X1.119 Y105.088
X1.958
X2.107 Y105.095
X2.254 Y105.126
X2.397 Y105.172
X2.534 Y105.232
X2.668 Y105.304
X2.823 Y105.405
X3.003 Y105.544
X3.287 Y105.801
X3.792 Y106.339
X4.349 Y106.823
X4.993 Y107.183
X5.69 Y107.427
X6.41 Y107.585
X7.141 Y107.685
X7.876 Y107.746
X8.613 Y107.784
X9.351 Y107.806
X10.089 Y107.819
X10.826 Y107.827
X11.564 Y107.831
X12.302 Y107.834
X13.778 Y107.836
X19.68 Y107.837
X37.388 Y107.838
X38.125 Y107.84
X38.863 Y107.849
X39.6 Y107.881
X40.253 Y107.949
X40.731 Y108.039
X41.062 Y108.129
X41.319 Y108.221
X41.47 Y108.29
X41.652 Y108.407
X41.794 Y108.57
X41.883 Y108.767
X41.913 Y108.981
Y109.484
X41.912 Y110.167
X41.904 Y110.204 Z-5.474
X41.896 Y110.238 Z-5.456
X41.89 Y110.265 Z-5.428
X41.885 Y110.282 Z-5.394
X41.884 Y110.288 Z-5.355
G0 Z5.
X2.241 Y105.311
Z-4.845
G1 Z-5.162 F1016.
X2.234 Y105.308 Z-5.233
X2.211 Y105.301 Z-5.3
X2.175 Y105.289 Z-5.36
X2.128 Y105.273 Z-5.411
X2.071 Y105.254 Z-5.449
X2.007 Y105.233 Z-5.472
X1.94 Y105.211 Z-5.48
G3 X1.958 Y105.088 I0.02 J-0.06
G1 X2.963
X3.113 Y105.095
X3.262 Y105.115
X3.456 Y105.158
X3.715 Y105.238
X4.4 Y105.513
X5.077 Y105.805
X5.775 Y106.046
X6.491 Y106.223
X7.219 Y106.345
X7.952 Y106.426
X8.688 Y106.479
X9.425 Y106.513
X10.162 Y106.534
X10.9 Y106.547
X11.638 Y106.555
X12.376 Y106.56
X13.114 Y106.563
X14.589 Y106.566
X19.016 Y106.567
X36.724 Y106.568
X37.461 Y106.569
X38.199 Y106.577
X38.937 Y106.597
X39.673 Y106.645
X40.333 Y106.734
X40.783 Y106.831
X41.129 Y106.936
X41.365 Y107.028
X41.593 Y107.14
X41.771 Y107.245
X41.831 Y107.287
X41.977 Y107.423
X42.081 Y107.592
X42.137 Y107.783
X42.139 Y107.982
X42.089 Y108.174
X42.033 Y108.31
X41.981 Y108.478
X41.947 Y108.645
X41.924 Y108.813
X41.913 Y108.981
X41.902 Y109.017 Z-5.474
X41.892 Y109.051 Z-5.456
X41.884 Y109.077 Z-5.428
X41.879 Y109.093 Z-5.394
X41.877 Y109.099 Z-5.355
G0 Z5.
X3.247 Y105.311
Z-4.845
G1 Z-5.162 F1016.
X3.24 Y105.308 Z-5.233
X3.217 Y105.301 Z-5.3
X3.181 Y105.289 Z-5.36
X3.134 Y105.273 Z-5.411
X3.076 Y105.254 Z-5.449
X3.013 Y105.233 Z-5.472
X2.946 Y105.211 Z-5.48
G3 X2.963 Y105.088 I0.02 J-0.06
G1 X5.981
X6.718 Y105.124
X7.455 Y105.149
X8.192 Y105.184
X8.929 Y105.216
X9.667 Y105.241
X10.404 Y105.26
X11.142 Y105.273
X11.88 Y105.282
X12.618 Y105.288
X13.355 Y105.291
X14.831 Y105.295
X17.782 Y105.297
X35.49
X36.228 Y105.298
X36.965 Y105.3
X37.703 Y105.307
X38.441 Y105.325
X39.178 Y105.363
X39.912 Y105.436
X40.516 Y105.541
X40.992 Y105.663
X41.357 Y105.789
X41.646 Y105.916
X41.86 Y106.031
X42.057 Y106.158
X42.219 Y106.281
X42.356 Y106.406
X42.487 Y106.544
X42.527 Y106.594
X42.632 Y106.771
X42.685 Y106.97
X42.681 Y107.175
X42.62 Y107.372
X42.508 Y107.544
X42.359 Y107.715
X42.292 Y107.807
X42.182 Y107.975
X42.102 Y108.142
X42.089 Y108.174
X42.067 Y108.205 Z-5.474
X42.047 Y108.233 Z-5.456
X42.031 Y108.255 Z-5.428
X42.021 Y108.27 Z-5.394
X42.017 Y108.275 Z-5.355
G0 Z5.
X6.265 Y105.311
Z-4.845
G1 Z-5.162 F1016.
X6.257 Y105.308 Z-5.233
X6.235 Y105.301 Z-5.3
X6.199 Y105.289 Z-5.36
X6.151 Y105.273 Z-5.411
X6.094 Y105.254 Z-5.449
X6.03 Y105.233 Z-5.472
X5.963 Y105.211 Z-5.48
G3 X5.981 Y105.088 I0.02 J-0.06
G1 X41.354
X41.553 Y105.097
X41.731 Y105.121
X41.917 Y105.161
X42.106 Y105.217
X42.288 Y105.288
X42.449 Y105.366
X42.615 Y105.464
X42.751 Y105.56
X42.873 Y105.661
X42.994 Y105.779
X43.093 Y105.892
X43.182 Y106.013
X43.264 Y106.145
X43.29 Y106.196
X43.36 Y106.409
X43.364 Y106.632
X43.301 Y106.847
X43.176 Y107.033
X43.002 Y107.174
X42.862 Y107.255
X42.695 Y107.375
X42.582 Y107.472
X42.527 Y107.522
X42.508 Y107.544
G3 X41.989 Y107.463 I-0.232 J-0.217
G1 X41.078 Y105.541
G3 X41.233 Y105.116 I0.287 J-0.136
X41.354 Y105.088 I0.132 J0.289
G1 X42.695
X42.845 Y105.095
X42.993 Y105.119
X43.137 Y105.161
X43.275 Y105.218
X43.407 Y105.29
X43.53 Y105.375
X43.645 Y105.472
X43.749 Y105.58
X43.84 Y105.699
X43.92 Y105.826
X43.986 Y105.961
X44.002 Y106.007
X44.046 Y106.206
X44.033 Y106.408
X43.966 Y106.6
X43.849 Y106.767
X43.691 Y106.895
X43.504 Y106.976
X43.365 Y107.014
X43.198 Y107.074
X43.07 Y107.136
X43.03 Y107.157
X43.002 Y107.174
G3 X42.884 Y107.21 I-0.15 J-0.28
X42.536 Y106.925 I-0.031 J-0.316
G1 X42.39 Y105.436
G3 X42.574 Y105.116 I0.316 J-0.031
X42.695 Y105.088 I0.132 J0.289
G1 X43.625
X43.775 Y105.095
X43.921 Y105.131
X44.059 Y105.188
X44.189 Y105.264
X44.307 Y105.355
X44.414 Y105.461
X44.506 Y105.58
X44.583 Y105.708
X44.645 Y105.845
X44.691 Y105.988
X44.701 Y106.037
X44.712 Y106.246
X44.664 Y106.45
X44.562 Y106.633
X44.412 Y106.779
X44.227 Y106.878
X44.022 Y106.921
X43.701 Y106.942
X43.529 Y106.969
X43.504 Y106.976
G3 X43.117 Y106.616 I-0.074 J-0.309
G1 X43.323 Y105.354
G3 X43.505 Y105.116 I0.313 J0.051
X43.625 Y105.088 I0.132 J0.289
G1 X44.371
X44.521 Y105.095
X44.665 Y105.136
X44.801 Y105.201
X44.925 Y105.284
X45.037 Y105.384
X45.135 Y105.498
X45.217 Y105.623
X45.284 Y105.757
X45.335 Y105.899
X45.367 Y106.045
X45.372 Y106.091
X45.366 Y106.297
X45.302 Y106.494
X45.187 Y106.666
X45.029 Y106.799
X44.84 Y106.884
X44.636 Y106.912
X44.204
X44.022 Y106.921
G3 X43.709 Y106.51 I-0.009 J-0.317
G1 X44.079 Y105.311
G3 X44.251 Y105.116 I0.303 J0.094
X44.371 Y105.088 I0.132 J0.289
G1 X45.042
X45.192 Y105.095
X45.336 Y105.136
X45.471 Y105.2
X45.595 Y105.285
X45.706 Y105.386
X45.803 Y105.5
X45.885 Y105.626
X45.95 Y105.761
X45.999 Y105.903
X46.03 Y106.05
X46.035 Y106.101
X46.026 Y106.306
X45.961 Y106.501
X45.846 Y106.67
X45.688 Y106.801
X45.5 Y106.884
X45.297 Y106.912
X44.636
G3 X44.515 Y106.884 I0.011 J-0.317
X44.346 Y106.493 I0.132 J-0.289
G1 X44.752 Y105.302
G3 X44.921 Y105.116 I0.3 J0.103
X45.042 Y105.088 I0.132 J0.289
G1 X45.712
X45.862 Y105.095
X46.006 Y105.137
X46.141 Y105.203
X46.264 Y105.288
X46.375 Y105.39
X46.47 Y105.505
X46.551 Y105.632
X46.615 Y105.767
X46.663 Y105.909
X46.694 Y106.056
X46.698 Y106.106
X46.688 Y106.31
X46.623 Y106.503
X46.507 Y106.672
X46.35 Y106.802
X46.163 Y106.884
X45.96 Y106.912
X45.297
G3 X45.177 Y106.884 I0.011 J-0.317
X45.009 Y106.491 I0.132 J-0.289
G1 X45.424 Y105.3
G3 X45.592 Y105.116 I0.3 J0.104
X45.712 Y105.088 I0.132 J0.289
G1 X46.349
X46.499 Y105.095
X46.644 Y105.132
X46.781 Y105.193
X46.906 Y105.275
X47.019 Y105.374
X47.117 Y105.488
X47.201 Y105.612
X47.267 Y105.747
X47.318 Y105.888
X47.352 Y106.034
X47.358 Y106.094
X47.351 Y106.3
X47.287 Y106.496
X47.172 Y106.667
X47.014 Y106.8
X46.826 Y106.884
X46.621 Y106.912
X45.96
G3 X45.84 Y106.884 I0.011 J-0.317
X45.669 Y106.497 I0.132 J-0.289
G1 X46.058 Y105.306
G3 X46.228 Y105.116 I0.302 J0.099
X46.349 Y105.088 I0.132 J0.289
G1 X47.019
X47.169 Y105.095
X47.314 Y105.134
X47.45 Y105.197
X47.575 Y105.28
X47.687 Y105.38
X47.784 Y105.494
X47.867 Y105.619
X47.932 Y105.754
X47.982 Y105.896
X48.015 Y106.042
X48.02 Y106.098
X48.012 Y106.303
X47.948 Y106.498
X47.832 Y106.669
X47.675 Y106.801
X47.487 Y106.884
X47.283 Y106.912
X46.621
G3 X46.501 Y106.884 I0.011 J-0.317
X46.331 Y106.495 I0.132 J-0.289
G1 X46.729 Y105.304
G3 X46.899 Y105.116 I0.301 J0.101
X47.019 Y105.088 I0.132 J0.289
G1 X47.69
X47.84 Y105.095
X47.984 Y105.135
X48.12 Y105.2
X48.244 Y105.284
X48.355 Y105.385
X48.451 Y105.5
X48.533 Y105.626
X48.598 Y105.761
X48.646 Y105.903
X48.678 Y106.05
X48.683 Y106.102
X48.674 Y106.307
X48.609 Y106.501
X48.493 Y106.67
X48.336 Y106.801
X48.148 Y106.884
X47.945 Y106.912
X47.283
G3 X47.162 Y106.884 I0.011 J-0.317
X46.994 Y106.492 I0.132 J-0.289
G1 X47.401 Y105.302
G3 X47.569 Y105.116 I0.3 J0.103
X47.69 Y105.088 I0.132 J0.289
G1 X48.319
X48.469 Y105.095
X48.615 Y105.129
X48.753 Y105.188
X48.88 Y105.268
X48.994 Y105.366
X49.093 Y105.478
X49.178 Y105.601
X49.247 Y105.735
X49.299 Y105.876
X49.334 Y106.021
X49.342 Y106.086
X49.336 Y106.294
X49.274 Y106.492
X49.159 Y106.664
X49.001 Y106.799
X48.811 Y106.883
X48.606 Y106.912
X47.945
G3 X47.825 Y106.884 I0.011 J-0.317
X47.653 Y106.5 I0.132 J-0.289
G1 X48.027 Y105.31
G3 X48.199 Y105.116 I0.303 J0.095
X48.319 Y105.088 I0.132 J0.289
G1 X48.99
X49.14 Y105.095
X49.285 Y105.131
X49.422 Y105.192
X49.548 Y105.273
X49.661 Y105.372
X49.76 Y105.485
X49.844 Y105.609
X49.911 Y105.743
X49.962 Y105.884
X49.996 Y106.03
X50.003 Y106.091
X49.997 Y106.297
X49.933 Y106.494
X49.818 Y106.666
X49.66 Y106.799
X49.471 Y106.884
X49.267 Y106.912
X48.606
G3 X48.485 Y106.884 I0.011 J-0.317
X48.315 Y106.498 I0.132 J-0.289
G1 X48.699 Y105.307
G3 X48.869 Y105.116 I0.302 J0.097
X48.99 Y105.088 I0.132 J0.289
G1 X49.66
X49.81 Y105.095
X49.955 Y105.133
X50.092 Y105.196
X50.217 Y105.278
X50.329 Y105.378
X50.427 Y105.491
X50.51 Y105.616
X50.576 Y105.751
X50.626 Y105.892
X50.659 Y106.039
X50.665 Y106.095
X50.657 Y106.301
X50.593 Y106.497
X50.478 Y106.668
X50.32 Y106.8
X50.132 Y106.884
X49.928 Y106.912
X49.267
G3 X49.146 Y106.884 I0.011 J-0.317
X48.976 Y106.495 I0.132 J-0.289
G1 X49.37 Y105.305
G3 X49.54 Y105.116 I0.301 J0.1
X49.66 Y105.088 I0.132 J0.289
G1 X50.331
X50.481 Y105.095
X50.625 Y105.135
X50.761 Y105.199
X50.885 Y105.282
X50.997 Y105.383
X51.094 Y105.498
X51.176 Y105.623
X51.241 Y105.758
X51.29 Y105.9
X51.322 Y106.046
X51.327 Y106.1
X51.319 Y106.305
X51.254 Y106.5
X51.138 Y106.67
X50.981 Y106.801
X50.793 Y106.884
X50.59 Y106.912
X49.928
G3 X49.807 Y106.884 I0.011 J-0.317
X49.638 Y106.493 I0.132 J-0.289
G1 X50.041 Y105.303
G3 X50.21 Y105.116 I0.301 J0.102
X50.331 Y105.088 I0.132 J0.289
G1 X51.001
X51.151 Y105.095
X51.295 Y105.136
X51.43 Y105.202
X51.554 Y105.287
X51.665 Y105.388
X51.761 Y105.503
X51.842 Y105.629
X51.906 Y105.765
X51.955 Y105.907
X51.986 Y106.054
X51.99 Y106.104
X51.981 Y106.309
X51.915 Y106.502
X51.8 Y106.671
X51.642 Y106.802
X51.455 Y106.884
X51.252 Y106.912
G3 X51.132 Y106.884 I0.011 J-0.317
X50.953 Y106.661 I0.132 J-0.289
G1 X50.702 Y105.47
G3 X50.881 Y105.116 I0.311 J-0.066
X51.001 Y105.088 I0.132 J0.289
G1 X51.672
X51.822 Y105.095
X51.966 Y105.138
X52.1 Y105.205
X52.223 Y105.29
X52.333 Y105.393
X52.428 Y105.508
X52.509 Y105.635
X52.572 Y105.771
X52.619 Y105.913
X52.65 Y106.06
X52.654 Y106.108
X52.643 Y106.312
X52.577 Y106.505
X52.461 Y106.673
X52.304 Y106.802
X52.118 Y106.884
X51.916 Y106.912
G3 X51.795 Y106.884 I0.011 J-0.317
X51.616 Y106.659 I0.132 J-0.289
G1 X51.372 Y105.468
G3 X51.551 Y105.116 I0.311 J-0.064
X51.672 Y105.088 I0.132 J0.289
G1 X52.301
X52.451 Y105.095
X52.597 Y105.131
X52.733 Y105.192
X52.859 Y105.274
X52.972 Y105.373
X53.071 Y105.486
X53.155 Y105.61
X53.222 Y105.744
X53.273 Y105.885
X53.307 Y106.031
X53.313 Y106.092
X53.306 Y106.299
X53.243 Y106.495
X53.128 Y106.667
X52.97 Y106.8
X52.781 Y106.884
X52.577 Y106.912
G3 X52.456 Y106.884 I0.011 J-0.317
X52.278 Y106.667 I0.132 J-0.289
G1 X52.003 Y105.476
G3 X52.18 Y105.116 I0.309 J-0.072
X52.301 Y105.088 I0.132 J0.289
G1 X52.972
X53.121 Y105.095
X53.267 Y105.133
X53.403 Y105.196
X53.528 Y105.279
X53.64 Y105.378
X53.737 Y105.492
X53.821 Y105.617
X53.837 Y105.652
X53.879 Y105.756
X53.904 Y105.865
X53.912 Y105.977
G3 X53.381 Y106.2 I-0.317 J-0.011
G1 X52.768 Y105.639
G3 X52.851 Y105.116 I0.214 J-0.234
X52.972 Y105.088 I0.132 J0.289
G1 X53.592
X53.625 Y105.091
X53.659 Y105.098
X53.693 Y105.109
X53.727 Y105.124
X53.759 Y105.144
X53.8 Y105.176
X53.841 Y105.218
X53.867 Y105.255
X53.886 Y105.292
X53.901 Y105.334
X53.91 Y105.376
X53.912 Y105.46
Y106.298
X53.905 Y106.448
X53.841 Y106.631
X53.717 Y106.781
X53.549 Y106.878
X53.358 Y106.912
G3 X53.238 Y106.884 I0.011 J-0.317
X53.12 Y106.399 I0.132 J-0.289
G1 X53.346 Y106.112
G3 X53.912 Y106.298 I0.249 J0.197
G1 Y106.466
X53.908 Y106.633
X53.899 Y106.675
X53.882 Y106.717
X53.859 Y106.759
X53.825 Y106.801
X53.792 Y106.831
X53.759 Y106.856
X53.717 Y106.881
X53.675 Y106.898
X53.633 Y106.908
X53.592 Y106.912
X50.59
X50.553 Y106.904 Z-5.474
X50.519 Y106.896 Z-5.456
X50.492 Y106.89 Z-5.428
X50.475 Y106.885 Z-5.394
X50.469 Y106.884 Z-5.355
G0 Z5.
X64.311 Y108.529
Z-1.855
G1 Z-2.172 F1016.
X64.308 Y108.537 Z-2.243
X64.301 Y108.559 Z-2.31
X64.289 Y108.595 Z-2.37
X64.273 Y108.643 Z-2.421
X64.254 Y108.7 Z-2.459
X64.233 Y108.764 Z-2.482
X64.211 Y108.831 Z-2.49
G3 X64.088 Y108.813 I-0.06 J-0.02
G1 Y107.639
X64.095 Y107.49
X64.123 Y107.342
X64.165 Y107.198
X64.222 Y107.051
X64.301 Y106.886
X64.402 Y106.714
X64.53 Y106.53
X64.696 Y106.328
X64.891 Y106.126
X65.142 Y105.906
X65.435 Y105.687
X65.801 Y105.457
X66.249 Y105.223
X66.432 Y105.146
X66.525 Y105.114
X66.622 Y105.094
X66.721 Y105.088
G3 X66.841 Y105.116 I-0.011 J0.317
X66.93 Y105.633 I-0.132 J0.289
G1 X64.625 Y107.857
G3 X64.116 Y107.76 I-0.22 J-0.229
X64.088 Y107.639 I0.289 J-0.132
G1 Y106.466
X64.095 Y106.316
X64.123 Y106.169
X64.165 Y106.025
X64.225 Y105.87
X64.302 Y105.709
X64.41 Y105.524
X64.492 Y105.405
X64.61 Y105.273
X64.757 Y105.172
X64.924 Y105.109
X65.1 Y105.088
G3 X65.221 Y105.116 I-0.011 J0.317
X65.355 Y105.578 I-0.132 J0.289
G1 X64.671 Y106.628
G3 X64.116 Y106.586 I-0.266 J-0.173
X64.088 Y106.466 I0.289 J-0.132
G1 Y105.46
X64.09 Y105.376
X64.099 Y105.334
X64.114 Y105.292
X64.131 Y105.259
X64.153 Y105.226
X64.18 Y105.195
X64.211 Y105.164
X64.241 Y105.142
X64.27 Y105.124
X64.321 Y105.103
X64.363 Y105.092
X64.404 Y105.088
X122.828
X122.996 Y105.086
X123.066 Y105.083
X123.068
X123.105 Y105.09 Z-2.483
X123.139 Y105.097 Z-2.465
X123.165 Y105.102 Z-2.438
X123.182 Y105.105 Z-2.403
X123.188 Y105.106 Z-2.365
G0 Z5.
X63.317 Y114.935
Z-4.845
G1 Z-5.162 F1016.
X63.309 Y114.936 Z-5.233
X63.285 Y114.938 Z-5.3
X63.248 Y114.942 Z-5.36
X63.198 Y114.948 Z-5.411
X63.138 Y114.954 Z-5.449
X63.071 Y114.962 Z-5.472
X63.001 Y114.969 Z-5.48
G3 X62.966 Y114.85 I-0.007 J-0.063
G1 X62.979 Y114.843
X63.235 Y114.682
X63.482 Y114.469
X63.539 Y114.408
X63.592 Y114.347
X63.65 Y114.269
X63.745 Y114.153
X63.853 Y114.048
X63.976 Y113.948
X64.135 Y113.838
X64.336 Y113.723
X64.582 Y113.606
X64.911 Y113.482
X65.342 Y113.357
X65.97 Y113.229
X66.703 Y113.14
X67.439 Y113.091
X68.176 Y113.064
X68.914 Y113.049
X69.652 Y113.041
X70.389 Y113.037
X71.127 Y113.035
X72.603 Y113.032
X80.719
X113.92
X129.784
X130.15 Y112.993
X130.492 Y112.854
X130.789 Y112.635
X131.287 Y112.09
X131.599 Y111.422
X131.785 Y110.708
X131.893 Y109.978
X131.954 Y109.243
X131.989 Y108.506
X132.008 Y107.768
X132.018 Y107.03
X132.024 Y106.293
X132.028 Y105.555
X132.03 Y104.079
X132.032 Y98.915
Y79.731
Y67.188
X132.041 Y66.686
X132.046 Y66.64
X132.097 Y66.432
X132.206 Y66.248
X132.363 Y66.102
X132.556 Y66.008
X132.719 Y65.955
X132.89 Y65.887
X133.054 Y65.801
X133.222 Y65.691
X133.306 Y65.626
X133.392 Y65.552
X133.523 Y65.423
X133.556 Y65.403 Z-5.474
X133.585 Y65.385 Z-5.456
X133.609 Y65.371 Z-5.428
X133.624 Y65.362 Z-5.394
X133.629 Y65.359 Z-5.355
G0 Z5.
X63.998 Y114.174
Z-4.845
G1 Z-5.162 F1016.
X63.992 Y114.179 Z-5.233
X63.973 Y114.192 Z-5.3
X63.942 Y114.214 Z-5.36
X63.901 Y114.243 Z-5.411
X63.851 Y114.277 Z-5.449
X63.796 Y114.316 Z-5.472
X63.739 Y114.357 Z-5.48
G3 X63.65 Y114.269 I-0.036 J-0.052
G1 X63.717 Y114.179
X63.82 Y114.011
X63.908 Y113.844
X63.972 Y113.676
X63.985 Y113.627
X64.032 Y113.484
X64.101 Y113.351
X64.185 Y113.227
X64.281 Y113.111
X64.397 Y112.993
X64.549 Y112.86
X64.726 Y112.73
X64.939 Y112.598
X65.223 Y112.452
X65.549 Y112.316
X65.993 Y112.172
X66.585 Y112.031
X67.314 Y111.918
X68.049 Y111.852
X68.786 Y111.814
X69.524 Y111.792
X70.261 Y111.779
X70.999 Y111.772
X71.737 Y111.767
X72.475 Y111.765
X73.95 Y111.763
X79.853 Y111.762
X113.792
X128.549
X128.908 Y111.68
X129.237 Y111.512
X129.809 Y111.046
X130.188 Y110.413
X130.424 Y109.714
X130.565 Y108.99
X130.648 Y108.257
X130.697 Y107.521
X130.725 Y106.783
X130.741 Y106.046
X130.75 Y105.308
X130.755 Y104.57
X130.758 Y103.832
X130.76 Y102.357
X130.762 Y97.192
Y77.271
Y68.417
X130.764 Y67.679
X130.789 Y67.275
X130.829 Y66.991
X130.885 Y66.746
X130.928 Y66.608
X131.032 Y66.398
X131.196 Y66.232
X131.404 Y66.124
X131.635 Y66.088
X131.881
X132.048 Y66.084
X132.216 Y66.073
X132.384 Y66.051
X132.556 Y66.008
X132.587 Y66.003 Z-5.476
X132.617 Y65.999 Z-5.463
X132.642 Y65.996 Z-5.444
X132.662 Y65.997 Z-5.418
X132.675 Y65.998 Z-5.388
X132.679 Z-5.355
G0 Z5.
X64.275 Y113.412
Z-4.845
G1 Z-5.162 F1016.
X64.271 Y113.418 Z-5.233
X64.258 Y113.438 Z-5.3
X64.237 Y113.47 Z-5.36
X64.209 Y113.511 Z-5.411
X64.176 Y113.562 Z-5.449
X64.139 Y113.617 Z-5.472
X64.1 Y113.676 Z-5.48
G3 X63.985 Y113.627 I-0.053 J-0.035
G1 X64.018 Y113.508
X64.057 Y113.341
X64.079 Y113.173
X64.085 Y113.005
X64.086 Y112.954
X64.096 Y112.805
X64.131 Y112.659
X64.185 Y112.519
X64.253 Y112.385
X64.336 Y112.254
X64.432 Y112.126
X64.56 Y111.982
X64.712 Y111.836
X64.897 Y111.684
X65.138 Y111.518
X65.401 Y111.366
X65.761 Y111.195
X66.166 Y111.041
X66.717 Y110.88
X67.439 Y110.732
X68.171 Y110.639
X68.907 Y110.581
X69.644 Y110.546
X70.381 Y110.524
X71.119 Y110.511
X71.857 Y110.503
X72.595 Y110.498
X73.332 Y110.496
X74.808 Y110.493
X79.235 Y110.492
X113.174
X127.193
X127.555 Y110.42
X127.889 Y110.264
X128.182 Y110.04
X128.682 Y109.497
X129.005 Y108.834
X129.204 Y108.123
X129.323 Y107.395
X129.394 Y106.661
X129.435 Y105.924
X129.459 Y105.187
X129.473 Y104.449
X129.481 Y103.711
X129.485 Y102.974
X129.488 Y102.236
X129.49 Y100.76
X129.492 Y95.595
Y74.937
Y69.034
X129.498 Y68.296
X129.531 Y67.683
X129.584 Y67.29
X129.652 Y66.977
X129.72 Y66.753
X129.81 Y66.525
X129.821 Y66.502
X129.936 Y66.332
X130.094 Y66.2
X130.282 Y66.116
X130.486 Y66.088
X131.635
X131.672 Y66.096 Z-5.474
X131.706 Y66.104 Z-5.456
X131.733 Y66.11 Z-5.428
X131.75 Y66.115 Z-5.394
X131.756 Y66.116 Z-5.355
G0 Z5.
X64.313 Y112.674
Z-4.845
G1 Z-5.162 F1016.
X64.311 Y112.682 Z-5.233
X64.303 Y112.704 Z-5.3
X64.29 Y112.74 Z-5.36
X64.274 Y112.787 Z-5.411
X64.254 Y112.844 Z-5.449
X64.232 Y112.907 Z-5.472
X64.209 Y112.974 Z-5.48
G3 X64.086 Y112.954 I-0.06 J-0.021
G1 X64.088 Y112.837
Y112.075
X64.095 Y111.925
X64.121 Y111.777
X64.164 Y111.633
X64.221 Y111.495
X64.29 Y111.361
X64.383 Y111.212
X64.496 Y111.059
X64.638 Y110.897
X64.81 Y110.729
X65.018 Y110.557
X65.278 Y110.375
X65.579 Y110.198
X65.972 Y110.008
X66.423 Y109.832
X67.005 Y109.659
X67.726 Y109.505
X68.457 Y109.404
X69.192 Y109.337
X69.929 Y109.295
X70.666 Y109.267
X71.404 Y109.25
X72.141 Y109.239
X72.879 Y109.232
X73.617 Y109.228
X74.355 Y109.226
X75.83 Y109.223
X80.257 Y109.222
X113.459
X126.002
X126.356 Y109.12
X126.679 Y108.941
X127.244 Y108.466
X127.622 Y107.833
X127.862 Y107.135
X128.008 Y106.412
X128.096 Y105.679
X128.148 Y104.943
X128.179 Y104.206
X128.197 Y103.469
X128.207 Y102.731
X128.213 Y101.993
X128.217 Y101.255
X128.22 Y99.78
X128.222 Y96.091
Y72.48
Y70.267
X128.223 Y69.529
X128.232 Y68.791
X128.268 Y68.055
X128.337 Y67.507
X128.414 Y67.134
X128.504 Y66.828
X128.588 Y66.609
X128.636 Y66.509
X128.75 Y66.336
X128.909 Y66.202
X129.098 Y66.117
X129.304 Y66.088
X130.486
X130.523 Y66.096 Z-5.474
X130.557 Y66.104 Z-5.456
X130.584 Y66.11 Z-5.428
X130.601 Y66.115 Z-5.394
X130.607 Y66.116 Z-5.355
G0 Z5.
X64.311 Y111.791
Z-4.845
G1 Z-5.162 F1016.
X64.308 Y111.798 Z-5.233
X64.301 Y111.821 Z-5.3
X64.289 Y111.857 Z-5.36
X64.273 Y111.904 Z-5.411
X64.254 Y111.961 Z-5.449
X64.233 Y112.025 Z-5.472
X64.211 Y112.092 Z-5.48
G3 X64.088 Y112.075 I-0.06 J-0.02
G1 Y111.068
X64.095 Y110.919
X64.117 Y110.77
X64.155 Y110.625
X64.207 Y110.484
X64.277 Y110.336
X64.363 Y110.186
X64.476 Y110.022
X64.616 Y109.848
X64.787 Y109.669
X64.998 Y109.481
X65.249 Y109.29
X65.56 Y109.092
X65.931 Y108.895
X66.386 Y108.699
X66.96 Y108.504
X67.675 Y108.323
X68.403 Y108.2
X69.136 Y108.115
X69.871 Y108.059
X70.608 Y108.021
X71.346 Y107.996
X72.083 Y107.98
X72.821 Y107.97
X73.559 Y107.963
X74.297 Y107.959
X75.035 Y107.956
X76.51 Y107.953
X80.199 Y107.952
X113.401
X124.468
X124.835 Y107.909
X125.183 Y107.787
X125.495 Y107.591
X126.033 Y107.086
X126.391 Y106.441
X126.616 Y105.738
X126.752 Y105.013
X126.834 Y104.28
X126.883 Y103.544
X126.911 Y102.806
X126.928 Y102.069
X126.938 Y101.331
X126.944 Y100.593
X126.947 Y99.855
X126.95 Y98.38
X126.952 Y94.691
Y71.081
Y70.343
X126.957 Y69.605
X126.976 Y68.867
X127.025 Y68.131
X127.111 Y67.533
X127.201 Y67.135
X127.302 Y66.815
X127.392 Y66.59
X127.439 Y66.497
X127.555 Y66.328
X127.712 Y66.198
X127.899 Y66.116
X128.102 Y66.087
X129.304 Y66.088
X129.341 Y66.096 Z-5.474
X129.375 Y66.104 Z-5.456
X129.402 Y66.11 Z-5.428
X129.419 Y66.115 Z-5.394
X129.425 Y66.116 Z-5.355
G0 Z5.
X64.311 Y110.785
Z-4.845
G1 Z-5.162 F1016.
X64.308 Y110.792 Z-5.233
X64.301 Y110.815 Z-5.3
X64.289 Y110.851 Z-5.36
X64.273 Y110.898 Z-5.411
X64.254 Y110.955 Z-5.449
X64.233 Y111.019 Z-5.472
X64.211 Y111.086 Z-5.48
G3 X64.088 Y111.068 I-0.06 J-0.02
G1 Y109.987
X64.095 Y109.837
X64.115 Y109.688
X64.152 Y109.543
X64.202 Y109.402
X64.272 Y109.246
X64.356 Y109.092
X64.472 Y108.916
X64.609 Y108.741
X64.787 Y108.549
X64.995 Y108.356
X65.26 Y108.148
X65.569 Y107.943
X65.968 Y107.723
X66.414 Y107.521
X66.993 Y107.313
X67.705 Y107.121
X68.43 Y106.984
X69.162 Y106.888
X69.897 Y106.821
X70.633 Y106.775
X71.37 Y106.743
X72.108 Y106.722
X72.845 Y106.708
X73.583 Y106.699
X74.321 Y106.692
X75.059 Y106.689
X76.534 Y106.684
X78.748 Y106.682
X101.62
X113.425
X123.017
X123.385 Y106.665
X123.744 Y106.579
X124.074 Y106.414
X124.654 Y105.958
X125.048 Y105.334
X125.298 Y104.64
X125.453 Y103.919
X125.546 Y103.187
X125.601 Y102.451
X125.634 Y101.714
X125.654 Y100.977
X125.665 Y100.239
X125.672 Y99.501
X125.676 Y98.763
X125.68 Y97.288
X125.681 Y94.336
X125.682 Y71.464
X125.683 Y70.726
X125.69 Y69.989
X125.71 Y69.251
X125.754 Y68.515
X125.837 Y67.808
X125.939 Y67.295
X126.039 Y66.942
X126.139 Y66.676
X126.243 Y66.454
X126.353 Y66.26
X126.381 Y66.219
X126.512 Y66.073
X126.677 Y65.966
X126.865 Y65.907
X127.061 Y65.899
X127.252 Y65.943
X127.354 Y65.981
X127.522 Y66.03
X127.69 Y66.061
X127.857 Y66.079
X128.025 Y66.087
X128.102
X128.139 Y66.096 Z-5.474
X128.173 Y66.104 Z-5.456
X128.199 Y66.11 Z-5.428
X128.216 Y66.114 Z-5.394
X128.222 Y66.116 Z-5.355
G0 Z5.
X64.311 Y109.703
Z-4.845
G1 Z-5.162 F1016.
X64.308 Y109.711 Z-5.233
X64.301 Y109.733 Z-5.3
X64.289 Y109.769 Z-5.36
X64.273 Y109.817 Z-5.411
X64.254 Y109.874 Z-5.449
X64.233 Y109.938 Z-5.472
X64.211 Y110.005 Z-5.48
G3 X64.088 Y109.987 I-0.06 J-0.02
G1 Y108.813
X64.095 Y108.663
X64.121 Y108.516
X64.162 Y108.371
X64.216 Y108.227
X64.293 Y108.065
X64.386 Y107.902
X64.516 Y107.714
